;FLAVOR:Marlin
;TIME:134
;Filament used: 0.334146m
;Layer height: 0.4
;MINX:103.9
;MINY:103.9
;MINZ:0.4
;MAXX:131.1
;MAXY:131.1
;MAXZ:1.8
;Generated with Cura_SteamEngine 4.8.0
M140 S100
M105
M190 S100
M104 S240
M105
M109 S240
M82 ;absolute extrusion mode
; Ender 3 Custom Start G-code
G92 E0 ; Reset Extruder
G28 ; Home all axes
G1 Z2.0 F3000 ; Move Z Axis up little to prevent scratching of Heat Bed
G1 X0.1 Y20 Z0.3 F5000.0 ; Move to start position
G1 X0.1 Y200.0 Z0.3 F1500.0 E15 ; Draw the first line
G1 X0.4 Y200.0 Z0.3 F5000.0 ; Move to side a little
G1 X0.4 Y20 Z0.3 F1500.0 E30 ; Draw the second line
G92 E0 ; Reset Extruder
G1 Z2.0 F3000 ; Move Z Axis up little to prevent scratching of Heat Bed
G1 X5 Y20 Z0.3 F5000.0 ; Move over to prevent blob squish
G92 E0
G92 E0
G1 F2700 E-5
;LAYER_COUNT:5
;LAYER:0
M107
G0 F6000 X105.131 Y105.383 Z0.4
;TYPE:SKIRT
G1 F2700 E0
G1 F1200 X105.515 Y105.009 E0.07916
G1 X105.841 Y104.765 E0.13929
G1 X106.093 Y104.598 E0.18394
G1 X106.685 Y104.281 E0.2831
G1 X106.742 Y104.257 E0.29224
G1 X107.308 Y104.072 E0.38017
G1 X107.603 Y104.002 E0.42495
G1 X108.061 Y103.924 E0.49356
G1 X108.109 Y103.919 E0.50068
G1 X108.482 Y103.9 E0.55584
G1 X126.499 Y103.9 E3.2165
G1 X126.938 Y103.927 E3.28145
G1 X126.995 Y103.934 E3.28993
G1 X127.517 Y104.038 E3.36853
G1 X127.925 Y104.151 E3.43105
G1 X128.43 Y104.332 E3.51027
G1 X128.696 Y104.464 E3.55412
G1 X128.778 Y104.509 E3.56794
G1 X129.403 Y104.944 E3.68039
G1 X129.59 Y105.106 E3.71693
G1 X129.994 Y105.517 E3.80203
G1 X130.035 Y105.566 E3.81147
G1 X130.347 Y106.001 E3.89052
G1 X130.48 Y106.219 E3.92823
G1 X130.742 Y106.739 E4.01422
G1 X130.768 Y106.803 E4.02442
G1 X130.945 Y107.366 E4.11157
G1 X131.007 Y107.641 E4.1532
G1 X131.072 Y108.027 E4.21101
G1 X131.077 Y108.071 E4.21755
G1 X131.1 Y108.477 E4.2776
G1 X131.1 Y126.483 E6.93664
G1 X131.082 Y126.842 E6.98972
G1 X131.051 Y127.092 E7.02692
G1 X131.009 Y127.351 E7.06567
G1 X130.829 Y128.03 E7.1694
G1 X130.8 Y128.108 E7.18169
G1 X130.446 Y128.813 E7.29819
G1 X130.213 Y129.172 E7.36139
G1 X129.888 Y129.599 E7.44064
G1 X129.697 Y129.798 E7.48137
G1 X129.634 Y129.859 E7.49432
G1 X129.007 Y130.345 E7.61147
G1 X128.786 Y130.48 E7.64971
G1 X128.246 Y130.751 E7.73894
G1 X128.181 Y130.777 E7.74928
G1 X127.575 Y130.959 E7.84272
G1 X127.276 Y131.021 E7.88781
G1 X126.895 Y131.079 E7.94472
G1 X126.854 Y131.083 E7.95081
G1 X126.504 Y131.1 E8.00255
G1 X108.515 Y131.1 E10.65908
G1 X108.246 Y131.09 E10.69883
G1 X107.902 Y131.05 E10.74997
G1 X107.628 Y131.005 E10.79098
G1 X106.938 Y130.82 E10.89647
G1 X106.856 Y130.789 E10.90942
G1 X106.37 Y130.563 E10.98857
G1 X106.122 Y130.411 E11.03152
G1 X105.778 Y130.18 E11.09272
G1 X105.197 Y129.693 E11.20467
G1 X105.139 Y129.633 E11.21699
G1 X104.651 Y129.001 E11.33491
G1 X104.516 Y128.779 E11.37328
G1 X104.253 Y128.255 E11.45986
G1 X104.226 Y128.188 E11.47053
G1 X104.039 Y127.566 E11.56644
G1 X103.978 Y127.269 E11.61122
G1 X103.923 Y126.912 E11.66456
G1 X103.919 Y126.873 E11.67035
G1 X103.9 Y126.506 E11.72462
G1 X103.9 Y108.493 E14.38469
G1 X103.934 Y108.001 E14.45752
G1 X103.942 Y107.943 E14.46616
G1 X104.042 Y107.463 E14.53857
G1 X104.155 Y107.06 E14.60038
G1 X104.338 Y106.556 E14.67956
G1 X104.468 Y106.294 E14.72275
G1 X104.511 Y106.216 E14.7359
G1 X104.965 Y105.571 E14.85238
G1 X105.131 Y105.383 E14.88942
G0 F6000 X105.731 Y105.913
G1 F1200 X106.073 Y105.586 E14.9593
G1 X106.283 Y105.432 E14.99775
G1 X106.535 Y105.265 E15.0424
G1 X106.995 Y105.018 E15.1195
G1 X107.052 Y104.994 E15.12864
G1 X107.493 Y104.851 E15.1971
G1 X107.788 Y104.781 E15.24187
G1 X108.144 Y104.72 E15.29521
G1 X108.192 Y104.715 E15.30234
G1 X108.482 Y104.7 E15.34522
G1 X126.499 Y104.7 E18.00588
G1 X126.84 Y104.721 E18.05633
G1 X126.897 Y104.728 E18.06481
G1 X127.303 Y104.809 E18.12595
G1 X127.711 Y104.922 E18.18847
G1 X128.311 Y105.165 E18.28407
G1 X128.393 Y105.21 E18.29788
G1 X128.879 Y105.549 E18.38539
G1 X129.066 Y105.711 E18.42192
G1 X129.38 Y106.03 E18.48802
G1 X129.421 Y106.079 E18.49746
G1 X129.664 Y106.418 E18.55905
G1 X129.797 Y106.636 E18.59676
G1 X130.001 Y107.04 E18.6636
G1 X130.027 Y107.104 E18.6738
G1 X130.164 Y107.542 E18.74157
G1 X130.226 Y107.817 E18.7832
G1 X130.277 Y108.117 E18.82814
G1 X130.282 Y108.161 E18.83468
G1 X130.3 Y108.477 E18.88142
G1 X130.3 Y126.483 E21.54046
G1 X130.286 Y126.77 E21.58289
G1 X130.261 Y126.964 E21.61178
G1 X130.219 Y127.223 E21.65052
G1 X130.079 Y127.751 E21.73119
G1 X130.05 Y127.829 E21.74348
G1 X129.775 Y128.377 E21.83402
G1 X129.542 Y128.736 E21.89723
G1 X129.141 Y129.224 E21.9905
G1 X129.078 Y129.285 E22.00345
G1 X128.59 Y129.662 E22.09452
G1 X128.369 Y129.797 E22.13276
G1 X127.949 Y130.008 E22.20217
G1 X127.884 Y130.034 E22.21251
G1 X127.413 Y130.176 E22.28516
G1 X127.114 Y130.238 E22.33025
G1 X126.817 Y130.283 E22.37461
G1 X126.776 Y130.287 E22.38069
G1 X126.504 Y130.3 E22.42091
G1 X108.515 Y130.3 E25.07743
G1 X108.299 Y130.292 E25.10935
G1 X108.031 Y130.261 E25.14919
G1 X107.757 Y130.216 E25.1902
G1 X107.221 Y130.072 E25.27216
G1 X107.139 Y130.041 E25.2851
G1 X106.568 Y129.747 E25.37995
G1 X106.224 Y129.516 E25.44114
G1 X105.772 Y129.137 E25.52825
G1 X105.714 Y129.077 E25.54057
G1 X105.335 Y128.586 E25.63217
G1 X105.2 Y128.364 E25.67054
G1 X104.995 Y127.956 E25.73797
G1 X104.968 Y127.889 E25.74863
G1 X104.822 Y127.405 E25.82329
G1 X104.761 Y127.108 E25.86807
G1 X104.719 Y126.831 E25.90944
G1 X104.715 Y126.792 E25.91523
G1 X104.7 Y126.506 E25.95752
G1 X104.7 Y108.493 E28.61759
G1 X104.726 Y108.11 E28.67428
G1 X104.734 Y108.052 E28.68293
G1 X104.812 Y107.679 E28.7392
G1 X104.925 Y107.276 E28.80101
G1 X105.169 Y106.68 E28.89611
G1 X105.212 Y106.602 E28.90927
G1 X105.565 Y106.101 E28.99977
G1 X105.731 Y105.913 E29.03681
G0 F6000 X106.331 Y106.442
G1 F1200 X106.725 Y106.099 E29.11395
G1 X106.977 Y105.932 E29.1586
G1 X107.306 Y105.756 E29.2137
G1 X107.363 Y105.732 E29.22283
G1 X107.677 Y105.629 E29.27163
G1 X107.972 Y105.559 E29.3164
G1 X108.227 Y105.516 E29.35459
G1 X108.482 Y105.5 E29.39232
G1 X126.499 Y105.5 E32.05299
G1 X126.8 Y105.522 E32.09755
G1 X127.09 Y105.58 E32.14123
G1 X127.498 Y105.693 E32.20375
G1 X127.926 Y105.867 E32.27198
G1 X128.008 Y105.912 E32.28579
G1 X128.356 Y106.153 E32.3483
G1 X128.543 Y106.315 E32.38484
G1 X128.767 Y106.544 E32.43214
G1 X128.808 Y106.593 E32.44158
G1 X128.981 Y106.834 E32.48539
G1 X129.114 Y107.052 E32.5231
G1 X129.26 Y107.341 E32.57091
G1 X129.286 Y107.405 E32.58112
G1 X129.384 Y107.718 E32.62955
G1 X129.446 Y107.993 E32.67118
G1 X129.487 Y108.251 E32.70976
G1 X129.5 Y108.477 E32.74319
G1 X129.5 Y126.483 E35.40222
G1 X129.471 Y126.836 E35.45453
G1 X129.429 Y127.095 E35.49328
G1 X129.33 Y127.472 E35.55084
G1 X129.301 Y127.55 E35.56313
G1 X129.104 Y127.942 E35.62791
G1 X128.871 Y128.301 E35.69112
G1 X128.584 Y128.649 E35.75773
G1 X128.521 Y128.71 E35.77068
G1 X128.173 Y128.98 E35.83572
G1 X127.952 Y129.115 E35.87397
G1 X127.652 Y129.265 E35.9235
G1 X127.587 Y129.291 E35.93384
G1 X127.25 Y129.392 E35.98579
G1 X126.951 Y129.454 E36.03089
G1 X126.698 Y129.491 E36.06865
G1 X126.504 Y129.5 E36.09732
G1 X108.515 Y129.5 E38.75385
G1 X108.161 Y129.472 E38.80629
G1 X107.887 Y129.427 E38.8473
G1 X107.504 Y129.324 E38.90586
G1 X107.422 Y129.293 E38.91881
G1 X107.014 Y129.082 E38.98664
G1 X106.67 Y128.851 E39.04783
G1 X106.347 Y128.581 E39.11
G1 X106.289 Y128.521 E39.12233
G1 X106.018 Y128.17 E39.18781
G1 X105.883 Y127.948 E39.22618
G1 X105.737 Y127.657 E39.27426
G1 X105.71 Y127.59 E39.28493
G1 X105.606 Y127.244 E39.33828
G1 X105.545 Y126.947 E39.38306
G1 X105.5 Y126.506 E39.44852
G1 X105.5 Y108.493 E42.10859
G1 X105.519 Y108.22 E42.149
G1 X105.527 Y108.162 E42.15765
G1 X105.582 Y107.895 E42.19791
G1 X105.695 Y107.492 E42.25971
G1 X105.87 Y107.066 E42.32772
G1 X105.913 Y106.988 E42.34088
G1 X106.165 Y106.63 E42.40553
G1 X106.331 Y106.442 E42.44257
G0 F6000 X106.93 Y106.972
G1 F1200 X107.167 Y106.766 E42.48894
G1 X107.419 Y106.599 E42.53358
G1 X107.673 Y106.469 E42.57572
G1 X107.862 Y106.407 E42.60509
G1 X108.157 Y106.337 E42.64987
G1 X108.482 Y106.3 E42.69817
G1 X126.499 Y106.3 E45.35883
G1 X126.876 Y106.351 E45.41501
G1 X127.284 Y106.464 E45.47753
G1 X127.541 Y106.568 E45.51847
G1 X127.623 Y106.613 E45.53229
G1 X127.832 Y106.758 E45.56985
G1 X128.153 Y107.057 E45.63463
G1 X128.298 Y107.251 E45.6704
G1 X128.431 Y107.469 E45.70811
G1 X128.545 Y107.706 E45.74695
G1 X128.604 Y107.894 E45.77605
G1 X128.666 Y108.169 E45.81768
G1 X128.7 Y108.477 E45.86344
G1 X128.7 Y126.483 E48.52247
G1 X128.682 Y126.708 E48.55581
G1 X128.64 Y126.967 E48.59455
G1 X128.551 Y127.271 E48.64133
G1 X128.433 Y127.506 E48.68016
G1 X128.2 Y127.865 E48.74337
G1 X128.028 Y128.074 E48.78334
G1 X127.965 Y128.135 E48.79629
G1 X127.756 Y128.297 E48.83534
G1 X127.535 Y128.432 E48.87358
G1 X127.29 Y128.548 E48.91361
G1 X127.088 Y128.609 E48.94477
G1 X126.789 Y128.671 E48.98987
G1 X126.504 Y128.7 E49.03217
G1 X108.515 Y128.7 E51.6887
G1 X108.291 Y128.682 E51.72188
G1 X108.017 Y128.637 E51.76289
G1 X107.705 Y128.544 E51.81097
G1 X107.46 Y128.418 E51.85165
G1 X107.116 Y128.187 E51.91284
G1 X106.922 Y128.025 E51.95017
G1 X106.864 Y127.965 E51.96249
G1 X106.702 Y127.754 E52.00178
G1 X106.567 Y127.532 E52.04014
G1 X106.452 Y127.291 E52.07958
G1 X106.39 Y127.083 E52.11163
G1 X106.329 Y126.786 E52.15641
G1 X106.3 Y126.506 E52.19798
G1 X106.3 Y108.493 E54.85805
G1 X106.353 Y108.111 E54.915
G1 X106.466 Y107.708 E54.97681
G1 X106.57 Y107.453 E55.01747
G1 X106.613 Y107.375 E55.03063
G1 X106.764 Y107.16 E55.06943
G1 X106.93 Y106.972 E55.10646
G0 F6000 X107.53 Y107.501
G1 F1200 X107.609 Y107.433 E55.12186
G1 X107.861 Y107.266 E55.1665
G1 X108.047 Y107.186 E55.1964
G1 X108.342 Y107.116 E55.24117
G1 X108.482 Y107.1 E55.26198
G1 X126.499 Y107.1 E57.92264
G1 X126.663 Y107.122 E57.94708
G1 X127.071 Y107.235 E58.0096
G1 X127.308 Y107.363 E58.04938
G1 X127.54 Y107.57 E58.09529
G1 X127.615 Y107.668 E58.11352
G1 X127.748 Y107.886 E58.15123
G1 X127.823 Y108.07 E58.18057
G1 X127.885 Y108.345 E58.2222
G1 X127.9 Y108.477 E58.24182
G1 X127.9 Y126.483 E60.90085
G1 X127.892 Y126.58 E60.91523
G1 X127.85 Y126.839 E60.95397
G1 X127.762 Y127.071 E60.99062
G1 X127.529 Y127.43 E61.05382
G1 X127.339 Y127.614 E61.09288
G1 X127.118 Y127.749 E61.13112
G1 X126.925 Y127.826 E61.16181
G1 X126.626 Y127.888 E61.2069
G1 X126.504 Y127.9 E61.22501
G1 X108.488 Y127.899 E63.88552
G1 X108.42 Y127.893 E63.8956
G1 X108.146 Y127.848 E63.9366
G1 X107.906 Y127.754 E63.97467
G1 X107.562 Y127.523 E64.03586
G1 X107.385 Y127.339 E64.07356
G1 X107.25 Y127.117 E64.11193
G1 X107.173 Y126.922 E64.14289
G1 X107.112 Y126.625 E64.18767
G1 X107.1 Y126.506 E64.20533
G1 X107.1 Y108.493 E66.8654
G1 X107.123 Y108.327 E66.89015
G1 X107.236 Y107.924 E66.95196
G1 X107.364 Y107.689 E66.99147
G1 X107.53 Y107.501 E67.02851
G1 F2700 E62.02851
;MESH:Dota2.stl
G0 F6000 X108.119 Y108.548
G0 X108.426 Y126.78
G0 X108.316 Y127.066
;TYPE:WALL-OUTER
G1 F2700 E67.02851
G1 F1200 X108.046 Y126.885 E67.07651
G1 X107.95 Y126.728 E67.10369
G1 X107.9 Y126.485 E67.14033
G1 X107.9 Y108.519 E69.79345
G1 X107.995 Y108.184 E69.84488
G1 X108.113 Y108.05 E69.87124
G1 X108.263 Y107.957 E69.89731
G1 X108.504 Y107.9 E69.93388
G1 X126.473 Y107.9 E72.58745
G1 X126.816 Y107.995 E72.64001
G1 X126.948 Y108.11 E72.66586
G1 X127.05 Y108.276 E72.69464
G1 X127.1 Y108.5 E72.72853
G1 X127.1 Y126.468 E75.38195
G1 X127.067 Y126.672 E75.41247
G1 X126.883 Y126.955 E75.46232
G1 X126.728 Y127.05 E75.48917
G1 X126.485 Y127.1 E75.5258
G1 X108.531 Y127.1 E78.17716
G1 X108.316 Y127.066 E78.2093
G0 F6000 X108.78 Y126.247
G1 F2700 E73.2093
G0 F6000 X109.11 Y117.256
G0 X109.907 Y117.256
G0 X111.532 Y117.256
G0 X111.632 Y116.973
G1 F2700 E78.2093
G1 F1200 X115.972 Y111.551 E79.23491
G1 X115.755 Y111.097 E79.30922
G1 X111.097 Y111.097 E79.99709
G1 X111.097 Y116.786 E80.83722
G1 X111.632 Y116.973 E80.92091
G1 F2700 E75.92091
G0 F6000 X111.532 Y117.256
G0 X110.861 Y120.285
G0 X110.798 Y123.902
G0 X111.098 Y123.902
G1 F2700 E80.92091
G1 F1200 X114.634 Y123.902 E81.44309
G1 X123.903 Y116.693 E83.17715
G1 X123.903 Y111.097 E84.00354
G1 X118.307 Y111.097 E84.82993
G1 X111.098 Y120.366 E86.56399
G1 X111.098 Y123.902 E87.08617
G1 F2700 E82.08617
G0 F6000 X110.798 Y123.902
G0 X114.715 Y124.139
G0 X116.873 Y123.664
G0 X118.049 Y124.135
G0 X124.131 Y124.131
G0 X123.903 Y123.903
G1 F2700 E87.08617
G1 F1200 X123.903 Y119.245 E87.77404
G1 X123.449 Y119.028 E87.84834
G1 X118.027 Y123.368 E88.87395
G1 X118.214 Y123.903 E88.95765
G1 X123.903 Y123.903 E89.79777
G0 F6000 X124.203 Y123.903
G0 X124.703 Y124.703
;TYPE:WALL-INNER
G1 F1200 X124.703 Y118.741 E90.67821
G1 X123.965 Y118.388 E90.79902
G1 X123.383 Y118.11 E90.89427
G1 X123.892 Y117.715 E90.94889
G1 X123.893 Y117.714 E90.9491
G1 X124.703 Y117.084 E91.10064
G1 X124.703 Y110.297 E92.10291
G1 X117.916 Y110.297 E93.10518
G1 X117.286 Y111.107 E93.25672
G1 X117.285 Y111.108 E93.25693
G1 X116.89 Y111.617 E93.35207
G1 X116.612 Y111.035 E93.40676
G1 X116.259 Y110.297 E93.52757
G1 X110.297 Y110.297 E94.40801
G1 X110.297 Y117.354 E95.45015
G1 X111.425 Y117.748 E95.6266
G1 X111.903 Y117.915 E95.70137
G1 X115.024 Y114.016 E96.4389
G1 X111.959 Y117.957 E96.47106
G1 X111.648 Y118.357 E96.51815
G1 X110.298 Y120.092 E96.84279
G1 X110.298 Y124.702 E97.52358
G1 X114.908 Y124.702 E98.20436
G1 X116.641 Y123.353 E98.52867
G1 X117.042 Y123.042 E98.60362
G1 X120.984 Y119.976 E99.3411
G1 X117.085 Y123.097 E99.37295
G1 X117.252 Y123.576 E99.42008
G1 X117.646 Y124.703 E99.59639
G1 X124.703 Y124.703 E100.63853
G1 F2700 E95.63853
G0 F6000 X116.999 Y124.013
G0 X116.873 Y123.664
G0 X109.902 Y125.098
G0 X109.902 Y125.89
G0 X108.7 Y126.3
G1 F2700 E100.63853
G1 F1200 X108.7 Y108.7 E103.23761
G1 X126.3 Y108.7 E105.83669
G1 X126.3 Y126.3 E108.43577
G1 X108.7 Y126.3 E111.03485
G1 F2700 E106.03485
G0 F6000 X109.11 Y109.987
G0 X109.907 Y109.987
G0 X109.577 Y109.577
;TYPE:SKIN
G1 F2700 E111.03485
G1 F1200 X109.577 Y117.865 E112.25878
G1 X110.789 Y118.288 E112.44835
G1 X109.578 Y119.845 E112.73964
G1 X109.578 Y125.422 E113.56322
G1 X115.155 Y125.422 E114.38681
G1 X116.712 Y124.211 E114.6781
G1 X117.135 Y125.423 E114.86767
G1 X125.423 Y125.423 E116.0916
G1 X125.423 Y118.287 E117.14541
G1 X124.746 Y117.963 E117.25624
G1 X125.423 Y117.437 E117.38285
G1 X125.423 Y109.577 E118.54357
G1 X117.563 Y109.577 E119.7043
G1 X117.037 Y110.254 E119.8309
G1 X116.713 Y109.577 E119.94174
G1 X109.577 Y109.577 E120.99555
G0 F6000 X109.42 Y109.42
G1 F1200 X125.58 Y109.42 E123.38198
G1 X125.58 Y125.58 E125.7684
G1 X109.42 Y125.58 E128.15483
G1 X109.42 Y109.42 E130.54126
G1 F2700 E125.54126
G0 F6000 X109.42 Y109.01
G0 X109.082 Y109.082
G0 X109.11 Y117.602
G0 X109.907 Y117.602
G0 X109.818 Y118.303
;TYPE:SKIN
G1 F2700 E130.54126
G1 F1200 X110.118 Y118.603 E130.57259
G0 F6000 X109.87 Y118.921
G1 F1200 X109.754 Y118.805 E130.5847
G1 F2700 E125.5847
G0 F6000 X109.01 Y118.805
G0 X109.11 Y124.541
G0 X109.908 Y124.541
G0 X115.622 Y124.541
G0 X116.077 Y125.128
G1 F2700 E130.5847
G1 F1200 X116.193 Y125.244 E130.59681
G0 F6000 X116.396 Y124.881
G1 F1200 X116.695 Y125.181 E130.62809
G0 F6000 X117.399 Y124.937
G0 X117.753 Y123.289
G0 X121.696 Y119.999
G0 X121.368 Y119.671
G1 F1200 X121.684 Y119.421 E130.71352
G1 X122.951 Y118.425 E131.05524
G0 F6000 X123.268 Y118.743
G0 X124.138 Y116.808
G0 X124.131 Y110.869
G0 X118.192 Y110.862
G0 X116.151 Y113.323
G0 X115.826 Y112.998
G1 F1200 X116.075 Y112.681 E131.1611
G1 X115.327 Y113.63 E131.47843
G0 F6000 X115.448 Y113.805
;MESH:NONMESH
G0 F300 X115.448 Y113.805 Z0.84
G0 F6000 X111.425 Y117.748
;TIME_ELAPSED:58.575254
;LAYER:1
;TYPE:WALL-INNER
;MESH:Dota2.stl
G1 F1350 X111.903 Y117.915 E131.55253
G1 X115.024 Y114.016 E132.28341
G1 X111.959 Y117.957 E132.31528
G1 X111.648 Y118.357 E132.36195
G1 X110.298 Y120.092 E132.68367
G1 X110.298 Y124.702 E133.35832
G1 X114.908 Y124.702 E134.03296
G1 X116.641 Y123.353 E134.35436
G1 X117.042 Y123.042 E134.42862
G1 X120.984 Y119.976 E135.15946
G1 X117.085 Y123.097 E135.19102
G1 X117.252 Y123.576 E135.23774
G1 X117.646 Y124.703 E135.41245
G1 X124.703 Y124.703 E136.44521
G1 X124.703 Y118.741 E137.31772
G1 X123.965 Y118.388 E137.43744
