;FLAVOR:Marlin
;TIME:646
;Filament used: 0.309366m
;Layer height: 0.16
;MINX:103.2
;MINY:103.2
;MINZ:0.2
;MAXX:131.8
;MAXY:131.8
;MAXZ:1.96
;Generated with Cura_SteamEngine 4.8.0
M140 S100
M105
M190 S100
M104 S240
M105
M109 S240
M82 ;absolute extrusion mode
; Ender 3 Custom Start G-code
G92 E0 ; Reset Extruder
G28 ; Home all axes
G1 Z2.0 F3000 ; Move Z Axis up little to prevent scratching of Heat Bed
G1 X0.1 Y20 Z0.3 F5000.0 ; Move to start position
G1 X0.1 Y200.0 Z0.3 F1500.0 E15 ; Draw the first line
G1 X0.4 Y200.0 Z0.3 F5000.0 ; Move to side a little
G1 X0.4 Y20 Z0.3 F1500.0 E30 ; Draw the second line
G92 E0 ; Reset Extruder
G1 Z2.0 F3000 ; Move Z Axis up little to prevent scratching of Heat Bed
G1 X5 Y20 Z0.3 F5000.0 ; Move over to prevent blob squish
G92 E0
G92 E0
G1 F2700 E-5
;LAYER_COUNT:11
;LAYER:0
M107
G0 F1200 X104.863 Y104.657 Z0.2
;TYPE:SKIRT
G1 F2700 E0
G1 F1200 X105.413 Y104.196 E0.05594
G1 X105.504 Y104.133 E0.06457
G1 X105.965 Y103.859 E0.10638
G1 X106.254 Y103.713 E0.13162
G1 X106.803 Y103.486 E0.17793
G1 X106.898 Y103.455 E0.18572
G1 X107.435 Y103.322 E0.22884
G1 X107.766 Y103.264 E0.25504
G1 X108.126 Y103.218 E0.28333
G1 X108.188 Y103.213 E0.28818
G1 X108.501 Y103.2 E0.3126
G1 X126.507 Y103.2 E1.71623
G1 X126.873 Y103.217 E1.74479
G1 X127.131 Y103.247 E1.76504
G1 X127.442 Y103.293 E1.78954
G1 X128.052 Y103.434 E1.83835
G1 X128.159 Y103.468 E1.8471
G1 X128.773 Y103.722 E1.8989
G1 X129.074 Y103.878 E1.92533
G1 X129.613 Y104.217 E1.97496
G1 X129.7 Y104.282 E1.98343
G1 X130.136 Y104.661 E2.02846
G1 X130.36 Y104.887 E2.05327
G1 X130.683 Y105.256 E2.0915
G1 X130.746 Y105.338 E2.09956
G1 X131.098 Y105.886 E2.15033
G1 X131.254 Y106.18 E2.17627
G1 X131.526 Y106.827 E2.23099
G1 X131.56 Y106.934 E2.23974
G1 X131.693 Y107.495 E2.28468
G1 X131.745 Y107.818 E2.31019
G1 X131.779 Y108.085 E2.33117
G1 X131.784 Y108.14 E2.33547
G1 X131.8 Y108.493 E2.36302
G1 X131.8 Y126.502 E3.76688
G1 X131.786 Y126.837 E3.79302
G1 X131.781 Y126.895 E3.79756
G1 X131.743 Y127.195 E3.82113
G1 X131.691 Y127.51 E3.84602
G1 X131.561 Y128.053 E3.88954
G1 X131.529 Y128.154 E3.8978
G1 X131.287 Y128.744 E3.94751
G1 X131.139 Y129.035 E3.97296
G1 X130.829 Y129.544 E4.01942
G1 X130.765 Y129.633 E4.02797
G1 X130.403 Y130.066 E4.07196
G1 X130.173 Y130.304 E4.09776
G1 X129.655 Y130.754 E4.15125
G1 X129.561 Y130.822 E4.16029
G1 X129.048 Y131.136 E4.20718
G1 X128.758 Y131.284 E4.23256
G1 X128.251 Y131.499 E4.27549
G1 X128.149 Y131.534 E4.2839
G1 X127.477 Y131.7 E4.33786
G1 X127.159 Y131.749 E4.36294
G1 X126.871 Y131.782 E4.38554
G1 X126.511 Y131.799 E4.41363
G1 X108.494 Y131.8 E5.81812
G1 X108.134 Y131.783 E5.84621
G1 X107.848 Y131.75 E5.86865
G1 X107.529 Y131.701 E5.89381
G1 X106.856 Y131.535 E5.94785
G1 X106.751 Y131.499 E5.9565
G1 X106.262 Y131.293 E5.99786
G1 X105.972 Y131.147 E6.02317
G1 X105.386 Y130.784 E6.07691
G1 X105.298 Y130.718 E6.08548
G1 X104.892 Y130.368 E6.12727
G1 X104.659 Y130.137 E6.15285
G1 X104.273 Y129.691 E6.19883
G1 X104.204 Y129.598 E6.20785
G1 X103.857 Y129.037 E6.25928
G1 X103.711 Y128.749 E6.28445
G1 X103.468 Y128.151 E6.33476
G1 X103.437 Y128.052 E6.34285
G1 X103.311 Y127.524 E6.38517
G1 X103.258 Y127.204 E6.41045
G1 X103.222 Y126.92 E6.43277
G1 X103.217 Y126.865 E6.43707
G1 X103.201 Y126.512 E6.46462
G1 X103.2 Y108.488 E7.86965
G1 X103.217 Y108.128 E7.89775
G1 X103.25 Y107.846 E7.91988
G1 X103.297 Y107.538 E7.94417
G1 X103.449 Y106.904 E7.99499
G1 X103.483 Y106.801 E8.00344
G1 X103.707 Y106.26 E8.04909
G1 X103.859 Y105.96 E8.07531
G1 X104.21 Y105.394 E8.12722
G1 X104.277 Y105.304 E8.13597
G1 X104.635 Y104.887 E8.17881
G1 X104.863 Y104.657 E8.20406
G0 X105.289 Y105.08
G1 X105.755 Y104.69 E8.25143
G1 X105.846 Y104.627 E8.26005
G1 X106.236 Y104.395 E8.29543
G1 X106.525 Y104.249 E8.32067
G1 X106.989 Y104.057 E8.35981
G1 X107.084 Y104.026 E8.3676
G1 X107.538 Y103.913 E8.40407
G1 X107.869 Y103.855 E8.43027
G1 X108.174 Y103.816 E8.45424
G1 X108.236 Y103.811 E8.45909
G1 X108.501 Y103.8 E8.47976
G1 X126.507 Y103.8 E9.88339
G1 X126.817 Y103.815 E9.90759
G1 X127.043 Y103.841 E9.92532
G1 X127.354 Y103.887 E9.94983
G1 X127.87 Y104.006 E9.99111
G1 X127.977 Y104.04 E9.99986
G1 X128.496 Y104.255 E10.04365
G1 X128.797 Y104.411 E10.07008
G1 X129.254 Y104.697 E10.11211
G1 X129.341 Y104.762 E10.12057
G1 X129.71 Y105.083 E10.1587
G1 X129.934 Y105.309 E10.1835
G1 X130.207 Y105.621 E10.21582
G1 X130.27 Y105.703 E10.22388
G1 X130.568 Y106.167 E10.26687
G1 X130.724 Y106.461 E10.29281
G1 X130.954 Y107.009 E10.33914
G1 X130.988 Y107.116 E10.34789
G1 X131.101 Y107.59 E10.38588
G1 X131.153 Y107.913 E10.41138
G1 X131.186 Y108.194 E10.43344
G1 X131.2 Y108.493 E10.45677
G1 X131.2 Y126.502 E11.86064
G1 X131.188 Y126.785 E11.88272
G1 X131.183 Y126.843 E11.88725
G1 X131.151 Y127.097 E11.90721
G1 X131.099 Y127.412 E11.9321
G1 X130.989 Y127.872 E11.96897
G1 X130.957 Y127.973 E11.97723
G1 X130.752 Y128.472 E12.01928
G1 X130.604 Y128.763 E12.04473
G1 X130.342 Y129.194 E12.08405
G1 X130.278 Y129.283 E12.09259
G1 X129.972 Y129.649 E12.12978
G1 X129.742 Y129.887 E12.15558
G1 X129.303 Y130.268 E12.2009
G1 X129.209 Y130.336 E12.20994
G1 X128.775 Y130.601 E12.24958
G1 X128.485 Y130.749 E12.27496
G1 X128.056 Y130.931 E12.31129
G1 X127.954 Y130.966 E12.31969
G1 X127.386 Y131.107 E12.36532
G1 X127.068 Y131.156 E12.3904
G1 X126.815 Y131.185 E12.41025
G1 X126.511 Y131.199 E12.43397
G1 X108.494 Y131.2 E13.83846
G1 X108.19 Y131.186 E13.86218
G1 X107.939 Y131.157 E13.88188
G1 X107.62 Y131.108 E13.90704
G1 X107.051 Y130.968 E13.95271
G1 X106.946 Y130.932 E13.96137
G1 X106.532 Y130.758 E13.99637
G1 X106.242 Y130.612 E14.02168
G1 X105.746 Y130.304 E14.0672
G1 X105.658 Y130.238 E14.07577
G1 X105.315 Y129.941 E14.11114
G1 X105.082 Y129.71 E14.13672
G1 X104.755 Y129.333 E14.17562
G1 X104.686 Y129.24 E14.18465
G1 X104.393 Y128.766 E14.22809
G1 X104.247 Y128.478 E14.25326
G1 X104.041 Y127.972 E14.29585
G1 X104.01 Y127.873 E14.30393
G1 X103.903 Y127.426 E14.33976
G1 X103.85 Y127.106 E14.36505
G1 X103.815 Y126.811 E14.38821
G1 X103.801 Y126.512 E14.41154
G1 X103.8 Y108.488 E15.81657
G1 X103.814 Y108.184 E15.84029
G1 X103.843 Y107.936 E15.85976
G1 X103.89 Y107.628 E15.88405
G1 X104.018 Y107.092 E15.927
G1 X104.052 Y106.989 E15.93546
G1 X104.242 Y106.532 E15.97404
G1 X104.394 Y106.232 E16.00026
G1 X104.691 Y105.752 E16.04426
G1 X104.758 Y105.662 E16.053
G1 X105.061 Y105.31 E16.08921
G1 X105.289 Y105.08 E16.11446
G0 X105.715 Y105.502
G1 X106.096 Y105.183 E16.15319
G1 X106.187 Y105.12 E16.16182
G1 X106.507 Y104.93 E16.19083
G1 X106.796 Y104.784 E16.21607
G1 X107.175 Y104.627 E16.24805
G1 X107.27 Y104.596 E16.25584
G1 X107.642 Y104.504 E16.28571
G1 X107.973 Y104.446 E16.31191
G1 X108.222 Y104.414 E16.33148
G1 X108.501 Y104.4 E16.35325
G1 X126.507 Y104.4 E17.75688
G1 X126.761 Y104.412 E17.77671
G1 X126.955 Y104.434 E17.79193
G1 X127.266 Y104.48 E17.81643
G1 X127.689 Y104.578 E17.85028
G1 X127.796 Y104.612 E17.85903
G1 X128.22 Y104.788 E17.89482
G1 X128.521 Y104.944 E17.92125
G1 X128.895 Y105.178 E17.95564
G1 X128.982 Y105.243 E17.9641
G1 X129.284 Y105.505 E17.99527
G1 X129.508 Y105.731 E18.02008
G1 X129.731 Y105.987 E18.04654
G1 X129.794 Y106.069 E18.0546
G1 X130.038 Y106.448 E18.08974
G1 X130.194 Y106.742 E18.11568
G1 X130.382 Y107.19 E18.15356
G1 X130.416 Y107.297 E18.16231
G1 X130.509 Y107.686 E18.19349
G1 X130.561 Y108.009 E18.21899
G1 X130.6 Y108.493 E18.25684
G1 X130.6 Y126.502 E19.66071
G1 X130.585 Y126.792 E19.68334
G1 X130.559 Y127 E19.69968
G1 X130.507 Y127.315 E19.72457
G1 X130.417 Y127.69 E19.75463
G1 X130.385 Y127.791 E19.76289
G1 X130.218 Y128.2 E19.79733
G1 X130.07 Y128.491 E19.82278
G1 X129.855 Y128.843 E19.85494
G1 X129.791 Y128.932 E19.86348
G1 X129.541 Y129.232 E19.89392
G1 X129.311 Y129.47 E19.91972
G1 X128.952 Y129.782 E19.9568
G1 X128.858 Y129.85 E19.96584
G1 X128.502 Y130.067 E19.99834
G1 X128.212 Y130.215 E20.02372
G1 X127.861 Y130.364 E20.05345
G1 X127.759 Y130.399 E20.06186
G1 X127.294 Y130.514 E20.0992
G1 X126.976 Y130.563 E20.12428
G1 X126.511 Y130.599 E20.16064
G1 X108.494 Y130.6 E21.56512
G1 X108.191 Y130.583 E21.58878
G1 X108.03 Y130.564 E21.60142
G1 X107.711 Y130.515 E21.62658
G1 X107.245 Y130.4 E21.66399
G1 X107.14 Y130.364 E21.67264
G1 X106.802 Y130.222 E21.70122
G1 X106.512 Y130.076 E21.72653
G1 X106.106 Y129.824 E21.76378
G1 X106.018 Y129.758 E21.77236
G1 X105.737 Y129.515 E21.80132
G1 X105.504 Y129.284 E21.82689
G1 X105.237 Y128.976 E21.85867
G1 X105.168 Y128.883 E21.8677
G1 X104.928 Y128.495 E21.90326
G1 X104.782 Y128.207 E21.92843
G1 X104.613 Y127.793 E21.96329
G1 X104.582 Y127.694 E21.97138
G1 X104.495 Y127.328 E22.0007
G1 X104.442 Y127.008 E22.02599
G1 X104.412 Y126.756 E22.04577
G1 X104.401 Y126.512 E22.06481
G1 X104.4 Y108.488 E23.46984
G1 X104.417 Y108.185 E23.4935
G1 X104.436 Y108.027 E23.50591
G1 X104.483 Y107.719 E23.53019
G1 X104.588 Y107.28 E23.56538
G1 X104.622 Y107.177 E23.57384
G1 X104.778 Y106.803 E23.60542
G1 X104.93 Y106.503 E23.63164
G1 X105.172 Y106.111 E23.66755
G1 X105.239 Y106.021 E23.6763
G1 X105.487 Y105.732 E23.70599
G1 X105.715 Y105.502 E23.73123
G0 X106.142 Y105.925
G1 X106.438 Y105.676 E23.76138
G1 X106.529 Y105.613 E23.77001
G1 X106.777 Y105.466 E23.79249
G1 X107.066 Y105.32 E23.81773
G1 X107.362 Y105.198 E23.84268
G1 X107.457 Y105.167 E23.85047
G1 X107.746 Y105.095 E23.87369
G1 X108.077 Y105.037 E23.89989
G1 X108.332 Y105.007 E23.9199
G1 X108.501 Y105 E23.93309
G1 X126.507 Y105 E25.33672
G1 X126.757 Y105.014 E25.35624
G1 X126.867 Y105.028 E25.36488
G1 X127.178 Y105.074 E25.38939
G1 X127.507 Y105.15 E25.41571
G1 X127.614 Y105.184 E25.42446
G1 X127.944 Y105.321 E25.45231
G1 X128.245 Y105.477 E25.47874
G1 X128.536 Y105.659 E25.5055
G1 X128.623 Y105.724 E25.51396
G1 X128.858 Y105.928 E25.53822
G1 X129.082 Y106.154 E25.56303
G1 X129.255 Y106.353 E25.58358
G1 X129.318 Y106.435 E25.59164
G1 X129.508 Y106.73 E25.619
G1 X129.664 Y107.024 E25.64494
G1 X129.81 Y107.372 E25.67436
G1 X129.844 Y107.479 E25.68311
G1 X129.916 Y107.781 E25.70731
G1 X129.968 Y108.104 E25.73282
G1 X130 Y108.493 E25.76324
G1 X130 Y126.502 E27.16711
G1 X129.967 Y126.902 E27.19839
G1 X129.915 Y127.217 E27.22328
G1 X129.845 Y127.509 E27.24669
G1 X129.813 Y127.61 E27.25495
G1 X129.683 Y127.928 E27.28173
G1 X129.535 Y128.219 E27.30718
G1 X129.368 Y128.493 E27.33219
G1 X129.304 Y128.582 E27.34074
G1 X129.109 Y128.815 E27.36442
G1 X128.879 Y129.053 E27.39022
G1 X128.6 Y129.295 E27.41901
G1 X128.506 Y129.363 E27.42806
G1 X128.23 Y129.532 E27.45329
G1 X127.94 Y129.68 E27.47867
G1 X127.667 Y129.796 E27.50179
G1 X127.565 Y129.831 E27.51019
G1 X127.203 Y129.921 E27.53927
G1 X126.885 Y129.97 E27.56435
G1 X126.511 Y129.999 E27.5936
G1 X108.494 Y130 E28.99808
G1 X108.121 Y129.971 E29.02725
G1 X107.802 Y129.922 E29.05241
G1 X107.44 Y129.832 E29.08149
G1 X107.335 Y129.796 E29.09014
G1 X107.072 Y129.686 E29.11236
G1 X106.782 Y129.54 E29.13767
G1 X106.466 Y129.344 E29.16666
G1 X106.378 Y129.278 E29.17523
G1 X106.159 Y129.089 E29.19778
G1 X105.926 Y128.858 E29.22336
G1 X105.718 Y128.618 E29.24812
G1 X105.649 Y128.525 E29.25714
G1 X105.463 Y128.224 E29.28473
G1 X105.317 Y127.936 E29.3099
G1 X105.186 Y127.614 E29.337
G1 X105.155 Y127.515 E29.34508
G1 X105.087 Y127.23 E29.36792
G1 X105.034 Y126.91 E29.39321
G1 X105.001 Y126.512 E29.42434
G1 X105 Y108.488 E30.82937
G1 X105.029 Y108.117 E30.85838
G1 X105.076 Y107.809 E30.88267
G1 X105.158 Y107.468 E30.91001
G1 X105.192 Y107.365 E30.91846
G1 X105.313 Y107.074 E30.94303
G1 X105.465 Y106.774 E30.96925
G1 X105.654 Y106.469 E30.99722
G1 X105.721 Y106.379 E31.00597
G1 X105.914 Y106.155 E31.02901
G1 X106.142 Y105.925 E31.05426
G0 X106.568 Y106.347
G1 X106.779 Y106.17 E31.07573
G1 X107.048 Y106.001 E31.10049
G1 X107.337 Y105.855 E31.12573
G1 X107.643 Y105.737 E31.1513
G1 X107.849 Y105.686 E31.16784
G1 X108.18 Y105.628 E31.19404
G1 X108.501 Y105.6 E31.21916
G1 X126.507 Y105.6 E32.62279
G1 X126.779 Y105.621 E32.64405
G1 X127.09 Y105.667 E32.66856
G1 X127.432 Y105.755 E32.69609
G1 X127.668 Y105.853 E32.71601
G1 X127.969 Y106.009 E32.74244
G1 X128.264 Y106.204 E32.77
G1 X128.431 Y106.35 E32.78729
G1 X128.655 Y106.576 E32.8121
G1 X128.842 Y106.8 E32.83485
G1 X128.978 Y107.011 E32.85441
G1 X129.134 Y107.305 E32.88036
G1 X129.239 Y107.554 E32.90143
G1 X129.324 Y107.877 E32.92746
G1 X129.376 Y108.2 E32.95296
G1 X129.4 Y108.493 E32.97588
G1 X129.4 Y126.502 E34.37974
G1 X129.375 Y126.804 E34.40337
G1 X129.323 Y127.119 E34.42826
G1 X129.241 Y127.429 E34.45325
G1 X129.148 Y127.656 E34.47237
G1 X129 Y127.947 E34.49782
G1 X128.817 Y128.232 E34.52423
G1 X128.678 Y128.398 E34.5411
G1 X128.448 Y128.636 E34.56691
G1 X128.248 Y128.809 E34.58752
G1 X127.957 Y128.998 E34.61457
G1 X127.667 Y129.146 E34.63995
G1 X127.37 Y129.264 E34.66486
G1 X127.111 Y129.328 E34.68566
G1 X126.793 Y129.377 E34.71074
G1 X126.511 Y129.399 E34.73279
G1 X108.494 Y129.4 E36.13728
G1 X108.212 Y129.378 E36.15933
G1 X107.893 Y129.329 E36.18449
G1 X107.635 Y129.265 E36.20521
G1 X107.341 Y129.15 E36.22982
G1 X107.051 Y129.004 E36.25513
G1 X106.826 Y128.864 E36.27578
G1 X106.582 Y128.663 E36.30043
G1 X106.349 Y128.432 E36.326
G1 X106.131 Y128.168 E36.35269
G1 X105.998 Y127.952 E36.37247
G1 X105.852 Y127.664 E36.39764
G1 X105.728 Y127.335 E36.42505
G1 X105.679 Y127.132 E36.44132
G1 X105.626 Y126.812 E36.46661
G1 X105.601 Y126.512 E36.49008
G1 X105.6 Y108.488 E37.89511
G1 X105.622 Y108.208 E37.917
G1 X105.669 Y107.9 E37.94129
G1 X105.728 Y107.656 E37.96086
G1 X105.848 Y107.345 E37.98685
G1 X106 Y107.045 E38.01306
G1 X106.135 Y106.827 E38.03305
G1 X106.34 Y106.577 E38.05825
G1 X106.568 Y106.347 E38.0835
G0 X106.994 Y106.769
G1 X107.212 Y106.6 E38.105
G1 X107.318 Y106.537 E38.11461
G1 X107.607 Y106.391 E38.13985
G1 X107.953 Y106.277 E38.16825
G1 X108.284 Y106.219 E38.19445
G1 X108.501 Y106.2 E38.21143
G1 X126.507 Y106.2 E39.61506
G1 X126.692 Y106.215 E39.62953
G1 X127.003 Y106.261 E39.65403
G1 X127.251 Y106.327 E39.67404
G1 X127.392 Y106.386 E39.68595
G1 X127.693 Y106.542 E39.71238
G1 X127.905 Y106.685 E39.73232
G1 X128.005 Y106.772 E39.74265
G1 X128.229 Y106.998 E39.76745
G1 X128.448 Y107.292 E39.79603
G1 X128.604 Y107.586 E39.82198
G1 X128.701 Y107.842 E39.84332
G1 X128.732 Y107.972 E39.85374
G1 X128.784 Y108.295 E39.87924
G1 X128.8 Y108.493 E39.89472
G1 X128.8 Y126.502 E41.29859
G1 X128.783 Y126.707 E41.31462
G1 X128.731 Y127.022 E41.33951
G1 X128.613 Y127.384 E41.36919
G1 X128.465 Y127.675 E41.39464
G1 X128.246 Y127.981 E41.42397
G1 X128.016 Y128.219 E41.44977
G1 X127.803 Y128.391 E41.47112
G1 X127.684 Y128.464 E41.482
G1 X127.394 Y128.612 E41.50738
G1 X127.02 Y128.735 E41.53807
G1 X126.702 Y128.784 E41.56315
G1 X126.511 Y128.799 E41.57809
G1 X108.494 Y128.8 E42.98257
G1 X108.303 Y128.785 E42.99751
G1 X107.984 Y128.736 E43.02267
G1 X107.724 Y128.661 E43.04376
G1 X107.611 Y128.614 E43.0533
G1 X107.321 Y128.468 E43.07861
G1 X107.098 Y128.318 E43.09956
G1 X107.004 Y128.237 E43.10923
G1 X106.771 Y128.006 E43.13481
G1 X106.613 Y127.81 E43.15444
G1 X106.533 Y127.681 E43.16627
G1 X106.387 Y127.393 E43.19144
G1 X106.3 Y127.156 E43.21112
G1 X106.271 Y127.034 E43.2209
G1 X106.218 Y126.714 E43.24618
G1 X106.201 Y126.512 E43.26198
G1 X106.2 Y108.488 E44.66702
G1 X106.215 Y108.298 E44.68187
G1 X106.262 Y107.99 E44.70616
G1 X106.331 Y107.741 E44.7263
G1 X106.383 Y107.616 E44.73686
G1 X106.535 Y107.316 E44.76307
G1 X106.683 Y107.096 E44.78374
G1 X106.766 Y106.999 E44.79369
G1 X106.994 Y106.769 E44.81894
G0 X107.42 Y107.192
G1 X107.589 Y107.072 E44.8351
G1 X107.878 Y106.926 E44.86034
G1 X108.056 Y106.868 E44.87493
G1 X108.415 Y106.806 E44.90333
G1 X108.501 Y106.8 E44.91005
G1 X126.507 Y106.8 E46.31368
G1 X126.604 Y106.808 E46.32127
G1 X126.915 Y106.854 E46.34577
G1 X127.116 Y106.919 E46.36224
G1 X127.417 Y107.075 E46.38867
G1 X127.579 Y107.195 E46.40439
G1 X127.803 Y107.421 E46.42919
G1 X127.918 Y107.573 E46.44405
G1 X128.074 Y107.867 E46.46999
G1 X128.139 Y108.067 E46.48639
G1 X128.194 Y108.411 E46.51354
G1 X128.2 Y108.493 E46.51995
G1 X128.199 Y126.528 E47.92584
G1 X128.191 Y126.609 E47.93219
G1 X128.139 Y126.924 E47.95708
G1 X128.078 Y127.112 E47.97248
