;FLAVOR:Marlin
;TIME:533
;Filament used: 0.252762m
;Layer height: 0.16
;MINX:106.835
;MINY:107.7
;MINZ:0.2
;MAXX:127.3
;MAXY:128.165
;MAXZ:1.96
;Generated with Cura_SteamEngine 4.8.0
M140 S70
M105
M190 S70
M104 S210
M105
M109 S210
M82 ;absolute extrusion mode
; Ender 3 Custom Start G-code
G92 E0 ; Reset Extruder
G28 ; Home all axes
G1 Z2.0 F3000 ; Move Z Axis up little to prevent scratching of Heat Bed
G1 X0.1 Y20 Z0.3 F5000.0 ; Move to start position
G1 X0.1 Y200.0 Z0.3 F1500.0 E15 ; Draw the first line
G1 X0.4 Y200.0 Z0.3 F5000.0 ; Move to side a little
G1 X0.4 Y20 Z0.3 F1500.0 E30 ; Draw the second line
G92 E0 ; Reset Extruder
G1 Z2.0 F3000 ; Move Z Axis up little to prevent scratching of Heat Bed
G1 X5 Y20 Z0.3 F5000.0 ; Move over to prevent blob squish
G92 E0
G92 E0
G1 F2700 E-5
;LAYER_COUNT:11
;LAYER:0
M107
;MESH:Dota2.stl
G0 F3000 X111.835 Y117.68 Z0.2
;TYPE:WALL-INNER
G1 F2700 E0
G1 F1200 X116.676 Y111.632 E0.30919
G1 X116.663 Y111.604 E0.31043
G1 X116.133 Y110.497 E0.35941
G1 X110.497 Y110.497 E0.58436
G1 X110.497 Y117.212 E0.85237
G1 X111.835 Y117.68 E0.90894
G0 F3000 X111.7 Y117.209
G1 F1200 X116.207 Y111.578 E1.19681
G1 X115.881 Y110.897 E1.22694
G1 X110.897 Y110.897 E1.42587
G1 X110.897 Y116.928 E1.66658
G1 X111.7 Y117.209 E1.70053
G0 F3000 X111.565 Y116.738
;TYPE:WALL-OUTER
G1 F1200 X115.738 Y111.524 E1.96708
G1 X115.629 Y111.297 E1.97713
G1 X111.297 Y111.297 E2.15003
G1 X111.297 Y116.644 E2.36344
G1 X111.565 Y116.738 E2.37477
G0 F3000 X111.465 Y117.02
G0 X111.895 Y117.889
G0 X114.135 Y115.141
G0 X111.218 Y118.923
G0 X110.498 Y124.502
;TYPE:WALL-INNER
G1 F1200 X114.84 Y124.502 E2.54807
G1 X117.033 Y122.796 E2.65896
G1 X123.147 Y118.041 E2.9681
G1 X123.172 Y118.022 E2.96935
G1 X124.503 Y116.987 E3.03665
G1 X124.503 Y110.497 E3.29568
G1 X118.013 Y110.497 E3.55471
G1 X116.979 Y111.827 E3.62195
G1 X116.96 Y111.852 E3.62315
G1 X112.205 Y117.966 E3.91679
G1 X110.498 Y120.16 E4.02774
G1 X110.498 Y124.502 E4.20104
G0 F3000 X110.898 Y124.102
G1 F1200 X114.703 Y124.102 E4.3529
G1 X124.103 Y116.791 E4.8282
G1 X124.103 Y110.897 E5.06344
G1 X118.209 Y110.897 E5.29868
G1 X110.898 Y120.297 E5.77397
G1 X110.898 Y124.102 E5.92584
G0 F3000 X111.298 Y123.702
;TYPE:WALL-OUTER
G1 F1200 X114.566 Y123.702 E6.05627
G1 X123.703 Y116.595 E6.51828
G1 X123.703 Y111.297 E6.72973
G1 X118.405 Y111.297 E6.94119
G1 X111.298 Y120.434 E7.40319
G1 X111.298 Y123.702 E7.53363
G0 F3000 X110.998 Y123.702
G0 X115.801 Y123.986
G0 X119.859 Y120.865
G0 X117.458 Y124.085
G0 X124.503 Y124.503
;TYPE:WALL-INNER
G1 F1200 X124.503 Y118.867 E7.75857
G1 X123.396 Y118.337 E7.80756
G1 X123.368 Y118.324 E7.80873
G1 X117.32 Y123.165 E8.10243
G1 X117.788 Y124.503 E8.159
G1 X124.503 Y124.503 E8.42701
G0 F3000 X124.103 Y124.103
G1 F1200 X124.103 Y119.119 E8.62594
G1 X123.422 Y118.793 E8.65607
G1 X117.791 Y123.3 E8.94394
G1 X118.072 Y124.103 E8.9779
G1 X124.103 Y124.103 E9.21861
G0 F3000 X123.703 Y123.703
;TYPE:WALL-OUTER
G1 F1200 X123.703 Y119.371 E9.39151
G1 X123.476 Y119.262 E9.40156
G1 X118.262 Y123.435 E9.6681
G1 X118.356 Y123.703 E9.67944
G1 X123.703 Y123.703 E9.89285
G1 F2700 E4.89285
G0 F3000 X124.003 Y123.703
G0 X124.699 Y124.699
G0 X124.699 Y126.29
G0 X126.462 Y126.493
;TYPE:WALL-INNER
G1 F2700 E9.89285
G1 F1200 X126.427 Y126.499 E9.89426
G1 X108.743 Y126.5 E10.60007
G1 X108.608 Y126.5 E10.60546
G1 X108.507 Y126.464 E10.60974
G1 X108.501 Y126.427 E10.61123
G1 X108.501 Y126.292 E10.61662
G1 X108.5 Y108.603 E11.32263
G1 X108.538 Y108.508 E11.32671
G1 X108.586 Y108.5 E11.32865
G1 X126.396 Y108.5 E12.03949
G1 X126.493 Y108.538 E12.04365
G1 X126.5 Y108.583 E12.04547
G1 X126.5 Y126.389 E12.75614
G1 X126.462 Y126.493 E12.76056
G0 F3000 X126.623 Y126.873
G1 F1200 X126.457 Y126.899 E12.76727
G1 X108.55 Y126.9 E13.48197
G1 X108.274 Y126.821 E13.49343
G1 X108.128 Y126.627 E13.50312
G1 X108.101 Y126.459 E13.50991
G1 X108.1 Y108.545 E14.2249
G1 X108.183 Y108.269 E14.2364
G1 X108.38 Y108.13 E14.24603
G1 X108.55 Y108.1 E14.25292
G1 X126.454 Y108.1 E14.9675
G1 X126.728 Y108.182 E14.97892
G1 X126.872 Y108.379 E14.98866
G1 X126.9 Y108.548 E14.9955
G1 X126.9 Y126.449 E15.70996
G1 X126.815 Y126.729 E15.72164
G1 X126.623 Y126.873 E15.73122
G0 F3000 X126.748 Y127.258
;TYPE:WALL-OUTER
G1 F1200 X126.487 Y127.299 E15.74177
G1 X108.518 Y127.3 E16.45895
G1 X108.25 Y127.257 E16.46978
G1 X108.036 Y127.149 E16.47935
G1 X107.854 Y126.968 E16.48959
G1 X107.743 Y126.75 E16.49936
G1 X107.701 Y126.492 E16.50979
G1 X107.7 Y108.514 E17.22733
G1 X107.741 Y108.255 E17.2378
G1 X107.854 Y108.032 E17.24777
G1 X108.026 Y107.859 E17.25751
G1 X108.252 Y107.746 E17.2676
G1 X108.517 Y107.7 E17.27833
G1 X126.482 Y107.7 E17.99535
G1 X126.743 Y107.74 E18.00589
G1 X126.967 Y107.855 E18.01594
G1 X127.14 Y108.029 E18.02573
G1 X127.257 Y108.251 E18.03575
G1 X127.3 Y108.514 E18.04639
G1 X127.3 Y126.485 E18.76365
G1 X127.258 Y126.738 E18.77388
G1 X127.145 Y126.964 E18.78397
G1 X126.967 Y127.146 E18.79413
G1 X126.748 Y127.258 E18.80395
G0 F3000 X126.612 Y126.84
G0 X126.11 Y126.109
;TYPE:SKIN
G1 F1200 X108.891 Y126.11 E19.49119
G1 X108.89 Y108.89 E20.17848
G1 X126.11 Y108.89 E20.86577
G1 X126.11 Y126.109 E21.55302
G1 F2700 E16.55302
G0 F3000 X126.39 Y126.109
G0 X126.29 Y124.643
G0 X124.693 Y124.643
G0 X124.893 Y124.893
G1 F2700 E21.55302
G1 F1200 X124.893 Y118.621 E21.80335
G1 X123.744 Y118.072 E21.85417
G1 X124.893 Y117.178 E21.91228
G1 X124.893 Y110.107 E22.19449
G1 X117.822 Y110.107 E22.47671
G1 X116.928 Y111.256 E22.53482
G1 X116.379 Y110.107 E22.58564
G1 X110.107 Y110.107 E22.83597
G1 X110.107 Y117.489 E23.1306
G1 X111.658 Y118.032 E23.19619
G1 X110.108 Y120.026 E23.29699
G1 X110.108 Y124.892 E23.49121
G1 X114.974 Y124.892 E23.68542
G1 X116.968 Y123.342 E23.78622
G1 X117.511 Y124.893 E23.85181
G1 X124.893 Y124.893 E24.14644
G1 F2700 E19.14644
G0 F3000 X124.613 Y124.643
G0 X117.65 Y124.697
G0 X117.65 Y126.29
G0 X109.544 Y126.39
G0 X109.544 Y125.949
G1 F2700 E24.14644
G1 F1200 X109.05 Y125.454 E24.17435
G0 F3000 X109.05 Y124.889
G1 F1200 X110.109 Y125.949 E24.23415
G0 F3000 X110.675 Y125.949
G1 F1200 X109.05 Y124.323 E24.3259
G0 F3000 X109.05 Y123.757
G1 F1200 X109.948 Y124.655 E24.37659
G0 F3000 X110.344 Y125.051
G1 F1200 X111.241 Y125.949 E24.42725
G0 F3000 X111.807 Y125.949
G1 F1200 X110.909 Y125.051 E24.47794
G0 F3000 X111.475 Y125.051
G1 F1200 X112.372 Y125.949 E24.5286
G0 F3000 X112.938 Y125.949
G1 F1200 X112.041 Y125.051 E24.57925
G0 F3000 X112.606 Y125.051
G1 F1200 X113.504 Y125.949 E24.62994
G0 F3000 X114.069 Y125.949
G1 F1200 X113.172 Y125.051 E24.6806
G0 F3000 X113.738 Y125.051
G1 F1200 X114.635 Y125.949 E24.73126
G0 F3000 X115.201 Y125.949
G1 F1200 X114.303 Y125.051 E24.78195
G0 F3000 X114.869 Y125.051
G1 F1200 X115.766 Y125.949 E24.83261
G0 F3000 X116.332 Y125.949
G1 F1200 X115.257 Y124.874 E24.89328
G0 F3000 X115.575 Y124.626
G1 F1200 X116.898 Y125.949 E24.96796
G0 F3000 X117.463 Y125.949
G1 F1200 X115.894 Y124.379 E25.05655
G0 F3000 X116.212 Y124.131
G1 F1200 X118.029 Y125.949 E25.15914
G0 F3000 X118.595 Y125.949
G1 F1200 X117.698 Y125.052 E25.20977
G0 F3000 X118.264 Y125.052
G1 F1200 X119.16 Y125.949 E25.26037
G0 F3000 X119.726 Y125.949
G1 F1200 X118.83 Y125.052 E25.31097
G0 F3000 X119.395 Y125.052
G1 F1200 X120.292 Y125.949 E25.3616
G0 F3000 X120.857 Y125.949
G1 F1200 X119.961 Y125.052 E25.4122
G0 F3000 X120.527 Y125.052
G1 F1200 X121.423 Y125.949 E25.46281
G0 F3000 X121.989 Y125.949
G1 F1200 X121.092 Y125.052 E25.51344
G0 F3000 X121.658 Y125.052
G1 F1200 X122.555 Y125.949 E25.56407
G0 F3000 X123.12 Y125.949
G1 F1200 X122.224 Y125.052 E25.61467
G0 F3000 X122.789 Y125.052
G1 F1200 X123.686 Y125.949 E25.6653
G0 F3000 X124.252 Y125.949
G1 F1200 X123.355 Y125.052 E25.71593
G0 F3000 X123.921 Y125.052
G1 F1200 X124.817 Y125.949 E25.76653
G0 F3000 X125.383 Y125.949
G1 F1200 X124.486 Y125.052 E25.81716
G0 F3000 X125.052 Y125.052
G1 F1200 X125.949 Y125.949 E25.86779
G0 F3000 X125.949 Y125.384
G1 F1200 X125.052 Y124.486 E25.91845
G0 F3000 X125.052 Y123.921
G1 F1200 X125.949 Y124.818 E25.96908
G0 F3000 X125.949 Y124.252
G1 F1200 X125.052 Y123.355 E26.01971
G0 F3000 X125.052 Y122.789
G1 F1200 X125.949 Y123.687 E26.07037
G0 F3000 X125.949 Y123.121
G1 F1200 X125.052 Y122.224 E26.121
G0 F3000 X125.052 Y121.658
G1 F1200 X125.949 Y122.555 E26.17163
G0 F3000 X125.949 Y121.99
G1 F1200 X125.052 Y121.092 E26.22229
G0 F3000 X125.052 Y120.527
G1 F1200 X125.949 Y121.424 E26.27292
G0 F3000 X125.949 Y120.858
G1 F1200 X125.052 Y119.961 E26.32355
G0 F3000 X125.052 Y119.395
G1 F1200 X125.949 Y120.293 E26.37421
G0 F3000 X125.949 Y119.727
G1 F1200 X125.052 Y118.83 E26.42484
G0 F3000 X124.459 Y118.236
G1 F1200 X124.167 Y117.944 E26.44132
G0 F3000 X124.485 Y117.697
G1 F1200 X125.949 Y119.161 E26.52396
G0 F3000 X125.949 Y118.595
G1 F1200 X124.803 Y117.449 E26.58864
G0 F3000 X125.052 Y117.132
G1 F1200 X125.949 Y118.03 E26.6393
G0 F3000 X125.949 Y117.464
G1 F1200 X125.052 Y116.567 E26.68993
G0 F3000 X125.052 Y116.001
G1 F1200 X125.949 Y116.898 E26.74056
G0 F3000 X125.949 Y116.333
G1 F1200 X125.052 Y115.435 E26.79122
G0 F3000 X125.052 Y114.87
G1 F1200 X125.949 Y115.767 E26.84185
G0 F3000 X125.949 Y115.201
G1 F1200 X125.052 Y114.304 E26.89248
G0 F3000 X125.052 Y113.738
G1 F1200 X125.949 Y114.636 E26.94314
G0 F3000 X125.949 Y114.07
G1 F1200 X125.052 Y113.173 E26.99377
G0 F3000 X125.052 Y112.607
G1 F1200 X125.949 Y113.504 E27.0444
G0 F3000 X125.949 Y112.939
G1 F1200 X125.052 Y112.041 E27.09506
G0 F3000 X125.052 Y111.476
G1 F1200 X125.949 Y112.373 E27.14569
G0 F3000 X125.949 Y111.807
G1 F1200 X125.052 Y110.91 E27.19632
G0 F3000 X125.052 Y110.344
G1 F1200 X125.949 Y111.242 E27.24698
G0 F3000 X125.949 Y110.676
G1 F1200 X124.323 Y109.05 E27.33876
G0 F3000 X123.757 Y109.05
G1 F1200 X124.654 Y109.946 E27.38936
G0 F3000 X124.088 Y109.946
G1 F1200 X123.192 Y109.05 E27.43994
G0 F3000 X122.626 Y109.05
G1 F1200 X123.523 Y109.946 E27.49054
G0 F3000 X122.957 Y109.946
G1 F1200 X122.06 Y109.05 E27.54114
G0 F3000 X121.495 Y109.05
G1 F1200 X122.391 Y109.946 E27.59172
G0 F3000 X121.826 Y109.946
G1 F1200 X120.929 Y109.05 E27.64232
G0 F3000 X120.363 Y109.05
G1 F1200 X121.26 Y109.946 E27.69292
G0 F3000 X120.694 Y109.946
G1 F1200 X119.798 Y109.05 E27.7435
G0 F3000 X119.232 Y109.05
G1 F1200 X120.128 Y109.946 E27.79407
G0 F3000 X119.563 Y109.946
G1 F1200 X118.666 Y109.05 E27.84467
G0 F3000 X118.1 Y109.05
G1 F1200 X118.997 Y109.946 E27.89527
G0 F3000 X118.431 Y109.946
G1 F1200 X117.535 Y109.05 E27.94585
G0 F3000 X116.969 Y109.05
G1 F1200 X117.866 Y109.946 E27.99645
G0 F3000 X117.55 Y110.196
G1 F1200 X116.403 Y109.05 E28.06116
G0 F3000 X115.838 Y109.05
G1 F1200 X117.302 Y110.514 E28.1438
G0 F3000 X117.055 Y110.832
G1 F1200 X116.762 Y110.539 E28.16034
G0 F3000 X116.169 Y109.946
G1 F1200 X115.272 Y109.05 E28.21094
G0 F3000 X114.706 Y109.05
G1 F1200 X115.603 Y109.946 E28.26154
G0 F3000 X115.037 Y109.946
G1 F1200 X114.141 Y109.05 E28.31212
G0 F3000 X113.575 Y109.05
G1 F1200 X114.472 Y109.946 E28.36272
G0 F3000 X113.906 Y109.946
G1 F1200 X113.009 Y109.05 E28.41332
G0 F3000 X112.444 Y109.05
G1 F1200 X113.34 Y109.946 E28.46389
G0 F3000 X112.775 Y109.946
G1 F1200 X111.878 Y109.05 E28.5145
G0 F3000 X111.312 Y109.05
G1 F1200 X112.209 Y109.946 E28.5651
G0 F3000 X111.643 Y109.946
G1 F1200 X110.747 Y109.05 E28.61567
G0 F3000 X110.181 Y109.05
G1 F1200 X111.077 Y109.946 E28.66625
G0 F3000 X110.512 Y109.946
G1 F1200 X109.615 Y109.05 E28.71685
G0 F3000 X109.049 Y109.049
G1 F1200 X109.946 Y109.946 E28.76748
G0 F3000 X109.947 Y110.513
G1 F1200 X109.049 Y109.614 E28.8182
G0 F3000 X109.049 Y110.18
G1 F1200 X109.947 Y111.078 E28.86888
G0 F3000 X109.947 Y111.644
G1 F1200 X109.049 Y110.746 E28.91957
G0 F3000 X109.049 Y111.312
G1 F1200 X109.947 Y112.21 E28.97026
G0 F3000 X109.947 Y112.775
G1 F1200 X109.049 Y111.877 E29.02094
G0 F3000 X109.049 Y112.443
G1 F1200 X109.947 Y113.341 E29.07163
G0 F3000 X109.947 Y113.907
G1 F1200 X109.049 Y113.009 E29.12232
G0 F3000 X109.049 Y113.574
G1 F1200 X109.947 Y114.472 E29.173
G0 F3000 X109.947 Y115.038
G1 F1200 X109.049 Y114.14 E29.22369
G0 F3000 X109.049 Y114.706
G1 F1200 X109.947 Y115.604 E29.27438
G0 F3000 X109.947 Y116.169
G1 F1200 X109.049 Y115.271 E29.32507
G0 F3000 X109.049 Y115.837
G1 F1200 X109.947 Y116.735 E29.37575
G0 F3000 X109.947 Y117.301
G1 F1200 X109.049 Y116.403 E29.42644
G0 F3000 X109.049 Y116.968
G1 F1200 X110.867 Y118.787 E29.52908
G0 F3000 X110.62 Y119.105
G1 F1200 X109.05 Y117.535 E29.6177
G0 F3000 X109.05 Y118.1
G1 F1200 X110.373 Y119.423 E29.69238
G0 F3000 X110.125 Y119.742
G1 F1200 X109.05 Y118.666 E29.75308
G0 F3000 X109.05 Y119.232
G1 F1200 X109.948 Y120.13 E29.80377
G0 F3000 X109.948 Y120.696
G1 F1200 X109.05 Y119.798 E29.85446
G0 F3000 X109.05 Y120.363
G1 F1200 X109.948 Y121.261 E29.90514
G0 F3000 X109.948 Y121.827
G1 F1200 X109.05 Y120.929 E29.95583
G0 F3000 X109.05 Y121.495
G1 F1200 X109.948 Y122.393 E30.00652
G0 F3000 X109.948 Y122.958
G1 F1200 X109.05 Y122.06 E30.0572
G0 F3000 X109.05 Y122.626
G1 F1200 X109.948 Y123.524 E30.10789
G0 F3000 X109.948 Y124.09
G1 F1200 X109.05 Y123.192 E30.15858
G1 F2700 E25.15858
G0 F3000 X108.61 Y123.192
G0 X108.71 Y118.741
G0 X110.346 Y120.014
G0 X111.461 Y118.741
G0 X111.115 Y118.469
G1 F2700 E30.15858
G1 F1200 X110.409 Y117.763 E30.19843
G0 F3000 X111.281 Y118.069
G1 F1200 X111.362 Y118.151 E30.20303
G0 F3000 X111.709 Y118.422
G0 X111.061 Y120.353
G0 X111.07 Y123.93
G0 X114.647 Y123.939
G0 X116.261 Y123.537
G0 X116.53 Y123.884
G1 F1200 X117.236 Y124.59 E30.24288
G0 F3000 X116.93 Y123.718
G1 F1200 X116.848 Y123.636 E30.24751
G1 F2700 E25.24751
G0 F3000 X116.579 Y123.29
G0 X123.938 Y116.71
G0 X124.699 Y110.301
G0 X126.29 Y110.301
G0 X125.949 Y110.11
G1 F2700 E30.24751
G1 F1200 X124.889 Y109.05 E30.30734
G0 F3000 X125.454 Y109.05
G1 F1200 X125.949 Y109.544 E30.33525
G1 F2700 E25.33525
G0 F3000 X126.39 Y109.544
G0 X126.29 Y120.018
G0 X124.693 Y120.018
G0 X123.936 Y119.224
G0 X123.445 Y118.988
G0 X120.867 Y120.018
;TYPE:SKIN
G1 F2700 E30.33525
G1 F1200 X120.923 Y120.074 E30.33683
G0 F3000 X120.765 Y120.199
G1 F1200 X120.708 Y120.142 E30.33844
G0 F3000 X120.548 Y120.266
G1 F1200 X120.608 Y120.325 E30.34012
G0 F3000 X120.451 Y120.451
G1 F1200 X120.389 Y120.389 E30.34187
G0 F3000 X120.23 Y120.513
G1 F1200 X120.294 Y120.577 E30.34367
G0 F3000 X120.137 Y120.703
G1 F1200 X120.071 Y120.637 E30.34554
G0 F3000 X119.911 Y120.76
G1 F1200 X119.98 Y120.828 E30.34747
G0 F3000 X119.822 Y120.954
G1 F1200 X119.752 Y120.884 E30.34945
G0 F3000 X119.593 Y121.007
G1 F1200 X119.665 Y121.08 E30.35149
G0 F3000 X119.508 Y121.205
G1 F1200 X119.434 Y121.131 E30.35358
G0 F3000 X119.275 Y121.255
G1 F1200 X119.351 Y121.331 E30.35572
G0 F3000 X119.194 Y121.457
G1 F1200 X119.116 Y121.379 E30.35793
G0 F3000 X118.957 Y121.502
G1 F1200 X119.037 Y121.582 E30.36018
G0 F3000 X118.88 Y121.708
G1 F1200 X118.798 Y121.626 E30.3625
G0 F3000 X118.639 Y121.75
G1 F1200 X118.723 Y121.834 E30.36487
G0 F3000 X118.566 Y121.96
G1 F1200 X118.479 Y121.874 E30.36731
G0 F3000 X118.32 Y121.997
G1 F1200 X118.409 Y122.086 E30.36982
G0 F3000 X118.251 Y122.211
G1 F1200 X118.161 Y122.121 E30.37236
G0 F3000 X118.002 Y122.245
G1 F1200 X118.094 Y122.337 E30.37496
G0 F3000 X117.937 Y122.463
G1 F1200 X117.843 Y122.369 E30.37761
G0 F3000 X117.684 Y122.492
G1 F1200 X117.78 Y122.588 E30.38032
G0 F3000 X117.623 Y122.714
G1 F1200 X117.525 Y122.616 E30.38309
G0 F3000 X117.366 Y122.74
G1 F1200 X117.466 Y122.84 E30.38591
G0 F3000 X117.309 Y122.965
G1 F1200 X117.207 Y122.864 E30.38877
G0 F3000 X117.048 Y122.987
G1 F1200 X117.152 Y123.091 E30.39171
G0 F3000 X117.184 Y123.133
G0 X119.859 Y120.865
G0 X114.647 Y123.939
G0 X111.07 Y123.93
G0 X111.061 Y120.353
G0 X112.051 Y117.982
G0 X112.012 Y117.951
G1 F1200 X111.906 Y117.846 E30.39469
G0 F3000 X112.032 Y117.689
G1 F1200 X112.135 Y117.792 E30.39759
G0 F3000 X112.259 Y117.633
G1 F1200 X112.157 Y117.531 E30.40047
G0 F3000 X112.283 Y117.374
G1 F1200 X112.383 Y117.474 E30.40329
G0 F3000 X112.507 Y117.315
G1 F1200 X112.409 Y117.217 E30.40606
G0 F3000 X112.535 Y117.06
G1 F1200 X112.63 Y117.156 E30.40875
G0 F3000 X112.754 Y116.997
G1 F1200 X112.661 Y116.903 E30.41139
