;FLAVOR:Marlin
;TIME:623
;Filament used: 0.245852m
;Layer height: 0.16
;MINX:106.95
;MINY:106.2
;MINZ:0.2
;MAXX:128.903
;MAXY:129.665
;MAXZ:10.88
;Generated with Cura_SteamEngine 4.8.0
M140 S70
M105
M190 S70
M104 S210
M105
M109 S210
M82 ;absolute extrusion mode
; Ender 3 Custom Start G-code
G92 E0 ; Reset Extruder
G28 ; Home all axes
G1 Z2.0 F3000 ; Move Z Axis up little to prevent scratching of Heat Bed
G1 X0.1 Y20 Z0.3 F5000.0 ; Move to start position
G1 X0.1 Y200.0 Z0.3 F1500.0 E15 ; Draw the first line
G1 X0.4 Y200.0 Z0.3 F5000.0 ; Move to side a little
G1 X0.4 Y20 Z0.3 F1500.0 E30 ; Draw the second line
G92 E0 ; Reset Extruder
G1 Z2.0 F3000 ; Move Z Axis up little to prevent scratching of Heat Bed
G1 X5 Y20 Z0.3 F5000.0 ; Move over to prevent blob squish
G92 E0
G92 E0
G1 F2700 E-5
;LAYER_COUNT:56
;LAYER:0
M107
;MESH:LEDAcidv2.stl
G0 F3000 X116.353 Y114.602 Z0.2
;TYPE:WALL-INNER
G1 F2700 E0
G1 F1200 X116.353 Y109.397 E0.25968
G1 X114.648 Y109.397 E0.34474
G1 X114.648 Y114.602 E0.60442
G1 X116.353 Y114.602 E0.68948
G0 F3000 X115.953 Y114.202
;TYPE:WALL-OUTER
G1 F1200 X115.953 Y109.797 E0.90925
G1 X115.048 Y109.797 E0.9544
G1 X115.048 Y114.202 E1.17417
G1 X115.953 Y114.202 E1.21932
G0 F3000 X116.253 Y114.202
G0 X116.568 Y115.184
G0 X116.548 Y116.383
G0 X116.024 Y117.946
G0 X115.871 Y118.254
G0 X114.772 Y119.501
;TYPE:WALL-INNER
G1 F1200 X114.835 Y119.506 E1.22247
G1 X115.389 Y119.371 E1.25092
G1 X115.894 Y119.083 E1.27992
G1 X116.301 Y118.652 E1.3095
G1 X116.362 Y118.529 E1.31635
G1 X116.564 Y118.122 E1.33901
G1 X116.661 Y117.542 E1.36835
G1 X116.588 Y116.954 E1.39791
G1 X116.362 Y116.46 E1.42502
G1 X116.329 Y116.388 E1.42897
G1 X115.951 Y115.967 E1.45719
G1 X115.459 Y115.658 E1.48618
G1 X114.888 Y115.503 E1.5157
G1 X114.297 Y115.518 E1.54519
G1 X113.738 Y115.707 E1.57463
G1 X113.256 Y116.047 E1.60406
G1 X112.892 Y116.518 E1.63376
G1 X112.677 Y117.094 E1.66443
G1 X112.643 Y117.663 E1.69287
G1 X112.765 Y118.186 E1.71966
G1 X112.885 Y118.452 E1.73422
G1 X113.197 Y118.894 E1.76121
G1 X113.666 Y119.256 E1.79077
G1 X114.219 Y119.465 E1.82027
G1 X114.278 Y119.468 E1.82321
G1 X114.772 Y119.501 E1.84791
G0 F3000 X114.8 Y119.103
G1 F1200 X115.24 Y118.996 E1.8705
G1 X115.644 Y118.765 E1.89372
G1 X115.969 Y118.421 E1.91733
G1 X116.179 Y117.997 E1.94094
G1 X116.257 Y117.533 E1.96441
G1 X116.199 Y117.064 E1.98799
G1 X115.991 Y116.61 E2.0129
G1 X115.691 Y116.276 E2.0353
G1 X115.297 Y116.028 E2.05853
G1 X114.84 Y115.904 E2.08215
G1 X114.368 Y115.916 E2.10571
G1 X113.921 Y116.067 E2.12925
G1 X113.536 Y116.339 E2.15276
G1 X113.246 Y116.715 E2.17645
G1 X113.073 Y117.178 E2.20111
G1 X113.046 Y117.629 E2.22365
G1 X113.146 Y118.057 E2.24558
G1 X113.234 Y118.253 E2.2563
G1 X113.489 Y118.614 E2.27835
G1 X113.863 Y118.903 E2.30193
G1 X114.305 Y119.07 E2.32551
G1 X114.8 Y119.103 E2.35026
G0 F3000 X114.765 Y118.7
;TYPE:WALL-OUTER
G1 F1200 X115.09 Y118.621 E2.36694
G1 X115.394 Y118.447 E2.38442
G1 X115.637 Y118.19 E2.40206
G1 X115.794 Y117.872 E2.41976
G1 X115.853 Y117.524 E2.43737
G1 X115.81 Y117.174 E2.45496
G1 X115.653 Y116.832 E2.47373
G1 X115.431 Y116.585 E2.4903
G1 X115.134 Y116.398 E2.50781
G1 X114.792 Y116.305 E2.52549
G1 X114.439 Y116.314 E2.54311
G1 X114.104 Y116.427 E2.56075
G1 X113.816 Y116.631 E2.57836
G1 X113.6 Y116.911 E2.596
G1 X113.469 Y117.262 E2.61469
G1 X113.449 Y117.595 E2.63133
G1 X113.527 Y117.929 E2.64845
G1 X113.583 Y118.054 E2.65528
G1 X113.781 Y118.334 E2.67239
G1 X114.06 Y118.55 E2.68999
G1 X114.391 Y118.675 E2.70764
G1 X114.765 Y118.7 E2.72634
G0 F3000 X114.802 Y119.138
G0 X116.548 Y118.604
G0 X116.559 Y119.29
G0 X116.353 Y125.603
;TYPE:WALL-INNER
G1 F1200 X116.353 Y120.397 E2.98607
G1 X114.648 Y120.397 E3.07114
G1 X114.648 Y125.603 E3.33086
G1 X116.353 Y125.603 E3.41593
G0 F3000 X115.953 Y125.203
;TYPE:WALL-OUTER
G1 F1200 X115.953 Y120.797 E3.63574
G1 X115.048 Y120.797 E3.68089
G1 X115.048 Y125.203 E3.90071
G1 X115.953 Y125.203 E3.94586
G0 F3000 X116.253 Y125.203
G0 X116.536 Y126.086
G0 X116.75 Y128
;TYPE:WALL-INNER
G1 F1200 X107.75 Y128 E4.39487
G1 X107.75 Y119.234 E4.83221
G1 X107.834 Y119.197 E4.83679
G1 X108.28 Y118.807 E4.86635
G1 X108.56 Y118.358 E4.89275
G1 X108.592 Y118.308 E4.89571
G1 X108.747 Y117.738 E4.92518
G1 X108.732 Y117.147 E4.95467
G1 X108.543 Y116.588 E4.98411
G1 X108.203 Y116.106 E5.01354
G1 X107.75 Y115.756 E5.0421
G1 X107.75 Y107 E5.47894
G1 X116.75 Y107 E5.92795
G1 X116.75 Y108.997 E6.02758
G1 X114.248 Y108.997 E6.15241
G1 X114.248 Y115.002 E6.452
G1 X116.75 Y115.002 E6.57682
G1 X116.75 Y116.411 E6.64712
G1 X116.75 Y116.954 E6.66635
G1 X116.75 Y117.542 E6.67554
G1 X116.75 Y118.122 E6.68545
G1 X116.75 Y118.576 E6.70221
G1 X116.75 Y119.997 E6.77311
G1 X114.248 Y119.997 E6.89793
G1 X114.248 Y126.003 E7.19757
G1 X116.75 Y126.003 E7.3224
G1 X116.75 Y128 E7.42203
G0 F3000 X117.15 Y128.4
G1 F1200 X107.35 Y128.4 E7.91095
G1 X107.35 Y118.975 E8.38117
G1 X107.616 Y118.856 E8.39571
G1 X107.972 Y118.545 E8.41929
G1 X108.222 Y118.146 E8.44278
G1 X108.346 Y117.69 E8.46636
G1 X108.334 Y117.218 E8.48991
G1 X108.183 Y116.771 E8.51345
G1 X107.911 Y116.386 E8.53697
G1 X107.537 Y116.097 E8.56055
G1 X107.35 Y116.026 E8.57053
G1 X107.35 Y106.6 E9.04079
G1 X117.15 Y106.6 E9.52972
G1 X117.15 Y128.4 E10.61732
G1 F2700 E5.61732
G0 F3000 X117.336 Y128.586
G0 X118.403 Y127.847
G0 X128.903 Y127.847
G0 X128.903 Y129.653
G0 X128.05 Y129.665
G0 X128.05 Y128.8
;TYPE:WALL-OUTER
G1 F2700 E10.61732
G1 F1200 X106.95 Y128.8 E11.67001
G1 X106.95 Y118.676 E12.1751
G1 X107.077 Y118.659 E12.18149
G1 X107.398 Y118.515 E12.19904
G1 X107.665 Y118.282 E12.21672
G1 X107.852 Y117.984 E12.23427
G1 X107.945 Y117.642 E12.25195
G1 X107.936 Y117.289 E12.26957
G1 X107.823 Y116.954 E12.28721
G1 X107.619 Y116.666 E12.30482
G1 X107.34 Y116.45 E12.32242
G1 X107.014 Y116.327 E12.3398
G1 X106.95 Y116.319 E12.34302
G1 X106.95 Y106.2 E12.84786
G1 X128.05 Y106.2 E13.90054
G1 X128.05 Y106.3 E13.90553
G1 X117.55 Y106.3 E14.42938
G1 X117.55 Y128.7 E15.54692
G1 X128.05 Y128.7 E16.07077
G1 X128.05 Y128.8 E16.07576
G1 F2700 E11.07576
G0 F3000 X128.05 Y129.665
G0 X117.336 Y129.665
G0 X117.336 Y128.586
G0 X116.64 Y127.61
G0 X116.36 Y127.61
;TYPE:SKIN
G1 F2700 E16.07576
G1 F1200 X108.14 Y127.61 E16.48585
G1 X108.14 Y119.448 E16.89306
G1 X108.58 Y119.062 E16.92226
G1 X108.953 Y118.466 E16.95734
G1 X109.139 Y117.785 E16.99256
G1 X109.12 Y117.078 E17.02784
G1 X108.894 Y116.409 E17.06307
G1 X108.488 Y115.833 E17.09823
G1 X108.14 Y115.565 E17.12014
G1 X108.14 Y107.39 E17.528
G1 X116.36 Y107.39 E17.93809
G1 X116.36 Y108.607 E17.99881
G1 X113.858 Y108.607 E18.12364
G1 X113.858 Y115.255 E18.45531
G1 X113.559 Y115.356 E18.47105
G1 X112.983 Y115.762 E18.50621
G1 X112.547 Y116.327 E18.54181
G1 X112.291 Y117.012 E18.5783
G1 X112.251 Y117.696 E18.61248
G1 X112.394 Y118.311 E18.64398
G1 X112.545 Y118.647 E18.66236
G1 X112.912 Y119.167 E18.69411
G1 X113.473 Y119.601 E18.7295
G1 X113.858 Y119.746 E18.75002
G1 X113.858 Y126.393 E19.08164
G1 X116.36 Y126.393 E19.20647
G1 X116.36 Y127.61 E19.26719
G0 F3000 X116.64 Y127.61
G0 X116.64 Y119.607
G0 X116.36 Y119.607
G1 F1200 X115.763 Y119.607 E19.29697
G1 X116.138 Y119.393 E19.31851
G1 X116.36 Y119.158 E19.33464
G1 X116.36 Y119.607 E19.35704
G0 F3000 X116.64 Y119.607
G0 X116.64 Y115.838
G0 X116.36 Y115.838
G1 F1200 X116.205 Y115.666 E19.36859
G1 X115.768 Y115.392 E19.39432
G1 X116.36 Y115.392 E19.42386
G1 X116.36 Y115.838 E19.44611
G0 F3000 X116.64 Y115.838
G0 X116.64 Y107.714
G0 X116.199 Y107.714
G1 F1200 X116.035 Y107.55 E19.45768
G0 F3000 X115.469 Y107.55
G1 F1200 X116.199 Y108.279 E19.50915
G0 F3000 X115.8 Y108.446
G1 F1200 X114.904 Y107.55 E19.57237
G0 F3000 X114.338 Y107.55
G1 F1200 X115.235 Y108.446 E19.63562
G0 F3000 X114.669 Y108.446
G1 F1200 X113.772 Y107.55 E19.69887
G0 F3000 X113.207 Y107.55
G1 F1200 X114.103 Y108.446 E19.76209
G0 F3000 X113.697 Y108.606
G1 F1200 X112.641 Y107.55 E19.8366
G0 F3000 X112.075 Y107.55
G1 F1200 X113.697 Y109.172 E19.95104
G0 F3000 X113.697 Y109.738
G1 F1200 X111.51 Y107.55 E20.10538
G0 F3000 X110.944 Y107.55
G1 F1200 X113.697 Y110.303 E20.29962
G0 F3000 X113.697 Y110.869
G1 F1200 X110.378 Y107.55 E20.53379
G0 F3000 X109.812 Y107.55
G1 F1200 X113.697 Y111.435 E20.8079
G0 F3000 X113.697 Y112
G1 F1200 X109.247 Y107.55 E21.12187
G0 F3000 X108.681 Y107.55
G1 F1200 X113.697 Y112.566 E21.47578
G0 F3000 X113.697 Y113.132
G1 F1200 X108.299 Y107.733 E21.85667
G0 F3000 X108.299 Y108.299
G1 F1200 X113.697 Y113.697 E22.23753
G0 F3000 X113.697 Y114.263
G1 F1200 X108.299 Y108.864 E22.61842
G0 F3000 X108.299 Y109.43
G1 F1200 X113.697 Y114.829 E22.99932
G0 F3000 X113.506 Y115.203
G1 F1200 X108.299 Y109.996 E23.3667
G0 F3000 X108.299 Y110.561
G1 F1200 X113.17 Y115.433 E23.71041
G0 F3000 X112.847 Y115.675
G1 F1200 X108.299 Y111.127 E24.03129
G0 F3000 X108.299 Y111.693
G1 F1200 X112.601 Y115.995 E24.33482
G0 F3000 X112.373 Y116.333
G1 F1200 X108.299 Y112.259 E24.62227
G0 F3000 X108.299 Y112.825
G1 F1200 X112.219 Y116.745 E24.89884
G0 F3000 X112.119 Y117.21
G1 F1200 X108.299 Y113.39 E25.16836
G0 F3000 X108.299 Y113.956
G1 F1200 X112.102 Y117.759 E25.43669
G0 F3000 X112.325 Y118.547
G1 F1200 X108.299 Y114.522 E25.72071
G0 F3000 X108.299 Y115.087
G1 F1200 X113.698 Y120.486 E26.10164
G0 F3000 X113.698 Y119.921
G1 F1200 X113.595 Y119.817 E26.10894
G0 F3000 X113.751 Y119.406
G0 X116.548 Y118.604
G0 X116.568 Y119.815
G0 X115.139 Y120.296
G0 X114.138 Y121.052
G0 X113.698 Y121.052
G1 F1200 X109.066 Y116.42 E26.43575
G0 F3000 X109.283 Y117.202
G1 F1200 X113.698 Y121.618 E26.74729
G0 F3000 X113.698 Y122.183
G1 F1200 X109.299 Y117.784 E27.05766
G0 F3000 X109.181 Y118.232
G1 F1200 X113.698 Y122.749 E27.37636
G0 F3000 X113.698 Y123.315
G1 F1200 X109.028 Y118.645 E27.70585
G0 F3000 X108.811 Y118.993
G1 F1200 X113.698 Y123.88 E28.05066
G0 F3000 X113.698 Y124.446
G1 F1200 X108.552 Y119.3 E28.41374
G0 F3000 X108.299 Y119.613
G1 F1200 X113.698 Y125.012 E28.79467
G0 F3000 X113.698 Y125.577
G1 F1200 X108.299 Y120.179 E29.17556
G0 F3000 X108.299 Y120.744
G1 F1200 X113.698 Y126.143 E29.55649
G0 F3000 X114.107 Y126.552
G1 F1200 X115.003 Y127.448 E29.61971
G0 F3000 X114.438 Y127.448
G1 F1200 X108.299 Y121.31 E30.05281
G0 F3000 X108.299 Y121.876
G1 F1200 X113.872 Y127.448 E30.44598
G0 F3000 X113.306 Y127.448
G1 F1200 X108.299 Y122.441 E30.79925
G0 F3000 X108.299 Y123.007
G1 F1200 X112.741 Y127.448 E31.11262
G0 F3000 X112.175 Y127.448
G1 F1200 X108.299 Y123.573 E31.38606
G0 F3000 X108.299 Y124.138
G1 F1200 X111.609 Y127.448 E31.6196
G0 F3000 X111.044 Y127.448
G1 F1200 X108.299 Y124.704 E31.81324
G0 F3000 X108.299 Y125.27
G1 F1200 X110.478 Y127.448 E31.96694
G0 F3000 X109.912 Y127.448
G1 F1200 X108.299 Y125.836 E32.08071
G0 F3000 X108.299 Y126.401
G1 F1200 X109.346 Y127.448 E32.15458
G0 F3000 X108.781 Y127.448
G1 F1200 X108.299 Y126.967 E32.18856
G0 F3000 X107.86 Y126.967
G0 X107.932 Y127.818
G0 X116.568 Y127.818
G0 X116.568 Y126.185
G0 X114.672 Y126.113
G0 X114.672 Y126.552
G1 F1200 X115.569 Y127.448 E32.25181
G0 F3000 X116.135 Y127.448
G1 F1200 X115.238 Y126.552 E32.31506
G0 F3000 X115.804 Y126.552
G1 F1200 X116.2 Y126.948 E32.343
G0 F3000 X116.64 Y126.948
G0 X116.181 Y120.569
G0 X115.593 Y119.887
G0 X115.593 Y119.836
;TYPE:SKIN
G1 F1200 X115.312 Y119.554 E32.35293
G0 F3000 X115.52 Y119.479
G1 F1200 X115.559 Y119.519 E32.35433
G0 F3000 X115.31 Y119.836
G1 F1200 X115.084 Y119.609 E32.36232
G0 F3000 X114.857 Y119.665
G1 F1200 X115.027 Y119.836 E32.36833
G0 F3000 X114.745 Y119.836
G1 F1200 X114.556 Y119.647 E32.375
G0 F3000 X114.462 Y119.836
G1 F1200 X114.252 Y119.626 E32.38241
G0 F3000 X114.179 Y119.836
G1 F1200 X114.032 Y119.689 E32.38759
G0 F3000 X114.091 Y119.535
G0 X116.285 Y118.831
G0 X116.319 Y118.864
G1 F1200 X116.464 Y119.01 E32.39273
G0 F3000 X116.589 Y118.852
G1 F1200 X116.449 Y118.711 E32.39768
G0 F3000 X116.406 Y118.689
G0 X116.64 Y116.307
G0 X116.589 Y116.307
G1 F1200 X116.323 Y116.04 E32.40708
G0 F3000 X116.527 Y115.961
G1 F1200 X116.589 Y116.024 E32.40929
G0 F3000 X116.64 Y116.024
G0 X116.548 Y116.383
G0 X115.489 Y115.552
G0 X115.503 Y115.503
G1 F1200 X115.162 Y115.162 E32.42132
M104 S205
G0 F3000 X115.114 Y115.397
G1 F1200 X114.879 Y115.162 E32.42961
G0 F3000 X114.778 Y115.343
G1 F1200 X114.596 Y115.162 E32.43601
G0 F3000 X114.503 Y115.351
G1 F1200 X114.313 Y115.162 E32.4427
G0 F3000 X114.238 Y115.369
G1 F1200 X114.032 Y115.164 E32.44995
G0 F3000 X114.138 Y115.164
G0 X115.445 Y115.112
G0 X115.445 Y115.162
G1 F1200 X115.606 Y115.323 E32.45563
G0 F3000 X115.606 Y115.112
G0 X116.527 Y114.547
G0 X116.674 Y114.694
G1 F1200 X116.75 Y114.487 E32.4683
G1 X116.75 Y109.396 E32.76094
G1 X116.883 Y109.246 E32.77246
G0 F3000 X116.974 Y109.337
G0 X116.762 Y120.156
G1 F1200 X116.975 Y120.369 E32.77997
G0 F3000 X116.751 Y120.428
G1 F1200 X116.751 Y120.711 E32.79632
G1 X116.751 Y125.519 E33.07402
G1 X116.659 Y125.71 E33.08626
G0 F3000 X116.791 Y125.842
;MESH:NONMESH
G0 F300 X116.791 Y125.842 Z0.4
G0 F3000 X116.568 Y115.184
G0 X116.353 Y114.602
;TIME_ELAPSED:49.892431
;LAYER:1
M140 S50
M106 S85
;TYPE:WALL-INNER
;MESH:LEDAcidv2.stl
G1 F1350 X116.353 Y109.397 E33.25938
G1 X114.648 Y109.397 E33.31609
G1 X114.648 Y114.602 E33.48921
G1 X116.353 Y114.602 E33.54592
G0 F6000 X115.953 Y114.202
;TYPE:WALL-OUTER
G1 F1350 X115.953 Y109.797 E33.69243
G1 X115.048 Y109.797 E33.72253
G1 X115.048 Y114.202 E33.86904
G1 X115.953 Y114.202 E33.89914
G0 F6000 X116.253 Y114.202
G0 X116.568 Y115.184
G0 X116.551 Y116.402
G0 X115.962 Y118.106
G0 X114.721 Y119.509
;TYPE:WALL-INNER
G1 F1350 X115.233 Y119.424 E33.9164
G1 X115.71 Y119.21 E33.93379
G1 X116.154 Y118.836 E33.9531
G1 X116.362 Y118.518 E33.96574
G1 X116.476 Y118.343 E33.97268
G1 X116.641 Y117.78 E33.9922
G1 X116.64 Y117.189 E34.01185
G1 X116.462 Y116.621 E34.03165
G1 X116.361 Y116.475 E34.03755
G1 X116.126 Y116.134 E34.05133
G1 X115.669 Y115.765 E34.07086
G1 X115.125 Y115.545 E34.09038
G1 X114.536 Y115.489 E34.11006
G1 X113.954 Y115.612 E34.12985
G1 X113.436 Y115.895 E34.14948
G1 X113.022 Y116.316 E34.16912
G1 X112.75 Y116.841 E34.18878
G1 X112.64 Y117.413 E34.20816
G1 X112.691 Y117.952 E34.22616
G1 X112.85 Y118.397 E34.24188
G1 X113.174 Y118.866 E34.26084
G1 X113.631 Y119.235 E34.28038
G1 X114.171 Y119.453 E34.29974
G1 X114.721 Y119.509 E34.31813
G0 F6000 X114.708 Y119.106
G1 F1350 X115.116 Y119.038 E34.33189
G1 X115.495 Y118.868 E34.34571
G1 X115.851 Y118.568 E34.36119
G1 X116.109 Y118.174 E34.37685
G1 X116.241 Y117.723 E34.39248
G1 X116.24 Y117.251 E34.40818
G1 X116.098 Y116.798 E34.42397
G1 X115.83 Y116.409 E34.43968
G1 X115.464 Y116.114 E34.45532
G1 X115.029 Y115.938 E34.47093
G1 X114.559 Y115.893 E34.48663
G1 X114.094 Y115.991 E34.50244
G1 X113.68 Y116.218 E34.51814
G1 X113.349 Y116.554 E34.53383
G1 X113.132 Y116.973 E34.54952
G1 X113.044 Y117.432 E34.56506
G1 X113.085 Y117.865 E34.57953
G1 X113.209 Y118.213 E34.59182
G1 X113.47 Y118.591 E34.6071
G1 X113.836 Y118.886 E34.62273
G1 X114.268 Y119.061 E34.63823
G1 X114.708 Y119.106 E34.65294
G0 F6000 X114.695 Y118.703
;TYPE:WALL-OUTER
G1 F1350 X114.999 Y118.652 E34.6632
G1 X115.28 Y118.526 E34.67344
G1 X115.549 Y118.3 E34.68513
G1 X115.742 Y118.005 E34.69685
G1 X115.841 Y117.666 E34.7086
G1 X115.84 Y117.313 E34.72034
G1 X115.734 Y116.975 E34.73212
G1 X115.534 Y116.684 E34.74386
G1 X115.259 Y116.463 E34.7556
G1 X114.933 Y116.331 E34.7673
G1 X114.581 Y116.297 E34.77906
G1 X114.234 Y116.37 E34.79085
G1 X113.924 Y116.54 E34.80261
G1 X113.676 Y116.792 E34.81437
G1 X113.514 Y117.105 E34.82609
G1 X113.448 Y117.451 E34.83781
G1 X113.479 Y117.778 E34.84873
G1 X113.568 Y118.029 E34.85759
G1 X113.766 Y118.316 E34.86919
G1 X114.041 Y118.537 E34.88092
G1 X114.366 Y118.669 E34.89259
G1 X114.695 Y118.703 E34.90359
G0 F6000 X114.708 Y119.142
G0 X116.551 Y118.591
G0 X116.56 Y119.284
G0 X116.353 Y125.603
;TYPE:WALL-INNER
G1 F1350 X116.353 Y120.397 E35.07674
G1 X114.648 Y120.397 E35.13345
G1 X114.648 Y125.603 E35.3066
G1 X116.353 Y125.603 E35.36331
G0 F6000 X115.953 Y125.203
;TYPE:WALL-OUTER
G1 F1350 X115.953 Y120.797 E35.50986
G1 X115.048 Y120.797 E35.53996
G1 X115.048 Y125.203 E35.6865
G1 X115.953 Y125.203 E35.7166
G0 F6000 X116.253 Y125.203
