;FLAVOR:Marlin
;TIME:1226
;Filament used: 3.31567m
;Layer height: 0.32
;MINX:68.9
;MINY:68.9
;MINZ:0.32
;MAXX:151.1
;MAXY:151.1
;MAXZ:3.2
;Generated with Cura_SteamEngine main
M140 S110
M105
M190 S110
M104 S240
M105
M109 S240
M82 ;absolute extrusion mode
; Ender 3 Custom Start G-code
G92 E0 ; Reset Extruder
G28 ; Home all axes
G1 Z2.0 F3000 ; Move Z Axis up little to prevent scratching of Heat Bed
G1 X0.1 Y20 Z0.3 F5000.0 ; Move to start position
G1 X0.1 Y200.0 Z0.3 F1500.0 E15 ; Draw the first line
G1 X0.4 Y200.0 Z0.3 F5000.0 ; Move to side a little
G1 X0.4 Y20 Z0.3 F1500.0 E30 ; Draw the second line
G92 E0 ; Reset Extruder
G1 Z2.0 F3000 ; Move Z Axis up little to prevent scratching of Heat Bed
G1 X5 Y20 Z0.3 F5000.0 ; Move over to prevent blob squish
G92 E0
G92 E0
G1 F2700 E-5
;LAYER_COUNT:10
;LAYER:0
M107
G0 F7500 X70.653 Y71.157 Z0.32
G0 X68.9 Y75.701
;TYPE:SKIRT
G1 F2700 E0
G1 F1500 X68.922 Y75.303 E0.04242
G1 X69.001 Y74.593 E0.11846
G1 X69.1 Y74.066 E0.17553
G1 X69.182 Y73.8 E0.20515
G1 X69.42 Y73.121 E0.28173
G1 X69.767 Y72.399 E0.36699
G1 X70.149 Y71.79 E0.44351
G1 X70.467 Y71.358 E0.5006
G1 X70.653 Y71.157 E0.52974
G1 X71.157 Y70.653 E0.60561
G1 X71.564 Y70.304 E0.66267
G1 X71.79 Y70.149 E0.69184
G1 X72.399 Y69.767 E0.76835
G1 X73.123 Y69.419 E0.85385
G1 X73.8 Y69.182 E0.93019
G1 X74.317 Y69.043 E0.98717
G1 X74.587 Y69.003 E1.01622
G1 X75.299 Y68.923 E1.09248
G1 X75.701 Y68.9 E1.13533
G1 X144.299 Y68.9 E8.43638
G1 X144.701 Y68.923 E8.47924
G1 X145.413 Y69.003 E8.5555
G1 X145.94 Y69.102 E8.61257
G1 X146.2 Y69.182 E8.64152
G1 X146.877 Y69.419 E8.71786
G1 X147.601 Y69.767 E8.80336
G1 X148.21 Y70.149 E8.87987
G1 X148.642 Y70.467 E8.93696
G1 X148.843 Y70.653 E8.96611
G1 X149.347 Y71.157 E9.04197
G1 X149.696 Y71.564 E9.09904
G1 X149.851 Y71.79 E9.1282
G1 X150.233 Y72.399 E9.20472
G1 X150.58 Y73.121 E9.28998
G1 X150.818 Y73.8 E9.36655
G1 X150.958 Y74.318 E9.42366
G1 X150.999 Y74.592 E9.45315
G1 X151.078 Y75.3 E9.52897
G1 X151.1 Y75.699 E9.5715
G1 X151.1 Y144.299 E16.87277
G1 X151.078 Y144.697 E16.91519
G1 X150.999 Y145.407 E16.99123
G1 X150.9 Y145.934 E17.0483
G1 X150.818 Y146.2 E17.07792
G1 X150.58 Y146.879 E17.1545
G1 X150.233 Y147.601 E17.23976
G1 X149.851 Y148.21 E17.31627
G1 X149.533 Y148.642 E17.37337
G1 X149.347 Y148.843 E17.40251
G1 X148.843 Y149.347 E17.47837
G1 X148.436 Y149.696 E17.53544
G1 X148.21 Y149.851 E17.56461
G1 X147.601 Y150.233 E17.64112
G1 X146.877 Y150.581 E17.72661
G1 X146.2 Y150.818 E17.80296
G1 X145.683 Y150.957 E17.85994
G1 X145.413 Y150.997 E17.88899
G1 X144.701 Y151.077 E17.96524
G1 X144.299 Y151.1 E18.0081
G1 X75.701 Y151.1 E25.30915
G1 X75.299 Y151.077 E25.35201
G1 X74.587 Y150.997 E25.42826
G1 X74.06 Y150.898 E25.48534
G1 X73.8 Y150.818 E25.51429
G1 X73.123 Y150.581 E25.59063
G1 X72.399 Y150.233 E25.67613
G1 X71.79 Y149.851 E25.75264
G1 X71.358 Y149.533 E25.80973
G1 X71.157 Y149.347 E25.83888
G1 X70.653 Y148.843 E25.91474
G1 X70.304 Y148.436 E25.9718
G1 X70.149 Y148.21 E26.00097
G1 X69.767 Y147.601 E26.07749
G1 X69.42 Y146.879 E26.16274
G1 X69.182 Y146.2 E26.23932
G1 X69.042 Y145.682 E26.29643
G1 X69.001 Y145.408 E26.32592
G1 X68.922 Y144.7 E26.40174
G1 X68.9 Y144.301 E26.44427
G1 X68.9 Y75.701 E33.74554
G0 F7500 X69.7 Y75.701
G1 F1500 X69.717 Y75.391 E33.77858
G1 X69.796 Y74.681 E33.85461
G1 X69.937 Y74.065 E33.92187
G1 X70.175 Y73.386 E33.99845
G1 X70.445 Y72.824 E34.06481
G1 X70.827 Y72.215 E34.14132
G1 X71.219 Y71.723 E34.20828
G1 X71.723 Y71.219 E34.28414
G1 X72.215 Y70.827 E34.35109
G1 X72.824 Y70.445 E34.42761
G1 X73.387 Y70.174 E34.49411
G1 X74.064 Y69.937 E34.57045
G1 X74.676 Y69.798 E34.63725
G1 X75.388 Y69.718 E34.7135
G1 X75.701 Y69.7 E34.74687
G1 X144.299 Y69.7 E42.04792
G1 X144.612 Y69.718 E42.08129
G1 X145.324 Y69.798 E42.15755
G1 X145.936 Y69.937 E42.22434
G1 X146.613 Y70.174 E42.30069
G1 X147.176 Y70.445 E42.36719
G1 X147.785 Y70.827 E42.4437
G1 X148.277 Y71.219 E42.51065
G1 X148.781 Y71.723 E42.58652
G1 X149.173 Y72.215 E42.65347
G1 X149.555 Y72.824 E42.72998
G1 X149.825 Y73.386 E42.79634
G1 X150.063 Y74.065 E42.87292
G1 X150.204 Y74.68 E42.94007
G1 X150.283 Y75.388 E43.0159
G1 X150.3 Y75.699 E43.04905
G1 X150.3 Y144.299 E50.35031
G1 X150.283 Y144.609 E50.38335
G1 X150.204 Y145.319 E50.45939
G1 X150.063 Y145.935 E50.52665
G1 X149.825 Y146.614 E50.60322
G1 X149.555 Y147.176 E50.66958
G1 X149.173 Y147.785 E50.7461
G1 X148.781 Y148.277 E50.81305
G1 X148.277 Y148.781 E50.88891
G1 X147.785 Y149.173 E50.95587
G1 X147.176 Y149.555 E51.03238
G1 X146.613 Y149.826 E51.09888
G1 X145.936 Y150.063 E51.17522
G1 X145.324 Y150.202 E51.24202
G1 X144.612 Y150.282 E51.31828
G1 X144.299 Y150.3 E51.35164
G1 X75.701 Y150.3 E58.6527
G1 X75.388 Y150.282 E58.68606
G1 X74.676 Y150.202 E58.76232
G1 X74.064 Y150.063 E58.82912
G1 X73.387 Y149.826 E58.90546
G1 X72.824 Y149.555 E58.97196
G1 X72.215 Y149.173 E59.04847
G1 X71.723 Y148.781 E59.11543
G1 X71.219 Y148.277 E59.19129
G1 X70.827 Y147.785 E59.25824
G1 X70.445 Y147.176 E59.33476
G1 X70.175 Y146.614 E59.40112
G1 X69.937 Y145.935 E59.47769
G1 X69.796 Y145.32 E59.54485
G1 X69.717 Y144.612 E59.62067
G1 X69.7 Y144.301 E59.65382
G1 X69.7 Y75.701 E66.95509
G0 F7500 X70.5 Y75.588
G1 F1500 X70.591 Y74.77 E67.04268
G1 X70.692 Y74.329 E67.09084
G1 X70.93 Y73.65 E67.16741
G1 X71.123 Y73.249 E67.21478
G1 X71.505 Y72.64 E67.29129
G1 X71.785 Y72.289 E67.33908
G1 X72.289 Y71.785 E67.41494
G1 X72.64 Y71.505 E67.46273
G1 X73.249 Y71.123 E67.53924
G1 X73.651 Y70.929 E67.58675
G1 X74.328 Y70.692 E67.66309
G1 X74.766 Y70.593 E67.71089
G1 X75.594 Y70.5 E67.79957
G1 X144.406 Y70.5 E75.1234
G1 X145.234 Y70.593 E75.21208
G1 X145.672 Y70.692 E75.25987
G1 X146.349 Y70.929 E75.33621
G1 X146.751 Y71.123 E75.38372
G1 X147.36 Y71.505 E75.46023
G1 X147.711 Y71.785 E75.50802
G1 X148.215 Y72.289 E75.58388
G1 X148.495 Y72.64 E75.63167
G1 X148.877 Y73.249 E75.70818
G1 X149.07 Y73.65 E75.75555
G1 X149.308 Y74.329 E75.83213
G1 X149.409 Y74.769 E75.88018
G1 X149.5 Y75.585 E75.96756
G1 X149.5 Y144.412 E83.29299
G1 X149.409 Y145.23 E83.38059
G1 X149.308 Y145.671 E83.42874
G1 X149.07 Y146.35 E83.50532
G1 X148.877 Y146.751 E83.55268
G1 X148.495 Y147.36 E83.6292
G1 X148.215 Y147.711 E83.67698
G1 X147.711 Y148.215 E83.75285
G1 X147.36 Y148.495 E83.80063
G1 X146.751 Y148.877 E83.87715
G1 X146.349 Y149.071 E83.92465
G1 X145.672 Y149.308 E84.001
G1 X145.234 Y149.407 E84.04879
G1 X144.406 Y149.5 E84.13747
G1 X75.594 Y149.5 E91.4613
G1 X74.766 Y149.407 E91.54998
G1 X74.328 Y149.308 E91.59777
G1 X73.651 Y149.071 E91.67411
G1 X73.249 Y148.877 E91.72162
G1 X72.64 Y148.495 E91.79814
G1 X72.289 Y148.215 E91.84592
G1 X71.785 Y147.711 E91.92179
G1 X71.505 Y147.36 E91.96957
G1 X71.123 Y146.751 E92.04609
G1 X70.93 Y146.35 E92.09345
G1 X70.692 Y145.671 E92.17003
G1 X70.591 Y145.231 E92.21808
G1 X70.5 Y144.415 E92.30547
G1 X70.5 Y75.588 E99.63089
G0 F7500 X71.3 Y75.631
G1 F1500 X71.386 Y74.858 E99.71367
G1 X71.447 Y74.594 E99.74251
G1 X71.685 Y73.915 E99.81909
G1 X71.8 Y73.674 E99.84751
G1 X72.182 Y73.065 E99.92402
G1 X72.35 Y72.854 E99.95273
G1 X72.854 Y72.35 E100.02859
G1 X73.065 Y72.182 E100.0573
G1 X73.674 Y71.8 E100.13381
G1 X73.916 Y71.684 E100.16237
G1 X74.593 Y71.447 E100.23871
G1 X74.855 Y71.388 E100.2673
G1 X75.638 Y71.3 E100.35116
G1 X144.362 Y71.3 E107.66562
G1 X145.145 Y71.388 E107.74948
G1 X145.407 Y71.447 E107.77807
G1 X146.084 Y71.684 E107.85441
G1 X146.326 Y71.8 E107.88297
G1 X146.935 Y72.182 E107.95948
G1 X147.146 Y72.35 E107.98819
G1 X147.65 Y72.854 E108.06405
G1 X147.818 Y73.065 E108.09276
G1 X148.2 Y73.674 E108.16927
G1 X148.315 Y73.915 E108.19769
G1 X148.553 Y74.594 E108.27427
G1 X148.614 Y74.858 E108.30311
G1 X148.7 Y75.629 E108.38568
G1 X148.7 Y144.369 E115.70184
G1 X148.614 Y145.142 E115.78462
G1 X148.553 Y145.406 E115.81346
G1 X148.315 Y146.085 E115.89004
G1 X148.2 Y146.326 E115.91846
G1 X147.818 Y146.935 E115.99497
G1 X147.65 Y147.146 E116.02368
G1 X147.146 Y147.65 E116.09954
G1 X146.935 Y147.818 E116.12825
G1 X146.326 Y148.2 E116.20476
G1 X146.084 Y148.316 E116.23332
G1 X145.407 Y148.553 E116.30967
G1 X145.145 Y148.612 E116.33825
G1 X144.362 Y148.7 E116.42211
G1 X75.638 Y148.7 E123.73657
G1 X74.855 Y148.612 E123.82044
G1 X74.593 Y148.553 E123.84902
G1 X73.916 Y148.316 E123.92536
G1 X73.674 Y148.2 E123.95392
G1 X73.065 Y147.818 E124.03044
G1 X72.854 Y147.65 E124.05914
G1 X72.35 Y147.146 E124.135
G1 X72.182 Y146.935 E124.16371
G1 X71.8 Y146.326 E124.24022
G1 X71.685 Y146.085 E124.26864
G1 X71.447 Y145.406 E124.34522
G1 X71.386 Y145.142 E124.37406
G1 X71.3 Y144.371 E124.45663
G1 X71.3 Y75.631 E131.7728
G0 F7500 X72.102 Y75.657
G1 F1500 X72.186 Y74.906 E131.85322
G1 X72.456 Y74.134 E131.94027
G1 X72.884 Y73.452 E132.02597
G1 X73.452 Y72.884 E132.11146
G1 X74.137 Y72.454 E132.19754
G1 X74.896 Y72.188 E132.28314
G1 X75.701 Y72.1 E132.36933
G1 X144.299 Y72.1 E139.67038
G1 X145.104 Y72.188 E139.75657
G1 X145.863 Y72.454 E139.84217
G1 X146.548 Y72.884 E139.92825
G1 X147.116 Y73.452 E140.01375
G1 X147.544 Y74.134 E140.09944
G1 X147.814 Y74.906 E140.18649
G1 X147.898 Y75.655 E140.26671
G1 X147.898 Y144.343 E147.57734
G1 X147.814 Y145.094 E147.65777
G1 X147.544 Y145.866 E147.74481
G1 X147.116 Y146.548 E147.83051
G1 X146.548 Y147.116 E147.916
G1 X145.863 Y147.546 E148.00208
G1 X145.104 Y147.812 E148.08768
G1 X144.299 Y147.9 E148.17387
G1 X75.656 Y147.897 E155.47971
G1 X74.896 Y147.812 E155.56111
G1 X74.137 Y147.546 E155.64671
G1 X73.452 Y147.116 E155.73279
G1 X72.884 Y146.548 E155.81828
G1 X72.456 Y145.866 E155.90398
G1 X72.186 Y145.094 E155.99102
G1 X72.102 Y144.345 E156.07124
G1 X72.102 Y75.657 E163.38187
G1 F2700 E158.38187
;MESH:sonicube-FacePlate.stl(1)
G0 F7500 X73.319 Y75.746
G0 X75.618 Y78.223
G0 X75.952 Y78.518
G0 X76.268 Y78.685
G0 X78.893 Y79.322
;TYPE:WALL-INNER
G1 F2700 E163.38187
G1 F1500 X78.623 Y79.523 E163.4177
G1 X78.169 Y79.771 E163.47276
G1 X77.838 Y79.877 E163.50975
G1 X77.381 Y79.977 E163.55954
G1 X76.961 Y80.003 E163.60433
G1 X76.276 Y79.921 E163.67775
G1 X75.596 Y79.661 E163.75524
G1 X75.005 Y79.251 E163.83179
G1 X74.501 Y78.683 E163.91261
G1 X74.501 Y141.363 E170.5838
G1 X74.75 Y141.003 E170.63039
G1 X75.291 Y140.524 E170.70729
G1 X75.929 Y140.189 E170.78399
G1 X76.637 Y140.014 E170.86161
G1 X77.327 Y140.014 E170.93505
G1 X77.823 Y140.108 E170.98878
G1 X78.419 Y140.348 E171.05716
G1 X79.001 Y140.75 E171.13245
G1 X79.469 Y141.277 E171.20746
G1 X79.772 Y141.832 E171.27476
G1 X79.876 Y142.16 E171.31138
G1 X79.977 Y142.617 E171.3612
G1 X80.003 Y143.04 E171.4063
G1 X79.919 Y143.73 E171.48028
G1 X79.664 Y144.399 E171.55648
G1 X79.252 Y144.994 E171.63351
G1 X78.681 Y145.5 E171.71471
G1 X141.365 Y145.5 E178.38632
G1 X141.005 Y145.252 E178.43285
G1 X140.524 Y144.709 E178.51006
G1 X140.188 Y144.07 E178.5869
G1 X140.013 Y143.358 E178.66493
G1 X140.013 Y142.678 E178.73731
G1 X140.106 Y142.178 E178.79143
G1 X140.35 Y141.578 E178.86037
G1 X140.747 Y141.003 E178.93474
G1 X141.107 Y140.678 E178.98636
G1 X141.377 Y140.477 E179.02219
G1 X141.831 Y140.229 E179.07725
G1 X142.162 Y140.123 E179.11424
G1 X142.619 Y140.023 E179.16403
G1 X143.039 Y139.997 E179.20881
G1 X143.724 Y140.079 E179.28224
G1 X144.397 Y140.337 E179.35895
G1 X144.991 Y140.745 E179.43565
G1 X145.5 Y141.318 E179.51722
G1 X145.5 Y78.633 E186.18894
G1 X145.253 Y78.992 E186.23532
G1 X144.712 Y79.473 E186.31237
G1 X144.072 Y79.811 E186.3894
G1 X143.363 Y79.986 E186.46713
G1 X142.673 Y79.986 E186.54056
G1 X142.176 Y79.892 E186.5944
G1 X141.576 Y79.649 E186.6633
G1 X140.997 Y79.248 E186.73826
G1 X140.533 Y78.726 E186.81259
G1 X140.228 Y78.168 E186.88027
G1 X140.124 Y77.84 E186.9169
G1 X140.023 Y77.383 E186.96671
G1 X139.997 Y76.96 E187.01181
G1 X140.081 Y76.27 E187.0858
G1 X140.337 Y75.6 E187.16213
G1 X140.751 Y75.003 E187.23946
G1 X141.202 Y74.603 E187.30362
G1 X141.351 Y74.501 E187.32284
G1 X78.635 Y74.5 E193.99785
G1 X78.995 Y74.748 E194.04438
G1 X79.476 Y75.291 E194.12159
G1 X79.812 Y75.93 E194.19842
G1 X79.987 Y76.642 E194.27646
G1 X79.987 Y77.322 E194.34883
G1 X79.894 Y77.822 E194.40296
G1 X79.65 Y78.422 E194.4719
G1 X79.253 Y78.997 E194.54627
G1 X78.893 Y79.322 E194.59789
G0 F7500 X77.32 Y79.632
G0 X76.802 Y79.632
G0 X75.744 Y79.38
G0 X75.969 Y78.954
G1 F1500 X75.535 Y78.651 E194.65422
G1 F1479.7 X75.22 Y78.296 E194.70543
G1 F1440.6 X74.974 Y77.904 E194.75672
G1 F1318.7 X74.758 Y77.46 E194.8165
G1 F1242.2 X74.73 Y77.15 E194.8565
G1 F1251.3 X74.73 Y76.661 E194.91889
G1 F1333.3 X74.912 Y76.229 E194.97502
G1 F1467 X75.126 Y75.852 E195.0222
G1 F1500 X75.331 Y75.557 E195.06043
G1 F1479.7 X75.533 Y75.375 E195.08977
G1 F1440.6 X75.735 Y75.192 E195.11997
G1 F1401.9 X76.039 Y75.025 E195.15947
G1 F1366.7 X76.344 Y74.857 E195.20015
G1 F1293.1 X76.656 Y74.742 E195.2412
G1 F1250 X77.122 Y74.731 E195.30073
G1 F1242.2 X77.433 Y74.755 E195.34082
G1 F1261.8 X77.66 Y74.84 E195.37149
G1 F1343.8 X77.893 Y74.977 E195.4036
G1 F1444 X78.127 Y75.115 E195.43364
G1 F1500 X78.362 Y75.277 E195.46401
G1 X78.546 Y75.44 E195.49018
G1 X78.815 Y75.743 E195.5333
G1 X79.064 Y76.216 E195.59019
G1 X79.192 Y76.736 E195.64719
G1 X79.192 Y77.141 E195.6903
G1 X79.13 Y77.574 E195.73685
G1 X78.945 Y78.038 E195.79002
G1 X78.653 Y78.462 E195.84481
G1 X78.269 Y78.806 E195.89968
G1 X77.784 Y79.068 E195.95835
G1 X77.278 Y79.184 E196.0136
G1 X76.878 Y79.193 E196.05619
G1 X76.47 Y79.144 E196.09992
G1 X75.969 Y78.954 E196.15695
G1 F2700 E191.15695
G0 F7500 X75.744 Y79.38
G0 X75.015 Y78.757
G0 X74.653 Y78.231
G0 X74.426 Y77.635
G0 X74.347 Y76.516
G1 F2700 E196.15695
G0 F7500 X75.634 Y76.673
;TYPE:WALL-OUTER
G1 F1500 X75.762 Y76.34 E196.19492
G1 X75.966 Y76.056 E196.23214
G1 X76.202 Y75.847 E196.26569
G1 X76.494 Y75.691 E196.30093
G1 X76.808 Y75.612 E196.33539
G1 X77.178 Y75.606 E196.37477
G1 X77.543 Y75.711 E196.4152
G1 X77.832 Y75.876 E196.45061
G1 X78.016 Y76.039 E196.47678
G1 X78.214 Y76.305 E196.51207
G1 X78.366 Y76.667 E196.55386
G1 X78.398 Y77.047 E196.59445
G1 X78.36 Y77.337 E196.62557
G1 X78.244 Y77.644 E196.6605
G1 X78.047 Y77.93 E196.69747
G1 X77.778 Y78.164 E196.73541
G1 X77.503 Y78.308 E196.76845
G1 X77.174 Y78.39 E196.80454
G1 X76.827 Y78.394 E196.84147
G1 X76.547 Y78.324 E196.87219
G1 X76.246 Y78.178 E196.9078
G1 X75.984 Y77.961 E196.94401
G1 X75.76 Y77.66 E196.98394
G1 X75.633 Y77.307 E197.02387
G1 X75.602 Y77.047 E197.05174
G1 X75.634 Y76.673 E197.09169
G0 F7500 X74.347 Y76.516
G0 X74.247 Y75.368
G0 X73.758 Y75.254
;TYPE:WALL-INNER
G1 F1492.5 X73.704 Y75.806 E197.15101
G1 F1437.1 X73.731 Y76.055 E197.17884
G1 F1349.8 X73.758 Y76.305 E197.20858
G1 F1272.5 X73.785 Y76.555 E197.24012
G1 F1250 X73.775 Y77 E197.29697
G1 F1255.2 X73.781 Y77.272 E197.33158
G1 F1237.1 X73.788 Y77.544 E197.36669
G1 F1272.5 X73.756 Y77.839 E197.40392
G1 F1368.3 X73.723 Y78.135 E197.43867
G1 F1459.9 X73.701 Y78.594 E197.48892
G1 F1500 X73.701 Y79.258 E197.55959
G1 X73.701 Y79.922 E197.63026
G1 X73.701 Y80.586 E197.70093
G1 X73.701 Y81.25 E197.7716
G1 X73.701 Y81.914 E197.84228
G1 X73.701 Y82.578 E197.91295
G1 X73.701 Y83.242 E197.98362
G1 X73.701 Y83.906 E198.05429
G1 F1498.1 X73.701 Y84.57 E198.12505
G1 X73.701 Y85.234 E198.19581
G1 X73.701 Y85.898 E198.26657
G1 X73.701 Y86.562 E198.33733
G1 X73.701 Y87.226 E198.40809
G1 X73.701 Y87.89 E198.47885
G1 X73.701 Y88.554 E198.54961
G1 X73.701 Y89.218 E198.62037
G1 F1496.3 X73.701 Y89.882 E198.69121
G1 X73.701 Y90.546 E198.76206
G1 X73.701 Y91.21 E198.83291
G1 X73.701 Y91.874 E198.90376
G1 X73.701 Y92.538 E198.9746
G1 X73.701 Y93.202 E199.04545
G1 X73.701 Y93.866 E199.1163
G1 X73.701 Y94.53 E199.18715
G1 F1494.4 X73.701 Y95.194 E199.25808
G1 X73.701 Y95.858 E199.32902
G1 X73.701 Y96.522 E199.39996
G1 X73.701 Y97.186 E199.47089
G1 X73.701 Y97.85 E199.54183
G1 X73.701 Y98.514 E199.61276
G1 X73.701 Y99.178 E199.6837
G1 X73.701 Y99.842 E199.75464
G1 F1492.5 X73.701 Y100.506 E199.82566
G1 X73.701 Y101.17 E199.89669
G1 X73.701 Y101.834 E199.96771
G1 X73.701 Y102.498 E200.03873
G1 X73.701 Y103.162 E200.10976
G1 X73.701 Y103.826 E200.18078
G1 X73.701 Y104.49 E200.25181
G1 X73.701 Y105.154 E200.32283
G1 F1490.7 X73.701 Y105.818 E200.39395
G1 X73.701 Y106.482 E200.46506
G1 X73.701 Y107.146 E200.53617
