;FLAVOR:Marlin
;TIME:603
;Filament used: 1.22796m
;Layer height: 0.32
;MINX:68.9
;MINY:68.9
;MINZ:0.32
;MAXX:151.1
;MAXY:151.1
;MAXZ:1.6
;Generated with Cura_SteamEngine main
M140 S110
M105
M190 S110
M104 S240
M105
M109 S240
M82 ;absolute extrusion mode
; Ender 3 Custom Start G-code
G92 E0 ; Reset Extruder
G28 ; Home all axes
G1 Z2.0 F3000 ; Move Z Axis up little to prevent scratching of Heat Bed
G1 X0.1 Y20 Z0.3 F5000.0 ; Move to start position
G1 X0.1 Y200.0 Z0.3 F1500.0 E15 ; Draw the first line
G1 X0.4 Y200.0 Z0.3 F5000.0 ; Move to side a little
G1 X0.4 Y20 Z0.3 F1500.0 E30 ; Draw the second line
G92 E0 ; Reset Extruder
G1 Z2.0 F3000 ; Move Z Axis up little to prevent scratching of Heat Bed
G1 X5 Y20 Z0.3 F5000.0 ; Move over to prevent blob squish
G92 E0
G92 E0
G1 F2700 E-5
;LAYER_COUNT:5
;LAYER:0
M107
G0 F7500 X70.653 Y71.157 Z0.32
G0 X68.9 Y75.701
;TYPE:SKIRT
G1 F2700 E0
G1 F1500 X68.922 Y75.303 E0.04242
G1 X69.001 Y74.593 E0.11846
G1 X69.1 Y74.066 E0.17553
G1 X69.182 Y73.8 E0.20515
G1 X69.42 Y73.121 E0.28173
G1 X69.767 Y72.399 E0.36699
G1 X70.149 Y71.79 E0.44351
G1 X70.467 Y71.358 E0.5006
G1 X70.653 Y71.157 E0.52974
G1 X71.157 Y70.653 E0.60561
G1 X71.564 Y70.304 E0.66267
G1 X71.79 Y70.149 E0.69184
G1 X72.399 Y69.767 E0.76835
G1 X73.123 Y69.419 E0.85385
G1 X73.8 Y69.182 E0.93019
G1 X74.317 Y69.043 E0.98717
G1 X74.587 Y69.003 E1.01622
G1 X75.299 Y68.923 E1.09248
G1 X75.701 Y68.9 E1.13533
G1 X144.299 Y68.9 E8.43638
G1 X144.701 Y68.923 E8.47924
G1 X145.413 Y69.003 E8.5555
G1 X145.94 Y69.102 E8.61257
G1 X146.2 Y69.182 E8.64152
G1 X146.877 Y69.419 E8.71786
G1 X147.601 Y69.767 E8.80336
G1 X148.21 Y70.149 E8.87987
G1 X148.642 Y70.467 E8.93696
G1 X148.843 Y70.653 E8.96611
G1 X149.347 Y71.157 E9.04197
G1 X149.696 Y71.564 E9.09904
G1 X149.851 Y71.79 E9.1282
G1 X150.233 Y72.399 E9.20472
G1 X150.58 Y73.121 E9.28998
G1 X150.818 Y73.8 E9.36655
G1 X150.958 Y74.318 E9.42366
G1 X150.999 Y74.592 E9.45315
G1 X151.078 Y75.3 E9.52897
G1 X151.1 Y75.699 E9.5715
G1 X151.1 Y144.299 E16.87277
G1 X151.078 Y144.697 E16.91519
G1 X150.999 Y145.407 E16.99123
G1 X150.9 Y145.934 E17.0483
G1 X150.818 Y146.2 E17.07792
G1 X150.58 Y146.879 E17.1545
G1 X150.233 Y147.601 E17.23976
G1 X149.851 Y148.21 E17.31627
G1 X149.533 Y148.642 E17.37337
G1 X149.347 Y148.843 E17.40251
G1 X148.843 Y149.347 E17.47837
G1 X148.436 Y149.696 E17.53544
G1 X148.21 Y149.851 E17.56461
G1 X147.601 Y150.233 E17.64112
G1 X146.877 Y150.581 E17.72661
G1 X146.2 Y150.818 E17.80296
G1 X145.683 Y150.957 E17.85994
G1 X145.413 Y150.997 E17.88899
G1 X144.701 Y151.077 E17.96524
G1 X144.299 Y151.1 E18.0081
G1 X75.701 Y151.1 E25.30915
G1 X75.299 Y151.077 E25.35201
G1 X74.587 Y150.997 E25.42826
G1 X74.06 Y150.898 E25.48534
G1 X73.8 Y150.818 E25.51429
G1 X73.123 Y150.581 E25.59063
G1 X72.399 Y150.233 E25.67613
G1 X71.79 Y149.851 E25.75264
G1 X71.358 Y149.533 E25.80973
G1 X71.157 Y149.347 E25.83888
G1 X70.653 Y148.843 E25.91474
G1 X70.304 Y148.436 E25.9718
G1 X70.149 Y148.21 E26.00097
G1 X69.767 Y147.601 E26.07749
G1 X69.42 Y146.879 E26.16274
G1 X69.182 Y146.2 E26.23932
G1 X69.042 Y145.682 E26.29643
G1 X69.001 Y145.408 E26.32592
G1 X68.922 Y144.7 E26.40174
G1 X68.9 Y144.301 E26.44427
G1 X68.9 Y75.701 E33.74554
G0 F7500 X69.7 Y75.701
G1 F1500 X69.717 Y75.391 E33.77858
G1 X69.796 Y74.681 E33.85461
G1 X69.937 Y74.065 E33.92187
G1 X70.175 Y73.386 E33.99845
G1 X70.445 Y72.824 E34.06481
G1 X70.827 Y72.215 E34.14132
G1 X71.219 Y71.723 E34.20828
G1 X71.723 Y71.219 E34.28414
G1 X72.215 Y70.827 E34.35109
G1 X72.824 Y70.445 E34.42761
G1 X73.387 Y70.174 E34.49411
G1 X74.064 Y69.937 E34.57045
G1 X74.676 Y69.798 E34.63725
G1 X75.388 Y69.718 E34.7135
G1 X75.701 Y69.7 E34.74687
G1 X144.299 Y69.7 E42.04792
G1 X144.612 Y69.718 E42.08129
G1 X145.324 Y69.798 E42.15755
G1 X145.936 Y69.937 E42.22434
G1 X146.613 Y70.174 E42.30069
G1 X147.176 Y70.445 E42.36719
G1 X147.785 Y70.827 E42.4437
G1 X148.277 Y71.219 E42.51065
G1 X148.781 Y71.723 E42.58652
G1 X149.173 Y72.215 E42.65347
G1 X149.555 Y72.824 E42.72998
G1 X149.825 Y73.386 E42.79634
G1 X150.063 Y74.065 E42.87292
G1 X150.204 Y74.68 E42.94007
G1 X150.283 Y75.388 E43.0159
G1 X150.3 Y75.699 E43.04905
G1 X150.3 Y144.299 E50.35031
G1 X150.283 Y144.609 E50.38335
G1 X150.204 Y145.319 E50.45939
G1 X150.063 Y145.935 E50.52665
G1 X149.825 Y146.614 E50.60322
G1 X149.555 Y147.176 E50.66958
G1 X149.173 Y147.785 E50.7461
G1 X148.781 Y148.277 E50.81305
G1 X148.277 Y148.781 E50.88891
G1 X147.785 Y149.173 E50.95587
G1 X147.176 Y149.555 E51.03238
G1 X146.613 Y149.826 E51.09888
G1 X145.936 Y150.063 E51.17522
G1 X145.324 Y150.202 E51.24202
G1 X144.612 Y150.282 E51.31828
G1 X144.299 Y150.3 E51.35164
G1 X75.701 Y150.3 E58.6527
G1 X75.388 Y150.282 E58.68606
G1 X74.676 Y150.202 E58.76232
G1 X74.064 Y150.063 E58.82912
G1 X73.387 Y149.826 E58.90546
G1 X72.824 Y149.555 E58.97196
G1 X72.215 Y149.173 E59.04847
G1 X71.723 Y148.781 E59.11543
G1 X71.219 Y148.277 E59.19129
G1 X70.827 Y147.785 E59.25824
G1 X70.445 Y147.176 E59.33476
G1 X70.175 Y146.614 E59.40112
G1 X69.937 Y145.935 E59.47769
G1 X69.796 Y145.32 E59.54485
G1 X69.717 Y144.612 E59.62067
G1 X69.7 Y144.301 E59.65382
G1 X69.7 Y75.701 E66.95509
G0 F7500 X70.5 Y75.588
G1 F1500 X70.591 Y74.77 E67.04268
G1 X70.692 Y74.329 E67.09084
G1 X70.93 Y73.65 E67.16741
G1 X71.123 Y73.249 E67.21478
G1 X71.505 Y72.64 E67.29129
G1 X71.785 Y72.289 E67.33908
G1 X72.289 Y71.785 E67.41494
G1 X72.64 Y71.505 E67.46273
G1 X73.249 Y71.123 E67.53924
G1 X73.651 Y70.929 E67.58675
G1 X74.328 Y70.692 E67.66309
G1 X74.766 Y70.593 E67.71089
G1 X75.594 Y70.5 E67.79957
G1 X144.406 Y70.5 E75.1234
G1 X145.234 Y70.593 E75.21208
G1 X145.672 Y70.692 E75.25987
G1 X146.349 Y70.929 E75.33621
G1 X146.751 Y71.123 E75.38372
G1 X147.36 Y71.505 E75.46023
G1 X147.711 Y71.785 E75.50802
G1 X148.215 Y72.289 E75.58388
G1 X148.495 Y72.64 E75.63167
G1 X148.877 Y73.249 E75.70818
G1 X149.07 Y73.65 E75.75555
G1 X149.308 Y74.329 E75.83213
G1 X149.409 Y74.769 E75.88018
G1 X149.5 Y75.585 E75.96756
G1 X149.5 Y144.412 E83.29299
G1 X149.409 Y145.23 E83.38059
G1 X149.308 Y145.671 E83.42874
G1 X149.07 Y146.35 E83.50532
G1 X148.877 Y146.751 E83.55268
G1 X148.495 Y147.36 E83.6292
G1 X148.215 Y147.711 E83.67698
G1 X147.711 Y148.215 E83.75285
G1 X147.36 Y148.495 E83.80063
G1 X146.751 Y148.877 E83.87715
G1 X146.349 Y149.071 E83.92465
G1 X145.672 Y149.308 E84.001
G1 X145.234 Y149.407 E84.04879
G1 X144.406 Y149.5 E84.13747
G1 X75.594 Y149.5 E91.4613
G1 X74.766 Y149.407 E91.54998
G1 X74.328 Y149.308 E91.59777
G1 X73.651 Y149.071 E91.67411
G1 X73.249 Y148.877 E91.72162
G1 X72.64 Y148.495 E91.79814
G1 X72.289 Y148.215 E91.84592
G1 X71.785 Y147.711 E91.92179
G1 X71.505 Y147.36 E91.96957
G1 X71.123 Y146.751 E92.04609
G1 X70.93 Y146.35 E92.09345
G1 X70.692 Y145.671 E92.17003
G1 X70.591 Y145.231 E92.21808
G1 X70.5 Y144.415 E92.30547
G1 X70.5 Y75.588 E99.63089
G0 F7500 X71.3 Y75.631
G1 F1500 X71.386 Y74.858 E99.71367
G1 X71.447 Y74.594 E99.74251
G1 X71.685 Y73.915 E99.81909
G1 X71.8 Y73.674 E99.84751
G1 X72.182 Y73.065 E99.92402
G1 X72.35 Y72.854 E99.95273
G1 X72.854 Y72.35 E100.02859
G1 X73.065 Y72.182 E100.0573
G1 X73.674 Y71.8 E100.13381
G1 X73.916 Y71.684 E100.16237
G1 X74.593 Y71.447 E100.23871
G1 X74.855 Y71.388 E100.2673
G1 X75.638 Y71.3 E100.35116
G1 X144.362 Y71.3 E107.66562
G1 X145.145 Y71.388 E107.74948
G1 X145.407 Y71.447 E107.77807
G1 X146.084 Y71.684 E107.85441
G1 X146.326 Y71.8 E107.88297
G1 X146.935 Y72.182 E107.95948
G1 X147.146 Y72.35 E107.98819
G1 X147.65 Y72.854 E108.06405
G1 X147.818 Y73.065 E108.09276
G1 X148.2 Y73.674 E108.16927
G1 X148.315 Y73.915 E108.19769
G1 X148.553 Y74.594 E108.27427
G1 X148.614 Y74.858 E108.30311
G1 X148.7 Y75.629 E108.38568
G1 X148.7 Y144.369 E115.70184
G1 X148.614 Y145.142 E115.78462
G1 X148.553 Y145.406 E115.81346
G1 X148.315 Y146.085 E115.89004
G1 X148.2 Y146.326 E115.91846
G1 X147.818 Y146.935 E115.99497
G1 X147.65 Y147.146 E116.02368
G1 X147.146 Y147.65 E116.09954
G1 X146.935 Y147.818 E116.12825
G1 X146.326 Y148.2 E116.20476
G1 X146.084 Y148.316 E116.23332
G1 X145.407 Y148.553 E116.30967
G1 X145.145 Y148.612 E116.33825
G1 X144.362 Y148.7 E116.42211
G1 X75.638 Y148.7 E123.73657
G1 X74.855 Y148.612 E123.82044
G1 X74.593 Y148.553 E123.84902
G1 X73.916 Y148.316 E123.92536
G1 X73.674 Y148.2 E123.95392
G1 X73.065 Y147.818 E124.03044
G1 X72.854 Y147.65 E124.05914
G1 X72.35 Y147.146 E124.135
G1 X72.182 Y146.935 E124.16371
G1 X71.8 Y146.326 E124.24022
G1 X71.685 Y146.085 E124.26864
G1 X71.447 Y145.406 E124.34522
G1 X71.386 Y145.142 E124.37406
G1 X71.3 Y144.371 E124.45663
G1 X71.3 Y75.631 E131.7728
G0 F7500 X72.102 Y75.657
G1 F1500 X72.186 Y74.906 E131.85322
G1 X72.456 Y74.134 E131.94027
G1 X72.884 Y73.452 E132.02597
G1 X73.452 Y72.884 E132.11146
G1 X74.137 Y72.454 E132.19754
G1 X74.896 Y72.188 E132.28314
G1 X75.701 Y72.1 E132.36933
G1 X144.299 Y72.1 E139.67038
G1 X145.104 Y72.188 E139.75657
G1 X145.863 Y72.454 E139.84217
G1 X146.548 Y72.884 E139.92825
G1 X147.116 Y73.452 E140.01375
G1 X147.544 Y74.134 E140.09944
G1 X147.814 Y74.906 E140.18649
G1 X147.898 Y75.655 E140.26671
G1 X147.898 Y144.343 E147.57734
G1 X147.814 Y145.094 E147.65777
G1 X147.544 Y145.866 E147.74481
G1 X147.116 Y146.548 E147.83051
G1 X146.548 Y147.116 E147.916
G1 X145.863 Y147.546 E148.00208
G1 X145.104 Y147.812 E148.08768
G1 X144.299 Y147.9 E148.17387
G1 X75.656 Y147.897 E155.47971
G1 X74.896 Y147.812 E155.56111
G1 X74.137 Y147.546 E155.64671
G1 X73.452 Y147.116 E155.73279
G1 X72.884 Y146.548 E155.81828
G1 X72.456 Y145.866 E155.90398
G1 X72.186 Y145.094 E155.99102
G1 X72.102 Y144.345 E156.07124
G1 X72.102 Y75.657 E163.38187
G1 F2700 E158.38187
;MESH:sonicube-Washer.stl
G0 F7500 X73.319 Y75.746
G0 X79.192 Y76.736
;TYPE:WALL-INNER
G1 F2700 E163.38187
G1 F1500 X79.192 Y77.141 E163.42498
G1 X79.158 Y77.423 E163.45521
G1 X79.093 Y77.666 E163.48198
G1 X78.943 Y78.056 E163.52645
G1 X78.6 Y78.51 E163.58701
G1 X78.245 Y78.826 E163.6376
G1 X77.756 Y79.073 E163.69591
G1 X77.333 Y79.175 E163.74222
G1 X76.878 Y79.193 E163.79068
G1 X76.47 Y79.144 E163.83442
G1 X75.969 Y78.954 E163.89145
G1 X75.535 Y78.651 E163.94778
G1 F1479.7 X75.22 Y78.296 E163.99899
G1 F1440.6 X74.974 Y77.904 E164.05028
G1 F1318.7 X74.758 Y77.46 E164.11006
G1 F1242.2 X74.73 Y77.15 E164.15006
G1 F1233.3 X74.73 Y76.742 E164.20287
G1 F1191.7 X74.802 Y76.294 E164.26366
G1 F1140.7 X74.88 Y76.015 E164.30421
G1 F1072.4 X74.979 Y75.751 E164.34618
G1 F1024.8 X75.176 Y75.42 E164.40619
G1 F1023.9 X75.394 Y75.23 E164.45128
G1 F1045.3 X75.613 Y75.039 E164.49566
G1 F1083 X76.046 Y74.864 E164.56451
G1 F1149.4 X76.33 Y74.799 E164.60497
G1 F1214.6 X76.656 Y74.742 E164.64847
G1 F1250 X77.122 Y74.731 E164.70801
G1 F1242.2 X77.433 Y74.755 E164.7481
G1 F1261.8 X77.66 Y74.84 E164.77876
G1 F1343.8 X77.893 Y74.977 E164.81088
G1 F1444 X78.127 Y75.115 E164.84091
G1 F1500 X78.463 Y75.347 E164.88437
G1 X78.815 Y75.743 E164.94076
G1 X79.064 Y76.216 E164.99765
G1 X79.192 Y76.736 E165.05465
G1 F2700 E160.05465
G0 F7500 X78.634 Y77.857
G0 X78.382 Y78.223
G0 X78.048 Y78.518
G0 X77.656 Y78.725
G0 X77.306 Y78.811
G0 X75.261 Y78.791
G1 F2700 E165.05465
G0 F7500 X75.984 Y77.961
;TYPE:WALL-OUTER
G1 F1500 X75.76 Y77.66 E165.09458
G1 X75.633 Y77.307 E165.13451
G1 X75.602 Y77.047 E165.16238
G1 X75.634 Y76.673 E165.20233
G1 X75.762 Y76.34 E165.2403
G1 X75.966 Y76.056 E165.27752
G1 X76.202 Y75.847 E165.31107
G1 X76.465 Y75.706 E165.34283
G1 X76.547 Y75.676 E165.35212
G1 X76.808 Y75.612 E165.38072
G1 X77.178 Y75.606 E165.42011
G1 X77.543 Y75.711 E165.46053
G1 X77.832 Y75.876 E165.49595
G1 X78.08 Y76.111 E165.53231
G1 X78.214 Y76.305 E165.55741
G1 X78.366 Y76.667 E165.5992
G1 X78.398 Y77.047 E165.63978
G1 X78.364 Y77.333 E165.67044
G1 X78.239 Y77.66 E165.7077
G1 X78.034 Y77.944 E165.74498
G1 X77.796 Y78.152 E165.77862
G1 X77.507 Y78.306 E165.81347
G1 X77.193 Y78.387 E165.84798
G1 X76.878 Y78.393 E165.88152
G1 X76.547 Y78.324 E165.9175
G1 X76.246 Y78.178 E165.95311
G1 X75.984 Y77.961 E165.98932
G0 F7500 X75.261 Y78.791
G0 X74.167 Y76.752
G0 X74.106 Y78.129
G0 X73.7 Y102.321
;TYPE:WALL-INNER
G1 F1501.9 X74.713 Y98.542 E166.40521
G1 F1500 X76.106 Y94.91 E166.81922
G1 X77.865 Y91.455 E167.23186
G1 X79.983 Y88.193 E167.64581
G1 X82.426 Y85.176 E168.05899
G1 X85.176 Y82.429 E168.47269
G1 X88.197 Y79.98 E168.8866
G1 X91.448 Y77.867 E169.29927
G1 X94.911 Y76.105 E169.71282
G1 X98.543 Y74.712 E170.12683
G1 F1501.9 X102.347 Y73.7 E170.54526
G1 F1503.8 X101.698 Y73.7 E170.61416
G1 X101.049 Y73.7 E170.68307
G1 X100.4 Y73.7 E170.75197
G1 F1501.9 X99.751 Y73.7 E170.82096
G1 X99.102 Y73.7 E170.88994
G1 X98.453 Y73.7 E170.95893
G1 F1500 X97.804 Y73.7 E171.02801
G1 X97.155 Y73.7 E171.09708
G1 X96.506 Y73.7 E171.16616
G1 F1498.1 X95.857 Y73.7 E171.23532
G1 X95.208 Y73.7 E171.30448
G1 X94.559 Y73.7 E171.37364
G1 F1496.3 X93.91 Y73.7 E171.44289
G1 X93.261 Y73.7 E171.51213
G1 X92.612 Y73.7 E171.58138
G1 F1494.4 X91.963 Y73.7 E171.65072
G1 X91.314 Y73.7 E171.72005
G1 X90.665 Y73.7 E171.78938
G1 F1492.5 X90.016 Y73.7 E171.8588
G1 X89.367 Y73.7 E171.92822
G1 X88.718 Y73.7 E171.99764
G1 X88.069 Y73.7 E172.06706
G1 F1490.7 X87.42 Y73.7 E172.13657
G1 X86.771 Y73.7 E172.20608
G1 X86.122 Y73.7 E172.27558
G1 F1488.8 X85.473 Y73.7 E172.34518
G1 X84.824 Y73.7 E172.41477
G1 X84.175 Y73.7 E172.48436
G1 F1487 X83.526 Y73.7 E172.55404
G1 X82.877 Y73.7 E172.62372
G1 X82.228 Y73.7 E172.6934
G1 F1485.1 X81.579 Y73.7 E172.76316
G1 X80.93 Y73.7 E172.83293
G1 X80.281 Y73.7 E172.90269
G1 F1483.3 X79.632 Y73.7 E172.97255
G1 X78.983 Y73.7 E173.0424
G1 X78.334 Y73.7 E173.11225
G1 F1432 X78.074 Y73.73 E173.14143
G1 F1342.3 X77.812 Y73.76 E173.17279
G1 F1263.2 X77.55 Y73.79 E173.20612
G1 F1242.2 X77.122 Y73.777 E173.26115
G1 F1250 X76.573 Y73.783 E173.33128
G1 F1214.6 X76.209 Y73.804 E173.3792
G1 F1149.4 X75.747 Y73.844 E173.44361
G1 F1073.3 X75.359 Y73.925 E173.50257
G1 F1037.2 X75.294 Y73.932 E173.51263
G1 F1021.3 X74.922 Y74.083 E173.57539
G1 F997.5 X74.591 Y74.304 E173.63909
G1 F990.1 X74.303 Y74.59 E173.70453
G1 F998.3 X74.082 Y74.925 E173.76871
G1 F1020.4 X73.934 Y75.294 E173.83092
G1 F1036.3 X73.927 Y75.359 E173.84099
G1 F1072.4 X73.844 Y75.746 E173.89991
G1 F1140.7 X73.812 Y76.111 E173.95119
G1 F1203.6 X73.785 Y76.555 E174.01019
G1 F1250 X73.775 Y77 E174.06704
G1 F1255.2 X73.781 Y77.272 E174.10165
G1 F1237.1 X73.788 Y77.544 E174.13676
G1 F1272.5 X73.756 Y77.839 E174.17399
G1 F1368.3 X73.723 Y78.135 E174.20874
G1 F1459.9 X73.701 Y78.594 E174.25899
G1 F1501.9 X73.701 Y86.503 E175.09971
G1 X73.701 Y94.412 E175.94043
G1 X73.7 Y102.321 E176.78116
G1 F2700 E171.78116
G0 F7500 X73.481 Y106.161
G0 X74.958 Y106.315
G0 X74.766 Y110
G0 X73.7 Y117.653
G1 F2700 E176.78116
G1 F1503.8 X73.7 Y118.253 E176.84486
G1 X73.7 Y118.853 E176.90856
G1 X73.7 Y119.453 E176.97226
G1 F1501.9 X73.7 Y120.053 E177.03603
G1 X73.7 Y120.653 E177.09981
G1 X73.7 Y121.253 E177.16359
G1 F1500 X73.7 Y121.853 E177.22745
G1 X73.7 Y122.453 E177.29131
G1 X73.7 Y123.053 E177.35517
G1 F1498.1 X73.7 Y123.653 E177.41911
G1 X73.7 Y124.253 E177.48305
G1 X73.7 Y124.853 E177.54699
G1 F1496.3 X73.7 Y125.453 E177.61101
G1 X73.7 Y126.053 E177.67503
G1 X73.7 Y126.653 E177.73905
G1 F1494.4 X73.7 Y127.253 E177.80315
G1 X73.7 Y127.853 E177.86725
G1 X73.7 Y128.453 E177.93134
G1 F1492.5 X73.7 Y129.053 E177.99552
G1 X73.7 Y129.653 E178.0597
G1 X73.7 Y130.253 E178.12388
G1 X73.7 Y130.853 E178.18806
G1 F1490.7 X73.7 Y131.453 E178.25232
G1 X73.7 Y132.053 E178.31658
G1 X73.7 Y132.653 E178.38084
G1 F1488.8 X73.7 Y133.253 E178.44517
G1 X73.7 Y133.853 E178.50951
G1 X73.7 Y134.453 E178.57385
G1 F1487 X73.7 Y135.053 E178.63827
G1 X73.7 Y135.653 E178.70269
G1 X73.7 Y136.253 E178.76711
G1 F1485.1 X73.7 Y136.853 E178.8316
G1 X73.7 Y137.453 E178.8961
G1 X73.7 Y138.053 E178.9606
G1 F1483.3 X73.7 Y138.653 E179.02518
G1 X73.7 Y139.253 E179.08975
G1 X73.7 Y139.853 E179.15433
G1 F1481.5 X73.7 Y140.453 E179.21899
G1 X73.7 Y141.053 E179.28365
G1 X73.7 Y141.653 E179.34831
G1 F1430.3 X73.73 Y141.927 E179.37907
G1 F1340.8 X73.76 Y142.187 E179.41024
G1 F1261.8 X73.79 Y142.447 E179.44335
G1 F1242.2 X73.777 Y142.877 E179.49864
G1 F1250 X73.783 Y143.428 E179.56902
