;FLAVOR:Marlin
;TIME:3315
;Filament used: 8.95081m
;Layer height: 0.4
;MINX:97.9
;MINY:79.846
;MINZ:0.4
;MAXX:137.1
;MAXY:155.154
;MAXZ:74.8
;Generated with Cura_SteamEngine 4.11.0
M140 S100
M105
M190 S100
M104 S240
M105
M109 S240
M82 ;absolute extrusion mode
; Ender 3 Custom Start G-code
G92 E0 ; Reset Extruder
G28 ; Home all axes
G1 Z2.0 F3000 ; Move Z Axis up little to prevent scratching of Heat Bed
G1 X0.1 Y20 Z0.3 F5000.0 ; Move to start position
G1 X0.1 Y200.0 Z0.3 F1500.0 E15 ; Draw the first line
G1 X0.4 Y200.0 Z0.3 F5000.0 ; Move to side a little
G1 X0.4 Y20 Z0.3 F1500.0 E30 ; Draw the second line
G92 E0 ; Reset Extruder
G1 Z2.0 F3000 ; Move Z Axis up little to prevent scratching of Heat Bed
G1 X5 Y20 Z0.3 F5000.0 ; Move over to prevent blob squish
G92 E0
G92 E0
G1 F2700 E-5
;LAYER_COUNT:188
;LAYER:0
M107
G0 F6000 X118.878 Y82.573 Z0.4
;TYPE:SKIRT
G1 F2700 E0
G1 F1200 X119.194 Y82.132 E0.08012
G1 X119.472 Y81.79 E0.1452
G1 X119.507 Y81.752 E0.15283
G1 X119.828 Y81.445 E0.21843
G1 X120.241 Y81.095 E0.29837
G1 X120.621 Y80.813 E0.36825
G1 X120.663 Y80.786 E0.37563
G1 X121.016 Y80.586 E0.43554
G1 X121.506 Y80.344 E0.51624
G1 X122.052 Y80.128 E0.60296
G1 X122.098 Y80.114 E0.61006
G1 X122.399 Y80.036 E0.65597
G1 X122.927 Y79.924 E0.73568
G1 X123.387 Y79.857 E0.80433
G1 X123.437 Y79.853 E0.81174
G1 X123.885 Y79.846 E0.8779
G1 X124.467 Y79.872 E0.96394
G1 X124.898 Y79.917 E1.02793
G1 X133.69 Y81.383 E2.34421
G1 X134.306 Y81.543 E2.4382
G1 X134.379 Y81.569 E2.44964
G1 X135.071 Y81.902 E2.56305
G1 X135.285 Y82.035 E2.60026
G1 X135.718 Y82.352 E2.67951
G1 X136.1 Y82.729 E2.75877
G1 X136.542 Y83.362 E2.87278
G1 X136.644 Y83.548 E2.9041
G1 X136.866 Y84.036 E2.98328
G1 X137.013 Y84.552 E3.06251
G1 X137.087 Y85.328 E3.17762
G1 X137.081 Y85.768 E3.24261
G1 X136.991 Y86.517 E3.35401
G1 X136.971 Y86.605 E3.36734
G1 X136.72 Y87.337 E3.48161
G1 X136.573 Y87.65 E3.53268
G1 X136.309 Y88.117 E3.6119
G1 X136.109 Y88.389 E3.66176
G1 X136.053 Y88.458 E3.67488
G1 X135.552 Y88.963 E3.77993
G1 X135.286 Y89.183 E3.83091
G1 X134.617 Y89.621 E3.94899
G1 X134.534 Y89.663 E3.96273
G1 X133.792 Y89.941 E4.07974
G1 X133.468 Y90.023 E4.1291
G1 X132.845 Y90.124 E4.2223
G1 X132.776 Y90.129 E4.23252
G1 X132.183 Y90.123 E4.32009
G1 X131.957 Y90.102 E4.35361
G1 X131.61 Y90.052 E4.40538
G1 X126.7 Y89.108 E5.14375
G1 X126.7 Y145.892 E13.52932
G1 X131.631 Y144.944 E14.27084
G1 X132.048 Y144.889 E14.33296
G1 X132.089 Y144.886 E14.33903
G1 X132.423 Y144.877 E14.38837
G1 X132.776 Y144.884 E14.44051
G1 X133.31 Y144.934 E14.51971
G1 X133.578 Y144.99 E14.56014
G1 X133.662 Y145.011 E14.57293
G1 X134.171 Y145.18 E14.65213
G1 X134.431 Y145.3 E14.69442
G1 X134.747 Y145.462 E14.74686
G1 X135.41 Y145.9 E14.86421
G1 X135.476 Y145.955 E14.87689
G1 X136.023 Y146.524 E14.99345
G1 X136.238 Y146.803 E15.04547
G1 X136.532 Y147.251 E15.1246
G1 X136.655 Y147.491 E15.16442
G1 X136.691 Y147.569 E15.17711
G1 X136.878 Y148.072 E15.25636
G1 X136.944 Y148.335 E15.2964
G1 X137.021 Y148.7 E15.35149
G1 X137.098 Y149.342 E15.44697
G1 X137.1 Y149.413 E15.45746
G1 X137.053 Y150.102 E15.55945
G1 X137.006 Y150.386 E15.60196
G1 X136.879 Y150.907 E15.68115
G1 X136.676 Y151.403 E15.76029
G1 X136.356 Y151.928 E15.85109
G1 X136.243 Y152.082 E15.8793
G1 X135.895 Y152.489 E15.95838
G1 X135.49 Y152.841 E16.03762
G1 X134.977 Y153.159 E16.12675
G1 X134.783 Y153.258 E16.15891
G1 X134.21 Y153.49 E16.2502
G1 X134.155 Y153.507 E16.2587
G1 X133.684 Y153.619 E16.3302
G1 X124.898 Y155.083 E17.64556
G1 X124.466 Y155.128 E17.7097
G1 X123.883 Y155.154 E17.79588
G1 X123.436 Y155.147 E17.8619
G1 X123.386 Y155.143 E17.86931
G1 X122.927 Y155.076 E17.93781
G1 X122.398 Y154.964 E18.01766
G1 X122.075 Y154.879 E18.06698
G1 X122.03 Y154.865 E18.07394
G1 X121.502 Y154.654 E18.15791
G1 X121.011 Y154.411 E18.23881
G1 X120.628 Y154.192 E18.30397
G1 X120.587 Y154.165 E18.31122
G1 X120.24 Y153.905 E18.37525
G1 X119.828 Y153.556 E18.45498
G1 X119.507 Y153.248 E18.52068
G1 X119.472 Y153.21 E18.52831
G1 X119.192 Y152.865 E18.59393
G1 X118.873 Y152.419 E18.6749
G1 X118.647 Y152.06 E18.73755
G1 X118.625 Y152.02 E18.74429
G1 X118.425 Y151.593 E18.81392
G1 X118.228 Y151.088 E18.89397
G1 X118.104 Y150.708 E18.953
G1 X118.092 Y150.663 E18.95988
G1 X117.996 Y150.166 E19.03463
G1 X117.926 Y149.586 E19.1209
G1 X117.9 Y149.155 E19.18466
G1 X117.9 Y85.846 E28.53382
G1 X117.926 Y85.412 E28.59803
G1 X117.996 Y84.836 E28.68371
G1 X118.087 Y84.361 E28.75513
G1 X118.099 Y84.315 E28.76215
G1 X118.227 Y83.919 E28.82361
G1 X118.427 Y83.405 E28.90506
G1 X118.628 Y82.975 E28.97516
G1 X118.65 Y82.935 E28.9819
G1 X118.878 Y82.573 E29.04508
G0 F6000 X119.528 Y83.039
G1 F1200 X119.844 Y82.598 E29.12519
G1 X120.06 Y82.332 E29.1758
G1 X120.095 Y82.294 E29.18342
G1 X120.345 Y82.055 E29.2345
G1 X120.758 Y81.705 E29.31444
G1 X121.054 Y81.486 E29.36882
G1 X121.096 Y81.459 E29.37619
G1 X121.37 Y81.303 E29.42275
G1 X121.86 Y81.061 E29.50346
G1 X122.285 Y80.893 E29.57095
G1 X122.565 Y80.819 E29.61372
G1 X123.093 Y80.707 E29.69342
G1 X123.451 Y80.655 E29.74685
G1 X123.501 Y80.651 E29.75425
G1 X123.849 Y80.645 E29.80565
G1 X124.431 Y80.671 E29.89168
G1 X124.767 Y80.706 E29.94157
G1 X133.559 Y82.172 E31.25786
G1 X134.037 Y82.296 E31.33078
G1 X134.11 Y82.322 E31.34222
G1 X134.649 Y82.582 E31.4306
G1 X134.863 Y82.715 E31.46781
G1 X135.242 Y82.997 E31.53757
G1 X135.568 Y83.34 E31.60745
G1 X135.84 Y83.747 E31.67974
G1 X135.942 Y83.933 E31.71107
G1 X136.134 Y84.365 E31.78088
G1 X136.25 Y84.823 E31.85065
G1 X136.287 Y85.317 E31.9238
G1 X136.281 Y85.757 E31.98879
G1 X136.211 Y86.34 E32.0755
G1 X136.191 Y86.428 E32.08883
G1 X135.995 Y86.997 E32.1777
G1 X135.848 Y87.31 E32.22877
G1 X135.488 Y87.884 E32.32882
G1 X135.432 Y87.953 E32.34195
G1 X135.043 Y88.347 E32.42371
G1 X134.777 Y88.567 E32.47469
G1 X134.256 Y88.907 E32.56656
G1 X134.173 Y88.949 E32.5803
G1 X133.596 Y89.165 E32.67128
G1 X133.272 Y89.247 E32.72063
G1 X132.787 Y89.326 E32.7932
G1 X132.718 Y89.331 E32.80342
G1 X132.257 Y89.326 E32.8715
G1 X132.031 Y89.305 E32.90502
G1 X131.761 Y89.267 E32.94528
G1 X125.9 Y88.14 E33.82666
G1 X125.9 Y146.86 E42.49814
G1 X131.782 Y145.729 E43.38267
G1 X132.107 Y145.686 E43.43109
G1 X132.148 Y145.683 E43.43716
G1 X132.408 Y145.677 E43.47556
G1 X132.761 Y145.684 E43.5277
G1 X133.384 Y145.767 E43.62052
G1 X133.468 Y145.788 E43.6333
G1 X134.066 Y146.012 E43.72761
G1 X134.382 Y146.174 E43.78005
G1 X134.898 Y146.515 E43.87138
G1 X134.964 Y146.57 E43.88407
G1 X135.389 Y147.012 E43.97462
G1 X135.604 Y147.291 E44.02664
G1 X135.928 Y147.827 E44.11913
G1 X135.964 Y147.905 E44.13181
G1 X136.162 Y148.5 E44.22442
G1 X136.239 Y148.865 E44.27951
G1 X136.298 Y149.364 E44.35371
G1 X136.3 Y149.435 E44.3642
G1 X136.263 Y149.971 E44.44354
G1 X136.216 Y150.255 E44.48605
G1 X136.1 Y150.713 E44.55582
G1 X135.908 Y151.146 E44.62577
G1 X135.711 Y151.454 E44.67976
G1 X135.598 Y151.608 E44.70797
G1 X135.288 Y151.965 E44.77779
G1 X134.921 Y152.264 E44.8477
G1 X134.614 Y152.446 E44.9004
G1 X134.42 Y152.545 E44.93256
G1 X133.974 Y152.726 E45.00364
G1 X133.919 Y152.743 E45.01215
G1 X133.552 Y152.83 E45.06784
G1 X124.766 Y154.294 E46.38321
G1 X124.431 Y154.329 E46.43295
G1 X123.848 Y154.355 E46.51913
G1 X123.5 Y154.349 E46.57053
G1 X123.45 Y154.345 E46.57793
G1 X123.093 Y154.293 E46.63121
G1 X122.564 Y154.181 E46.71106
G1 X122.312 Y154.116 E46.74949
G1 X122.267 Y154.102 E46.75645
G1 X121.857 Y153.937 E46.82172
G1 X121.366 Y153.694 E46.90262
G1 X121.068 Y153.523 E46.95336
G1 X121.027 Y153.496 E46.96061
G1 X120.757 Y153.294 E47.0104
G1 X120.345 Y152.945 E47.09014
G1 X120.095 Y152.706 E47.14122
G1 X120.06 Y152.668 E47.14885
G1 X119.843 Y152.4 E47.19977
G1 X119.524 Y151.954 E47.28075
G1 X119.348 Y151.674 E47.32958
G1 X119.326 Y151.634 E47.33633
G1 X119.17 Y151.303 E47.39036
G1 X118.973 Y150.798 E47.47041
G1 X118.877 Y150.501 E47.51651
G1 X118.865 Y150.456 E47.52338
G1 X118.79 Y150.07 E47.58145
G1 X118.72 Y149.49 E47.66773
G1 X118.7 Y149.155 E47.71728
G1 X118.7 Y85.846 E57.06644
G1 X118.72 Y85.508 E57.11644
G1 X118.79 Y84.932 E57.20213
G1 X118.861 Y84.563 E57.25762
G1 X118.873 Y84.517 E57.26464
G1 X118.973 Y84.209 E57.31246
G1 X119.173 Y83.695 E57.39391
G1 X119.329 Y83.361 E57.44835
G1 X119.351 Y83.321 E57.45509
G1 X119.528 Y83.039 E57.50426
G0 F6000 X120.178 Y83.505
G1 F1200 X120.494 Y83.064 E57.58438
G1 X120.684 Y82.836 E57.62821
G1 X120.862 Y82.665 E57.66466
G1 X121.275 Y82.315 E57.7446
G1 X121.486 Y82.159 E57.78335
G1 X121.724 Y82.021 E57.82398
G1 X122.214 Y81.779 E57.90468
G1 X122.518 Y81.659 E57.95295
G1 X122.731 Y81.602 E57.98551
G1 X123.259 Y81.49 E58.06522
G1 X123.515 Y81.452 E58.10344
G1 X123.813 Y81.444 E58.14746
G1 X124.395 Y81.47 E58.23349
G1 X124.635 Y81.495 E58.26913
G1 X133.427 Y82.961 E59.58541
G1 X133.769 Y83.05 E59.6376
G1 X133.842 Y83.076 E59.64904
G1 X134.227 Y83.261 E59.71212
G1 X134.441 Y83.394 E59.74933
G1 X134.757 Y83.638 E59.80828
G1 X135.019 Y83.94 E59.86733
G1 X135.241 Y84.317 E59.93194
G1 X135.397 Y84.685 E59.99096
G1 X135.477 Y85.076 E60.0499
G1 X135.487 Y85.306 E60.0839
G1 X135.481 Y85.746 E60.14888
G1 X135.431 Y86.162 E60.21075
G1 X135.411 Y86.25 E60.22408
G1 X135.271 Y86.657 E60.28764
G1 X135.124 Y86.97 E60.33871
G1 X134.867 Y87.38 E60.41016
G1 X134.811 Y87.449 E60.42329
G1 X134.533 Y87.73 E60.48166
G1 X134.267 Y87.95 E60.53264
G1 X133.895 Y88.194 E60.59833
G1 X133.812 Y88.236 E60.61207
G1 X133.4 Y88.39 E60.67702
G1 X133.076 Y88.472 E60.72638
G1 X132.73 Y88.528 E60.77814
G1 X132.661 Y88.533 E60.78836
G1 X132.331 Y88.529 E60.83709
G1 X131.912 Y88.481 E60.89937
G1 X125.1 Y87.172 E61.92374
G1 X125.1 Y147.829 E70.88126
G1 X131.933 Y146.515 E71.90881
G1 X132.206 Y146.481 E71.94944
G1 X132.392 Y146.476 E71.97692
G1 X132.745 Y146.483 E72.02906
G1 X133.19 Y146.543 E72.09537
G1 X133.274 Y146.564 E72.10815
G1 X133.701 Y146.724 E72.17549
G1 X134.017 Y146.886 E72.22793
G1 X134.385 Y147.13 E72.29314
G1 X134.451 Y147.185 E72.30583
G1 X134.755 Y147.5 E72.37047
G1 X134.97 Y147.779 E72.42249
G1 X135.202 Y148.162 E72.48862
G1 X135.238 Y148.24 E72.5013
G1 X135.379 Y148.665 E72.56743
G1 X135.456 Y149.03 E72.62252
G1 X135.498 Y149.387 E72.6756
G1 X135.5 Y149.458 E72.68609
G1 X135.474 Y149.841 E72.74278
G1 X135.427 Y150.125 E72.78529
G1 X135.323 Y150.51 E72.84418
G1 X135.066 Y150.981 E72.92342
G1 X134.953 Y151.135 E72.95162
G1 X134.686 Y151.432 E73.0106
G1 X134.25 Y151.733 E73.08884
G1 X134.056 Y151.832 E73.121
G1 X133.738 Y151.962 E73.17174
G1 X133.683 Y151.979 E73.18024
G1 X133.421 Y152.041 E73.22
G1 X124.635 Y153.505 E74.53536
G1 X124.395 Y153.53 E74.57099
G1 X123.812 Y153.556 E74.65717
G1 X123.514 Y153.548 E74.7012
G1 X123.259 Y153.511 E74.73925
G1 X122.73 Y153.399 E74.8191
G1 X122.505 Y153.338 E74.85353
G1 X122.212 Y153.22 E74.90017
G1 X121.721 Y152.977 E74.98107
G1 X121.467 Y152.828 E75.02456
G1 X121.274 Y152.684 E75.06012
G1 X120.862 Y152.335 E75.13986
G1 X120.649 Y152.126 E75.18393
G1 X120.493 Y151.935 E75.22034
G1 X120.174 Y151.489 E75.30132
G1 X120.027 Y151.249 E75.34288
G1 X119.916 Y151.012 E75.38153
G1 X119.719 Y150.507 E75.46158
G1 X119.638 Y150.25 E75.50137
G1 X119.584 Y149.975 E75.54276
G1 X119.514 Y149.395 E75.62903
G1 X119.5 Y149.155 E75.66453
G1 X119.5 Y85.846 E85.01369
G1 X119.515 Y85.605 E85.04935
G1 X119.585 Y85.029 E85.13504
G1 X119.635 Y84.765 E85.17471
G1 X119.718 Y84.499 E85.21586
G1 X119.918 Y83.985 E85.29731
G1 X120.03 Y83.746 E85.33629
G1 X120.178 Y83.505 E85.37805
G0 F6000 X120.829 Y83.971
G1 F1200 X121.145 Y83.53 E85.45817
G1 X121.379 Y83.276 E85.50917
G1 X121.792 Y82.926 E85.58912
G1 X122.079 Y82.738 E85.63978
G1 X122.569 Y82.496 E85.72049
G1 X122.897 Y82.384 E85.77167
G1 X123.425 Y82.272 E85.85138
G1 X123.778 Y82.243 E85.90369
G1 X124.36 Y82.269 E85.98972
G1 X124.503 Y82.284 E86.01095
G1 X133.295 Y83.75 E87.32724
G1 X133.574 Y83.83 E87.3701
G1 X133.804 Y83.941 E87.40781
G1 X134.018 Y84.074 E87.44502
G1 X134.258 Y84.269 E87.49069
G1 X134.437 Y84.516 E87.53573
G1 X134.539 Y84.702 E87.56706
G1 X134.652 Y84.99 E87.61275
G1 X134.687 Y85.295 E87.65808
G1 X134.681 Y85.735 E87.72307
G1 X134.651 Y85.985 E87.76025
G1 X134.631 Y86.073 E87.77358
G1 X134.547 Y86.317 E87.81168
G1 X134.4 Y86.63 E87.86275
G1 X134.246 Y86.876 E87.90561
G1 X134.023 Y87.114 E87.95377
G1 X133.757 Y87.334 E88.00475
G1 X133.534 Y87.48 E88.04411
G1 X133.451 Y87.522 E88.05785
G1 X133.203 Y87.614 E88.09691
G1 X132.879 Y87.696 E88.14627
G1 X132.603 Y87.735 E88.18743
G1 X132.179 Y87.712 E88.25013
G1 X132.063 Y87.695 E88.26745
G1 X124.84 Y86.307 E89.35362
G1 X124.601 Y86.308 E89.38891
G1 X124.388 Y86.448 E89.42656
G1 X124.317 Y86.6 E89.45133
G1 X124.3 Y86.758 E89.4748
G1 X124.3 Y148.247 E98.55519
G1 X124.346 Y148.485 E98.59098
G1 X124.519 Y148.662 E98.62753
G1 X124.687 Y148.705 E98.65314
G1 X124.862 Y148.69 E98.67908
G1 X132.084 Y147.301 E99.76513
G1 X132.376 Y147.276 E99.80841
G1 X132.729 Y147.283 E99.86055
G1 X132.996 Y147.319 E99.90034
G1 X133.08 Y147.34 E99.91313
G1 X133.336 Y147.436 E99.9535
G1 X133.652 Y147.598 E100.00594
G1 X133.873 Y147.744 E100.04506
G1 X133.939 Y147.799 E100.05774
G1 X134.122 Y147.989 E100.0967
G1 X134.337 Y148.268 E100.14872
G1 X134.476 Y148.497 E100.18828
G1 X134.512 Y148.575 E100.20096
G1 X134.596 Y148.83 E100.24061
G1 X134.673 Y149.195 E100.2957
G1 X134.701 Y149.48 E100.33799
G1 X134.685 Y149.71 E100.37203
G1 X134.638 Y149.994 E100.41454
G1 X134.549 Y150.29 E100.46019
G1 X134.421 Y150.508 E100.49752
G1 X134.308 Y150.662 E100.52573
G1 X134.095 Y150.886 E100.57138
G1 X133.692 Y151.12 E100.64019
G1 X133.446 Y151.214 E100.67908
G1 X133.289 Y151.252 E100.70294
G1 X124.503 Y152.716 E102.0183
G1 X124.359 Y152.731 E102.03968
G1 X123.776 Y152.757 E102.12586
G1 X123.424 Y152.728 E102.17802
G1 X122.895 Y152.616 E102.25787
G1 X122.567 Y152.503 E102.3091
G1 X122.076 Y152.26 E102.39
G1 X121.791 Y152.074 E102.44026
G1 X121.379 Y151.725 E102.52
G1 X121.144 Y151.469 E102.57132
G1 X120.825 Y151.023 E102.65229
G1 X120.661 Y150.721 E102.70304
G1 X120.464 Y150.216 E102.78309
G1 X120.379 Y149.879 E102.83442
G1 X120.309 Y149.299 E102.92069
G1 X120.3 Y149.155 E102.942
G1 X120.3 Y85.846 E112.29115
G1 X120.309 Y85.701 E112.31261
G1 X120.379 Y85.125 E112.39829
G1 X120.464 Y84.789 E112.44947
G1 X120.664 Y84.275 E112.53092
G1 X120.829 Y83.971 E112.582
G0 F6000 X121.479 Y84.437
G1 F1200 X121.795 Y83.996 E112.66212
G1 X121.896 Y83.886 E112.68417
G1 X122.309 Y83.536 E112.76412
G1 X122.433 Y83.455 E112.78599
G1 X122.923 Y83.213 E112.8667
G1 X123.063 Y83.167 E112.88846
G1 X123.591 Y83.055 E112.96817
G1 X123.742 Y83.042 E112.99055
G1 X124.324 Y83.068 E113.07658
G1 X124.372 Y83.073 E113.08371
G1 X133.164 Y84.539 E114.39999
G1 X133.382 Y84.62 E114.43433
G1 X133.596 Y84.753 E114.47154
G1 X133.736 Y84.901 E114.50163
G1 X133.838 Y85.087 E114.53295
G1 X133.887 Y85.284 E114.56293
G1 X133.881 Y85.724 E114.62792
G1 X133.823 Y85.977 E114.66625
G1 X133.676 Y86.29 E114.71731
G1 X133.513 Y86.497 E114.75622
G1 X133.247 Y86.717 E114.8072
G1 X133.007 Y86.839 E114.84696
G1 X132.683 Y86.921 E114.89631
G1 X132.253 Y86.915 E114.95982
G1 X132.214 Y86.91 E114.96562
G1 X124.947 Y85.513 E116.05843
G1 X124.662 Y85.49 E116.10065
G1 X124.4 Y85.528 E116.13975
G1 X124.162 Y85.618 E116.17732
G1 X123.933 Y85.767 E116.21767
G1 X123.752 Y85.954 E116.2561
G1 X123.618 Y86.173 E116.29402
G1 X123.532 Y86.42 E116.33264
G1 X123.5 Y86.717 E116.37675
G1 X123.5 Y148.283 E125.46851
G1 X123.531 Y148.575 E125.51187
G1 X123.619 Y148.829 E125.55157
G1 X123.75 Y149.044 E125.58875
G1 X123.935 Y149.236 E125.62812
G1 X124.158 Y149.381 E125.66741
G1 X124.401 Y149.472 E125.70572
G1 X124.662 Y149.509 E125.74465
G1 X124.967 Y149.484 E125.78985
G1 X132.235 Y148.086 E126.88282
G1 X132.36 Y148.076 E126.90134
G1 X132.713 Y148.083 E126.95348
G1 X132.971 Y148.148 E126.99277
G1 X133.287 Y148.31 E127.04521
G1 X133.488 Y148.477 E127.0838
G1 X133.703 Y148.756 E127.13582
G1 X133.813 Y148.995 E127.17467
G1 X133.89 Y149.36 E127.22976
G1 X133.896 Y149.579 E127.26211
G1 X133.849 Y149.863 E127.30462
G1 X133.663 Y150.189 E127.36005
G1 X133.329 Y150.407 E127.41895
G1 X133.158 Y150.463 E127.44552
G1 X124.372 Y151.927 E128.76088
G1 X124.324 Y151.932 E128.76801
