;FLAVOR:Marlin
;TIME:818
;Filament used: 0.361409m
;Layer height: 0.16
;MINX:90.512
;MINY:99.263
;MINZ:0.2
;MAXX:144.481
;MAXY:135.737
;MAXZ:8.6
;Generated with Cura_SteamEngine 4.8.0
M140 S50
M105
M190 S50
M104 S200
M105
M109 S200
M82 ;absolute extrusion mode
; Ender 3 Custom Start G-code
G92 E0 ; Reset Extruder
G28 ; Home all axes
G1 Z2.0 F3000 ; Move Z Axis up little to prevent scratching of Heat Bed
G1 X0.1 Y20 Z0.3 F5000.0 ; Move to start position
G1 X0.1 Y200.0 Z0.3 F1500.0 E15 ; Draw the first line
G1 X0.4 Y200.0 Z0.3 F5000.0 ; Move to side a little
G1 X0.4 Y20 Z0.3 F1500.0 E30 ; Draw the second line
G92 E0 ; Reset Extruder
G1 Z2.0 F3000 ; Move Z Axis up little to prevent scratching of Heat Bed
G1 X5 Y20 Z0.3 F5000.0 ; Move over to prevent blob squish
G92 E0
G92 E0
G1 F2700 E-5
;LAYER_COUNT:46
;LAYER:0
M107
G0 F6000 X96.4 Y104.453 Z0.2
;TYPE:SKIRT
G1 F2700 E0
G1 F1200 X97.237 Y103.737 E0.03663
G1 X97.774 Y103.322 E0.05921
G1 X98.644 Y102.714 E0.09451
G1 X99.226 Y102.348 E0.11738
G1 X100.176 Y101.815 E0.15361
G1 X100.784 Y101.512 E0.1762
G1 X101.751 Y101.086 E0.21135
G1 X102.455 Y100.816 E0.23642
G1 X102.915 Y100.651 E0.25268
G1 X103.002 Y100.622 E0.25573
G1 X103.504 Y100.468 E0.27319
G1 X103.721 Y100.407 E0.28069
G1 X104.185 Y100.288 E0.29662
G1 X104.462 Y100.223 E0.30609
G1 X105.143 Y100.086 E0.32919
G1 X105.824 Y99.971 E0.35216
G1 X106.879 Y99.844 E0.3875
G1 X107.656 Y99.789 E0.41341
G1 X108.189 Y99.765 E0.43116
G1 X108.279 Y99.763 E0.43415
G1 X108.736 Y99.762 E0.44935
G1 X108.994 Y99.767 E0.45793
G1 X109.296 Y99.777 E0.46798
G1 X111.477 Y99.879 E0.5406
G1 X114.009 Y99.929 E0.62483
G1 X116.53 Y99.908 E0.70869
G1 X119.06 Y99.815 E0.79289
G1 X121.559 Y99.653 E0.87618
G1 X124.163 Y99.409 E0.96317
G1 X124.636 Y99.358 E0.979
G1 X124.927 Y99.331 E0.98872
G1 X125.149 Y99.313 E0.99612
G1 X125.652 Y99.284 E1.01288
G1 X126.108 Y99.268 E1.02806
G1 X126.677 Y99.263 E1.04698
G1 X126.917 Y99.267 E1.05497
G1 X127.457 Y99.289 E1.07294
G1 X127.897 Y99.318 E1.08761
G1 X128.527 Y99.378 E1.10866
G1 X128.769 Y99.408 E1.11677
G1 X129.236 Y99.476 E1.13246
G1 X129.695 Y99.553 E1.14794
G1 X130.217 Y99.653 E1.16562
G1 X130.396 Y99.692 E1.17171
G1 X130.998 Y99.841 E1.19234
G1 X131.484 Y99.976 E1.20912
G1 X132.019 Y100.139 E1.22772
G1 X132.202 Y100.2 E1.23413
G1 X132.727 Y100.391 E1.25272
G1 X133.208 Y100.579 E1.26989
G1 X133.742 Y100.804 E1.28917
G1 X133.901 Y100.876 E1.29497
G1 X134.359 Y101.096 E1.31187
G1 X134.82 Y101.331 E1.32908
G1 X135.401 Y101.65 E1.35113
G1 X135.571 Y101.75 E1.35769
G1 X135.923 Y101.965 E1.3714
G1 X136.184 Y102.132 E1.38171
G1 X136.772 Y102.536 E1.40544
G1 X137.335 Y102.95 E1.42868
G1 X138.183 Y103.641 E1.46506
G1 X138.751 Y104.153 E1.4905
G1 X139.13 Y104.511 E1.50784
G1 X139.496 Y104.888 E1.52531
G1 X139.651 Y105.055 E1.53289
G1 X139.997 Y105.445 E1.55023
G1 X140.256 Y105.752 E1.56359
G1 X140.668 Y106.271 E1.58563
G1 X141.031 Y106.758 E1.60583
G1 X141.619 Y107.631 E1.64084
G1 X142.005 Y108.268 E1.66562
G1 X142.515 Y109.212 E1.7013
G1 X142.821 Y109.85 E1.72484
G1 X143.223 Y110.798 E1.75909
G1 X143.457 Y111.432 E1.78156
G1 X143.775 Y112.443 E1.81681
G1 X143.967 Y113.173 E1.84192
G1 X144.193 Y114.245 E1.87836
G1 X144.305 Y114.95 E1.9021
G1 X144.418 Y115.972 E1.9363
G1 X144.462 Y116.658 E1.95916
G1 X144.481 Y117.669 E1.99279
G1 X144.461 Y118.385 E2.01662
G1 X144.377 Y119.468 E2.05275
G1 X144.285 Y120.19 E2.07695
G1 X144.111 Y121.188 E2.11065
G1 X143.974 Y121.804 E2.13164
G1 X143.709 Y122.781 E2.16531
G1 X143.468 Y123.531 E2.19151
G1 X143.083 Y124.551 E2.22777
G1 X142.83 Y125.133 E2.24888
G1 X142.37 Y126.069 E2.28357
G1 X141.987 Y126.762 E2.3099
G1 X141.418 Y127.68 E2.34582
G1 X141.064 Y128.194 E2.36658
G1 X140.423 Y129.036 E2.40178
G1 X139.925 Y129.628 E2.42751
G1 X139.683 Y129.906 E2.43977
G1 X139.593 Y130.006 E2.44424
G1 X139.14 Y130.48 E2.46605
G1 X138.997 Y130.621 E2.47273
G1 X138.637 Y130.96 E2.48917
G1 X138.425 Y131.151 E2.49867
G1 X137.945 Y131.559 E2.51962
G1 X137.399 Y131.997 E2.5429
G1 X136.526 Y132.63 E2.57877
G1 X135.85 Y133.071 E2.60561
G1 X135.372 Y133.366 E2.62429
G1 X134.925 Y133.615 E2.64131
G1 X134.732 Y133.717 E2.64857
G1 X134.286 Y133.94 E2.66516
G1 X133.877 Y134.133 E2.6802
G1 X133.364 Y134.36 E2.69886
G1 X133.162 Y134.443 E2.70612
G1 X132.647 Y134.639 E2.72445
G1 X132.183 Y134.803 E2.74082
G1 X131.612 Y134.988 E2.76078
G1 X131.421 Y135.044 E2.7674
G1 X130.929 Y135.175 E2.78433
G1 X130.461 Y135.289 E2.80035
G1 X129.888 Y135.413 E2.81985
G1 X129.691 Y135.45 E2.82652
G1 X129.135 Y135.54 E2.84525
G1 X128.647 Y135.606 E2.86163
G1 X128.079 Y135.668 E2.88064
G1 X127.849 Y135.687 E2.88831
G1 X127.321 Y135.717 E2.9059
G1 X126.885 Y135.732 E2.92041
G1 X126.324 Y135.737 E2.93907
G1 X126.083 Y135.733 E2.94709
G1 X125.548 Y135.712 E2.9649
G1 X123.982 Y135.608 E3.0171
G1 X123.183 Y135.545 E3.04375
G1 X120.663 Y135.418 E3.12768
G1 X118.175 Y135.364 E3.21045
G1 X115.617 Y135.38 E3.29553
G1 X113.137 Y135.466 E3.37806
G1 X111.119 Y135.586 E3.4453
G1 X109.356 Y135.71 E3.50408
G1 X108.586 Y135.737 E3.52971
G1 X108.295 Y135.737 E3.53939
G1 X107.585 Y135.714 E3.56301
G1 X107.276 Y135.694 E3.57331
G1 X106.59 Y135.628 E3.59623
G1 X105.879 Y135.537 E3.62008
G1 X104.838 Y135.353 E3.65524
G1 X104.125 Y135.191 E3.67956
G1 X103.343 Y134.982 E3.70648
G1 X103.062 Y134.896 E3.71625
G1 X102.446 Y134.688 E3.73788
G1 X102.153 Y134.579 E3.74827
G1 X101.487 Y134.306 E3.77221
G1 X100.827 Y134.01 E3.79627
G1 X99.869 Y133.523 E3.83202
G1 X99.29 Y133.192 E3.8542
G1 X98.373 Y132.606 E3.89039
G1 X97.805 Y132.202 E3.91358
G1 X96.958 Y131.534 E3.94946
G1 X96.448 Y131.09 E3.97195
G1 X95.683 Y130.357 E4.00718
G1 X95.203 Y129.85 E4.03041
G1 X94.489 Y129.016 E4.06692
G1 X94.073 Y128.478 E4.08954
G1 X93.459 Y127.598 E4.12523
G1 X93.093 Y127.015 E4.14812
G1 X92.564 Y126.072 E4.18409
G1 X92.261 Y125.464 E4.20668
G1 X91.833 Y124.491 E4.24204
G1 X91.56 Y123.778 E4.26743
G1 X91.397 Y123.324 E4.28347
G1 X91.372 Y123.249 E4.2861
G1 X91.218 Y122.747 E4.30357
G1 X91.157 Y122.53 E4.31106
G1 X91.036 Y122.057 E4.3273
G1 X90.971 Y121.779 E4.3368
G1 X90.836 Y121.107 E4.3596
G1 X90.721 Y120.426 E4.38257
G1 X90.594 Y119.371 E4.41791
G1 X90.539 Y118.594 E4.44382
G1 X90.512 Y117.777 E4.47101
G1 X90.513 Y117.505 E4.48005
G1 X90.536 Y116.837 E4.50228
G1 X90.556 Y116.527 E4.51262
G1 X90.622 Y115.837 E4.53567
G1 X90.713 Y115.127 E4.55948
G1 X90.897 Y114.088 E4.59457
G1 X91.059 Y113.375 E4.61889
G1 X91.268 Y112.593 E4.64581
G1 X91.354 Y112.312 E4.65559
G1 X91.562 Y111.696 E4.67721
G1 X91.671 Y111.403 E4.68761
G1 X91.944 Y110.738 E4.71152
G1 X92.239 Y110.08 E4.7355
G1 X92.725 Y109.122 E4.77123
G1 X93.057 Y108.541 E4.79349
G1 X93.642 Y107.626 E4.82961
G1 X94.045 Y107.059 E4.85275
G1 X94.716 Y106.208 E4.88879
G1 X95.161 Y105.697 E4.91133
G1 X95.893 Y104.933 E4.94652
G1 X96.4 Y104.453 E4.96974
G0 F6000 X96.675 Y104.744
G1 F1200 X97.481 Y104.054 E5.00503
G1 X98.018 Y103.639 E5.0276
G1 X98.857 Y103.053 E5.06164
G1 X99.439 Y102.687 E5.08451
G1 X100.354 Y102.173 E5.11941
G1 X100.962 Y101.87 E5.14201
G1 X101.894 Y101.46 E5.17587
G1 X102.598 Y101.19 E5.20095
G1 X103.042 Y101.031 E5.21664
G1 X103.129 Y101.002 E5.21969
G1 X103.612 Y100.854 E5.23649
G1 X103.829 Y100.793 E5.24399
G1 X104.276 Y100.677 E5.25935
G1 X104.553 Y100.612 E5.26881
G1 X105.21 Y100.48 E5.2911
G1 X105.891 Y100.365 E5.31407
G1 X106.908 Y100.243 E5.34814
G1 X107.685 Y100.188 E5.37405
G1 X108.198 Y100.165 E5.39113
G1 X108.288 Y100.163 E5.39412
G1 X108.728 Y100.162 E5.40875
G1 X108.986 Y100.167 E5.41734
G1 X109.278 Y100.177 E5.42705
G1 X111.487 Y100.279 E5.5006
G1 X114.004 Y100.329 E5.58434
G1 X116.547 Y100.308 E5.66892
G1 X119.066 Y100.215 E5.75276
G1 X121.586 Y100.052 E5.83675
G1 X124.246 Y99.803 E5.92561
G1 X124.679 Y99.756 E5.9401
G1 X124.959 Y99.73 E5.94945
G1 X125.181 Y99.712 E5.95686
G1 X125.666 Y99.684 E5.97301
G1 X126.122 Y99.668 E5.98819
G1 X126.671 Y99.662 E6.00645
G1 X126.911 Y99.666 E6.01443
G1 X127.431 Y99.688 E6.03175
G1 X127.871 Y99.717 E6.04641
G1 X128.478 Y99.775 E6.06669
G1 X128.72 Y99.805 E6.0748
G1 X129.17 Y99.87 E6.08993
G1 X129.629 Y99.947 E6.10541
G1 X130.132 Y100.044 E6.12244
G1 X130.311 Y100.083 E6.12854
G1 X130.891 Y100.227 E6.14841
G1 X131.377 Y100.362 E6.16519
G1 X131.892 Y100.519 E6.1831
G1 X132.075 Y100.58 E6.18951
G1 X132.582 Y100.763 E6.20744
G1 X133.063 Y100.951 E6.22462
G1 X133.577 Y101.168 E6.24317
G1 X133.736 Y101.24 E6.24898
G1 X134.177 Y101.452 E6.26525
G1 X134.638 Y101.687 E6.28246
G1 X135.198 Y101.994 E6.3037
G1 X135.368 Y102.094 E6.31026
G1 X135.707 Y102.302 E6.32349
G1 X135.968 Y102.469 E6.3338
G1 X136.535 Y102.858 E6.35667
G1 X137.098 Y103.272 E6.37991
G1 X137.915 Y103.939 E6.41499
G1 X138.483 Y104.451 E6.44043
G1 X138.85 Y104.797 E6.4572
G1 X139.203 Y105.16 E6.47404
G1 X139.358 Y105.327 E6.48162
G1 X139.691 Y105.703 E6.49833
G1 X139.95 Y106.01 E6.51168
G1 X140.347 Y106.51 E6.53292
G1 X140.71 Y106.997 E6.55312
G1 X141.276 Y107.839 E6.58687
G1 X141.662 Y108.476 E6.61164
G1 X142.155 Y109.385 E6.64603
G1 X142.461 Y110.023 E6.66957
G1 X142.847 Y110.937 E6.70257
G1 X143.081 Y111.571 E6.72504
G1 X143.388 Y112.545 E6.75901
G1 X143.58 Y113.275 E6.78412
G1 X143.798 Y114.308 E6.81923
G1 X143.91 Y115.013 E6.84297
G1 X144.019 Y115.998 E6.87593
G1 X144.063 Y116.684 E6.8988
G1 X144.081 Y117.658 E6.9312
G1 X144.061 Y118.374 E6.95502
G1 X143.98 Y119.418 E6.98985
G1 X143.888 Y120.14 E7.01406
G1 X143.72 Y121.101 E7.04651
G1 X143.583 Y121.717 E7.06749
G1 X143.328 Y122.659 E7.09995
G1 X143.087 Y123.409 E7.12615
G1 X142.716 Y124.392 E7.1611
G1 X142.463 Y124.974 E7.18221
G1 X142.019 Y125.875 E7.21562
G1 X141.636 Y126.568 E7.24195
G1 X141.089 Y127.453 E7.27656
G1 X140.735 Y127.967 E7.29731
G1 X140.117 Y128.779 E7.33125
G1 X139.619 Y129.371 E7.35698
G1 X139.386 Y129.638 E7.36877
G1 X139.296 Y129.738 E7.37324
G1 X138.859 Y130.195 E7.39427
G1 X138.716 Y130.336 E7.40095
G1 X138.369 Y130.663 E7.41681
G1 X138.157 Y130.854 E7.4263
G1 X137.695 Y131.247 E7.44648
G1 X137.149 Y131.685 E7.46976
G1 X136.308 Y132.295 E7.50431
G1 X135.632 Y132.736 E7.53116
G1 X135.171 Y133.02 E7.54917
G1 X134.738 Y133.262 E7.56567
G1 X134.545 Y133.364 E7.57293
G1 X134.116 Y133.578 E7.58887
G1 X133.707 Y133.771 E7.60391
G1 X133.212 Y133.99 E7.62192
G1 X133.01 Y134.073 E7.62918
G1 X132.513 Y134.262 E7.64687
G1 X132.049 Y134.426 E7.66323
G1 X131.499 Y134.604 E7.68246
G1 X131.308 Y134.66 E7.68908
G1 X130.835 Y134.787 E7.70537
G1 X130.367 Y134.901 E7.72139
G1 X129.815 Y135.02 E7.74017
G1 X129.618 Y135.057 E7.74684
G1 X129.082 Y135.143 E7.76489
G1 X128.594 Y135.209 E7.78127
G1 X128.046 Y135.269 E7.79961
G1 X127.816 Y135.288 E7.80729
G1 X127.307 Y135.318 E7.82424
G1 X126.871 Y135.333 E7.83875
G1 X126.331 Y135.338 E7.85672
G1 X126.09 Y135.334 E7.86473
G1 X125.574 Y135.312 E7.88191
G1 X124.013 Y135.209 E7.93394
G1 X123.233 Y135.148 E7.95996
G1 X120.656 Y135.018 E8.04578
G1 X118.181 Y134.964 E8.12812
G1 X115.635 Y134.98 E8.2128
G1 X113.059 Y135.069 E8.29853
G1 X111.163 Y135.182 E8.36171
G1 X109.328 Y135.311 E8.42289
G1 X108.586 Y135.337 E8.44758
G1 X108.295 Y135.337 E8.45726
G1 X107.61 Y135.315 E8.48006
G1 X107.301 Y135.295 E8.49036
G1 X106.64 Y135.231 E8.51244
G1 X105.929 Y135.14 E8.53629
G1 X104.926 Y134.963 E8.57016
G1 X104.213 Y134.801 E8.59448
G1 X103.46 Y134.6 E8.6204
G1 X103.179 Y134.514 E8.63018
G1 X102.585 Y134.313 E8.65103
G1 X102.292 Y134.204 E8.66143
G1 X101.65 Y133.941 E8.68451
G1 X100.99 Y133.645 E8.70856
G1 X100.067 Y133.175 E8.74301
G1 X99.488 Y132.844 E8.7652
G1 X98.605 Y132.28 E8.80004
G1 X98.037 Y131.876 E8.82323
G1 X97.221 Y131.233 E8.85778
G1 X96.711 Y130.789 E8.88027
G1 X95.974 Y130.082 E8.91424
G1 X95.494 Y129.575 E8.93746
G1 X94.805 Y128.771 E8.97268
G1 X94.389 Y128.233 E8.9953
G1 X93.797 Y127.385 E9.02969
G1 X93.431 Y126.802 E9.05259
G1 X92.922 Y125.894 E9.08721
G1 X92.619 Y125.286 E9.10981
G1 X92.207 Y124.348 E9.14388
G1 X91.934 Y123.635 E9.16927
G1 X91.777 Y123.197 E9.18475
G1 X91.752 Y123.122 E9.18738
G1 X91.604 Y122.639 E9.20418
G1 X91.543 Y122.422 E9.21168
G1 X91.425 Y121.966 E9.22734
G1 X91.36 Y121.688 E9.23684
G1 X91.23 Y121.04 E9.25882
G1 X91.115 Y120.359 E9.28179
G1 X90.993 Y119.342 E9.31586
G1 X90.938 Y118.565 E9.34177
G1 X90.912 Y117.778 E9.36796
G1 X90.913 Y117.506 E9.37701
G1 X90.935 Y116.863 E9.3984
G1 X90.955 Y116.553 E9.40874
G1 X91.019 Y115.887 E9.43099
G1 X91.11 Y115.177 E9.4548
G1 X91.287 Y114.176 E9.48861
G1 X91.449 Y113.463 E9.51293
G1 X91.65 Y112.71 E9.53885
G1 X91.736 Y112.429 E9.54862
G1 X91.937 Y111.835 E9.56948
G1 X92.046 Y111.542 E9.57988
G1 X92.309 Y110.902 E9.60289
G1 X92.604 Y110.244 E9.62687
G1 X93.073 Y109.321 E9.66131
G1 X93.405 Y108.74 E9.68357
G1 X93.968 Y107.858 E9.71837
G1 X94.371 Y107.291 E9.7415
G1 X95.017 Y106.471 E9.77623
G1 X95.462 Y105.96 E9.79876
G1 X96.168 Y105.224 E9.83268
G1 X96.675 Y104.744 E9.8559
G0 F6000 X96.95 Y105.034
G1 F1200 X97.726 Y104.37 E9.88987
G1 X98.263 Y103.955 E9.91245
G1 X99.07 Y103.391 E9.94519
G1 X99.652 Y103.025 E9.96806
G1 X100.532 Y102.531 E10.00162
G1 X101.14 Y102.228 E10.02422
G1 X102.037 Y101.833 E10.05682
G1 X102.741 Y101.563 E10.0819
G1 X103.168 Y101.41 E10.09698
G1 X103.255 Y101.381 E10.10003
G1 X103.721 Y101.239 E10.11624
G1 X103.938 Y101.178 E10.12373
G1 X104.368 Y101.067 E10.1385
G1 X104.645 Y101.002 E10.14797
G1 X105.277 Y100.874 E10.16941
G1 X105.958 Y100.759 E10.19238
G1 X106.936 Y100.642 E10.22514
G1 X107.713 Y100.587 E10.25105
G1 X108.206 Y100.565 E10.26747
G1 X108.296 Y100.563 E10.27046
G1 X108.721 Y100.562 E10.2846
G1 X108.979 Y100.567 E10.29318
G1 X109.259 Y100.576 E10.3025
G1 X111.46 Y100.679 E10.37578
G1 X113.999 Y100.729 E10.46025
G1 X116.565 Y100.708 E10.54559
G1 X119.071 Y100.616 E10.629
G1 X121.651 Y100.449 E10.71499
G1 X124.252 Y100.205 E10.80188
G1 X124.722 Y100.154 E10.8176
G1 X124.992 Y100.128 E10.82663
G1 X125.214 Y100.11 E10.83403
G1 X125.68 Y100.083 E10.84956
G1 X126.136 Y100.067 E10.86474
G1 X126.664 Y100.062 E10.8823
G1 X126.904 Y100.066 E10.89028
G1 X127.405 Y100.087 E10.90696
G1 X127.845 Y100.116 E10.92163
G1 X128.429 Y100.171 E10.94114
G1 X128.671 Y100.201 E10.94925
G1 X129.104 Y100.265 E10.9638
G1 X129.563 Y100.342 E10.97928
G1 X130.046 Y100.435 E10.99564
G1 X130.225 Y100.474 E11.00174
G1 X130.784 Y100.612 E11.02089
G1 X131.27 Y100.747 E11.03766
G1 X131.766 Y100.898 E11.05491
G1 X131.949 Y100.959 E11.06132
G1 X132.436 Y101.136 E11.07856
G1 X132.917 Y101.324 E11.09573
G1 X133.412 Y101.532 E11.11359
G1 X133.571 Y101.604 E11.1194
G1 X133.995 Y101.809 E11.13506
G1 X134.456 Y102.044 E11.15227
G1 X134.996 Y102.339 E11.17274
G1 X135.166 Y102.439 E11.1793
G1 X135.491 Y102.639 E11.19199
G1 X135.752 Y102.806 E11.2023
G1 X136.298 Y103.181 E11.22433
G1 X136.861 Y103.595 E11.24757
G1 X137.647 Y104.236 E11.2813
G1 X138.215 Y104.748 E11.30674
G1 X138.57 Y105.083 E11.32297
G1 X138.91 Y105.432 E11.33918
G1 X139.065 Y105.599 E11.34676
G1 X139.385 Y105.961 E11.36283
G1 X139.644 Y106.268 E11.37619
G1 X140.026 Y106.749 E11.39662
G1 X140.389 Y107.236 E11.41682
G1 X140.934 Y108.046 E11.44929
G1 X141.32 Y108.683 E11.47406
G1 X141.794 Y109.558 E11.50716
G1 X142.1 Y110.196 E11.53069
G1 X142.472 Y111.075 E11.56244
G1 X142.706 Y111.709 E11.58492
G1 X143.002 Y112.646 E11.6176
G1 X143.194 Y113.376 E11.64271
G1 X143.403 Y114.371 E11.67652
G1 X143.515 Y115.076 E11.70027
G1 X143.62 Y116.023 E11.73196
G1 X143.664 Y116.709 E11.75482
G1 X143.681 Y117.647 E11.78602
G1 X143.661 Y118.363 E11.80985
G1 X143.583 Y119.367 E11.84334
G1 X143.491 Y120.089 E11.86755
G1 X143.33 Y121.014 E11.89878
G1 X143.193 Y121.63 E11.91976
G1 X142.947 Y122.536 E11.95099
G1 X142.706 Y123.286 E11.97719
G1 X142.349 Y124.232 E12.01082
G1 X142.096 Y124.814 E12.03193
G1 X141.669 Y125.682 E12.0641
G1 X141.286 Y126.375 E12.09044
G1 X140.759 Y127.227 E12.12376
G1 X140.405 Y127.741 E12.14452
G1 X139.811 Y128.521 E12.17712
G1 X139.313 Y129.113 E12.20285
G1 X139.089 Y129.37 E12.21419
G1 X138.999 Y129.47 E12.21867
G1 X138.579 Y129.91 E12.2389
G1 X138.436 Y130.051 E12.24558
G1 X138.101 Y130.366 E12.26087
G1 X137.889 Y130.557 E12.27036
G1 X137.445 Y130.935 E12.28976
G1 X136.899 Y131.373 E12.31304
G1 X136.089 Y131.96 E12.34631
