;FLAVOR:Marlin
;TIME:7691
;Filament used: 31.5262m
;Layer height: 0.4
;MINX:22.226
;MINY:27.226
;MINZ:0.4
;MAXX:212.774
;MAXY:207.774
;MAXZ:4
;Generated with Cura_SteamEngine 4.9.0
M140 S100
M105
M190 S100
M104 S240
M105
M109 S240
M82 ;absolute extrusion mode
; Ender 3 Custom Start G-code
G92 E0 ; Reset Extruder
G28 ; Home all axes
G1 Z2.0 F3000 ; Move Z Axis up little to prevent scratching of Heat Bed
G1 X0.1 Y20 Z0.3 F5000.0 ; Move to start position
G1 X0.1 Y200.0 Z0.3 F1500.0 E15 ; Draw the first line
G1 X0.4 Y200.0 Z0.3 F5000.0 ; Move to side a little
G1 X0.4 Y20 Z0.3 F1500.0 E30 ; Draw the second line
G92 E0 ; Reset Extruder
G1 Z2.0 F3000 ; Move Z Axis up little to prevent scratching of Heat Bed
G1 X5 Y20 Z0.3 F5000.0 ; Move over to prevent blob squish
G92 E0
G92 E0
G1 F2700 E-5
;LAYER_COUNT:10
;LAYER:0
M107
G0 F6000 X24.608 Y28.847 Z0.4
;TYPE:SKIRT
G1 F2700 E0
G1 F1200 X24.902 Y28.611 E0.05567
G1 X25.184 Y28.408 E0.10699
G1 X25.533 Y28.186 E0.16807
G1 X25.886 Y27.989 E0.22777
G1 X26.233 Y27.819 E0.28483
G1 X26.511 Y27.701 E0.32943
G1 X26.89 Y27.565 E0.38889
G1 X27.202 Y27.472 E0.43697
G1 X27.512 Y27.394 E0.48417
G1 X27.807 Y27.334 E0.52863
G1 X28.024 Y27.297 E0.56114
G1 X28.281 Y27.268 E0.59933
G1 X28.692 Y27.237 E0.6602
G1 X28.963 Y27.227 E0.70025
G1 X206.002 Y27.226 E26.84448
G1 X206.199 Y27.231 E26.87358
G1 X206.527 Y27.249 E26.92209
G1 X206.863 Y27.284 E26.97198
G1 X207.17 Y27.33 E27.01782
G1 X207.545 Y27.406 E27.07432
G1 X207.848 Y27.485 E27.12057
G1 X208.158 Y27.581 E27.16849
G1 X208.425 Y27.677 E27.21039
G1 X208.723 Y27.8 E27.258
G1 X209.016 Y27.936 E27.3057
G1 X209.357 Y28.117 E27.36271
G1 X209.621 Y28.276 E27.40822
G1 X209.933 Y28.487 E27.46385
G1 X210.186 Y28.678 E27.51066
G1 X210.469 Y28.915 E27.56517
G1 X210.742 Y29.169 E27.62024
G1 X211.032 Y29.472 E27.68217
G1 X211.289 Y29.774 E27.74073
G1 X211.544 Y30.113 E27.80338
G1 X211.719 Y30.376 E27.85003
G1 X211.886 Y30.652 E27.89767
G1 X212.025 Y30.908 E27.94069
G1 X212.206 Y31.295 E28.00378
G1 X212.366 Y31.697 E28.06767
G1 X212.503 Y32.113 E28.13235
G1 X212.596 Y32.467 E28.1864
G1 X212.685 Y32.927 E28.25559
G1 X212.737 Y33.335 E28.31633
G1 X212.763 Y33.647 E28.36257
G1 X212.773 Y33.966 E28.4097
G1 X212.774 Y201.006 E53.07733
G1 X212.768 Y201.211 E53.10762
G1 X212.75 Y201.527 E53.15436
G1 X212.722 Y201.815 E53.19709
G1 X212.684 Y202.09 E53.23808
G1 X212.606 Y202.487 E53.29783
G1 X212.519 Y202.828 E53.3498
G1 X212.42 Y203.152 E53.39983
G1 X212.324 Y203.42 E53.44187
G1 X212.199 Y203.724 E53.49041
G1 X212.072 Y203.997 E53.53488
G1 X211.908 Y204.309 E53.58693
G1 X211.751 Y204.575 E53.63254
G1 X211.554 Y204.873 E53.6853
G1 X211.37 Y205.124 E53.73125
G1 X211.14 Y205.407 E53.78511
G1 X210.91 Y205.662 E53.83582
G1 X210.645 Y205.927 E53.89116
G1 X210.406 Y206.142 E53.93864
G1 X210.122 Y206.372 E53.99261
G1 X209.873 Y206.554 E54.03815
G1 X209.593 Y206.74 E54.08779
G1 X209.328 Y206.898 E54.13335
G1 X208.993 Y207.074 E54.18924
G1 X208.705 Y207.207 E54.23608
G1 X208.32 Y207.359 E54.29721
G1 X207.903 Y207.496 E54.36203
G1 X207.498 Y207.603 E54.42389
G1 X207.189 Y207.666 E54.47046
G1 X206.752 Y207.728 E54.53564
G1 X206.32 Y207.762 E54.59963
G1 X206.038 Y207.773 E54.64131
G1 X28.994 Y207.774 E80.78628
G1 X28.789 Y207.768 E80.81657
G1 X28.473 Y207.75 E80.86331
G1 X28.184 Y207.722 E80.90619
G1 X27.888 Y207.681 E80.95032
G1 X27.479 Y207.6 E81.01189
G1 X27.155 Y207.516 E81.06132
G1 X26.832 Y207.416 E81.11125
G1 X26.556 Y207.316 E81.1546
G1 X26.261 Y207.194 E81.20174
G1 X25.995 Y207.07 E81.24508
G1 X25.674 Y206.9 E81.29872
G1 X25.407 Y206.741 E81.34461
G1 X25.099 Y206.536 E81.39925
G1 X24.829 Y206.335 E81.44896
G1 X24.56 Y206.113 E81.50047
G1 X24.333 Y205.907 E81.54573
G1 X24.08 Y205.653 E81.59868
G1 X23.876 Y205.427 E81.64364
G1 X23.651 Y205.153 E81.69599
G1 X23.451 Y204.882 E81.74573
G1 X23.248 Y204.574 E81.80021
G1 X23.091 Y204.308 E81.84582
G1 X22.926 Y203.995 E81.89807
G1 X22.794 Y203.711 E81.94432
G1 X22.658 Y203.373 E81.99812
G1 X22.563 Y203.099 E82.04095
G1 X22.477 Y202.815 E82.08477
G1 X22.399 Y202.511 E82.13112
G1 X22.315 Y202.071 E82.19727
G1 X22.263 Y201.663 E82.258
G1 X22.237 Y201.353 E82.30394
G1 X22.227 Y201.034 E82.35108
G1 X22.226 Y33.994 E107.01871
G1 X22.232 Y33.793 E107.0484
G1 X22.25 Y33.471 E107.09603
G1 X22.281 Y33.154 E107.14307
G1 X22.323 Y32.865 E107.18619
G1 X22.401 Y32.482 E107.24391
G1 X22.484 Y32.161 E107.29288
G1 X22.584 Y31.837 E107.34295
G1 X22.69 Y31.544 E107.38896
G1 X22.815 Y31.242 E107.43723
G1 X22.933 Y30.99 E107.47832
G1 X23.107 Y30.663 E107.53302
G1 X23.274 Y30.385 E107.58091
G1 X23.461 Y30.105 E107.63064
G1 X23.634 Y29.87 E107.67373
G1 X23.86 Y29.593 E107.72652
G1 X24.09 Y29.338 E107.77724
G1 X24.366 Y29.063 E107.83477
G1 X24.608 Y28.847 E107.88267
G0 F6000 X25.14 Y29.444
G1 F1200 X25.369 Y29.261 E107.92596
G1 X25.651 Y29.058 E107.97728
G1 X25.922 Y28.885 E108.02475
G1 X26.275 Y28.688 E108.08445
G1 X26.546 Y28.556 E108.12897
G1 X26.824 Y28.438 E108.17357
G1 X27.118 Y28.332 E108.21972
G1 X27.43 Y28.239 E108.2678
G1 X27.672 Y28.178 E108.30465
G1 X27.967 Y28.118 E108.34911
G1 X28.341 Y28.066 E108.40487
G1 X28.752 Y28.035 E108.46574
G1 X28.963 Y28.027 E108.49692
G1 X206.002 Y28.026 E134.64115
G1 X206.155 Y28.03 E134.66375
G1 X206.483 Y28.048 E134.71226
G1 X206.745 Y28.075 E134.75116
G1 X207.052 Y28.121 E134.797
G1 X207.343 Y28.181 E134.84088
G1 X207.646 Y28.26 E134.88712
G1 X207.887 Y28.334 E134.92435
G1 X208.154 Y28.43 E134.96625
G1 X208.386 Y28.525 E135.00327
G1 X208.679 Y28.661 E135.05098
G1 X208.945 Y28.802 E135.09543
G1 X209.209 Y28.961 E135.14095
G1 X209.451 Y29.125 E135.18412
G1 X209.704 Y29.316 E135.23093
G1 X209.924 Y29.501 E135.27338
G1 X210.197 Y29.755 E135.32844
G1 X210.422 Y29.99 E135.37649
G1 X210.679 Y30.292 E135.43505
G1 X210.878 Y30.556 E135.48387
G1 X211.053 Y30.819 E135.53052
G1 X211.183 Y31.034 E135.56763
G1 X211.322 Y31.29 E135.61064
G1 X211.463 Y31.591 E135.65973
G1 X211.623 Y31.993 E135.72362
G1 X211.729 Y32.317 E135.77397
G1 X211.822 Y32.671 E135.82802
G1 X211.892 Y33.028 E135.88174
G1 X211.944 Y33.436 E135.94248
G1 X211.971 Y33.855 E136.00448
G1 X211.973 Y33.966 E136.02088
G1 X211.974 Y201.006 E160.68851
G1 X211.969 Y201.165 E160.712
G1 X211.951 Y201.481 E160.75874
G1 X211.93 Y201.705 E160.79197
G1 X211.892 Y201.98 E160.83296
G1 X211.831 Y202.289 E160.87948
G1 X211.744 Y202.63 E160.93145
G1 X211.667 Y202.882 E160.97036
G1 X211.571 Y203.15 E161.0124
G1 X211.474 Y203.387 E161.05022
G1 X211.347 Y203.66 E161.09468
G1 X211.219 Y203.902 E161.13511
G1 X211.062 Y204.168 E161.18072
G1 X210.909 Y204.4 E161.22176
G1 X210.725 Y204.651 E161.26772
G1 X210.546 Y204.871 E161.3096
G1 X210.316 Y205.126 E161.36032
G1 X210.11 Y205.333 E161.40344
G1 X209.871 Y205.548 E161.45092
G1 X209.65 Y205.727 E161.49291
G1 X209.401 Y205.909 E161.53846
G1 X209.183 Y206.053 E161.57704
G1 X208.918 Y206.211 E161.62261
G1 X208.658 Y206.348 E161.66601
G1 X208.37 Y206.481 E161.71285
G1 X208.07 Y206.599 E161.76046
G1 X207.653 Y206.736 E161.82528
G1 X207.338 Y206.82 E161.87342
G1 X207.029 Y206.883 E161.91999
G1 X206.69 Y206.93 E161.97053
G1 X206.258 Y206.964 E162.03452
G1 X206.038 Y206.973 E162.06704
G1 X28.994 Y206.974 E188.21201
G1 X28.835 Y206.969 E188.2355
G1 X28.519 Y206.951 E188.28224
G1 X28.294 Y206.93 E188.31562
G1 X27.998 Y206.889 E188.35975
G1 X27.679 Y206.825 E188.40779
G1 X27.355 Y206.741 E188.45722
G1 X27.104 Y206.664 E188.49599
G1 X26.828 Y206.564 E188.53934
G1 X26.599 Y206.469 E188.57596
G1 X26.333 Y206.345 E188.6193
G1 X26.083 Y206.213 E188.66104
G1 X25.816 Y206.054 E188.70694
G1 X25.577 Y205.894 E188.74941
G1 X25.307 Y205.693 E188.79912
G1 X25.097 Y205.52 E188.8393
G1 X24.87 Y205.314 E188.88456
G1 X24.674 Y205.117 E188.9256
G1 X24.47 Y204.891 E188.97056
G1 X24.295 Y204.678 E189.01127
G1 X24.095 Y204.407 E189.06101
G1 X23.937 Y204.167 E189.10344
G1 X23.78 Y203.901 E189.14906
G1 X23.652 Y203.658 E189.18962
G1 X23.52 Y203.374 E189.23586
G1 X23.413 Y203.111 E189.27779
G1 X23.318 Y202.837 E189.32062
G1 X23.252 Y202.616 E189.35468
G1 X23.174 Y202.312 E189.40103
G1 X23.108 Y201.97 E189.45246
G1 X23.056 Y201.562 E189.5132
G1 X23.029 Y201.147 E189.57462
G1 X23.027 Y201.034 E189.59131
G1 X23.026 Y33.994 E214.25894
G1 X23.03 Y33.838 E214.28198
G1 X23.048 Y33.516 E214.32961
G1 X23.073 Y33.269 E214.36627
G1 X23.115 Y32.98 E214.4094
G1 X23.175 Y32.682 E214.45429
G1 X23.258 Y32.361 E214.50325
G1 X23.336 Y32.109 E214.54221
G1 X23.442 Y31.816 E214.58822
G1 X23.539 Y31.582 E214.62563
G1 X23.657 Y31.33 E214.66672
G1 X23.793 Y31.075 E214.7094
G1 X23.96 Y30.797 E214.75729
G1 X24.105 Y30.579 E214.79595
G1 X24.278 Y30.344 E214.83905
G1 X24.454 Y30.129 E214.88008
G1 X24.684 Y29.874 E214.93079
G1 X24.898 Y29.66 E214.97548
G1 X25.14 Y29.444 E215.02339
G0 F6000 X25.673 Y30.041
G1 F1200 X25.837 Y29.91 E215.05438
G1 X26.119 Y29.707 E215.10569
G1 X26.312 Y29.584 E215.13949
G1 X26.665 Y29.387 E215.19919
G1 X26.859 Y29.292 E215.23109
G1 X27.137 Y29.174 E215.27569
G1 X27.347 Y29.098 E215.30867
G1 X27.659 Y29.005 E215.35675
G1 X27.831 Y28.962 E215.38293
G1 X28.126 Y28.902 E215.42738
G1 X28.402 Y28.864 E215.46853
G1 X28.813 Y28.833 E215.52939
G1 X28.963 Y28.827 E215.55156
G1 X206.002 Y28.826 E241.6958
G1 X206.112 Y28.829 E241.71205
G1 X206.44 Y28.847 E241.76056
G1 X206.626 Y28.866 E241.78817
G1 X206.933 Y28.912 E241.83401
G1 X207.142 Y28.955 E241.86552
G1 X207.445 Y29.034 E241.91176
G1 X207.617 Y29.087 E241.93834
G1 X207.884 Y29.183 E241.98024
G1 X208.049 Y29.251 E242.00659
G1 X208.342 Y29.387 E242.0543
G1 X208.532 Y29.488 E242.08607
G1 X208.796 Y29.647 E242.13158
G1 X208.969 Y29.764 E242.16243
G1 X209.222 Y29.955 E242.20924
G1 X209.379 Y30.087 E242.23953
G1 X209.652 Y30.341 E242.2946
G1 X209.813 Y30.509 E242.32896
G1 X210.07 Y30.811 E242.38752
G1 X210.212 Y30.999 E242.42231
G1 X210.387 Y31.262 E242.46896
G1 X210.48 Y31.416 E242.49553
G1 X210.619 Y31.672 E242.53855
G1 X210.719 Y31.886 E242.57343
G1 X210.879 Y32.288 E242.63733
G1 X210.955 Y32.52 E242.67338
G1 X211.048 Y32.874 E242.72743
G1 X211.098 Y33.129 E242.7658
G1 X211.15 Y33.537 E242.82654
G1 X211.171 Y33.887 E242.87832
G1 X211.173 Y33.966 E242.88999
G1 X211.174 Y201.006 E267.55762
G1 X211.171 Y201.12 E267.57446
G1 X211.153 Y201.436 E267.6212
G1 X211.137 Y201.596 E267.64495
G1 X211.099 Y201.871 E267.68595
G1 X211.056 Y202.091 E267.71905
G1 X210.969 Y202.432 E267.77102
G1 X210.914 Y202.612 E267.79882
G1 X210.818 Y202.88 E267.84085
G1 X210.748 Y203.05 E267.868
G1 X210.621 Y203.323 E267.91247
G1 X210.53 Y203.496 E267.94133
G1 X210.373 Y203.762 E267.98695
G1 X210.264 Y203.927 E268.01615
G1 X210.08 Y204.178 E268.06211
G1 X209.952 Y204.336 E268.09214
G1 X209.722 Y204.591 E268.14285
G1 X209.575 Y204.738 E268.17355
G1 X209.336 Y204.953 E268.22102
G1 X209.178 Y205.081 E268.25105
G1 X208.929 Y205.263 E268.2966
G1 X208.773 Y205.366 E268.32421
G1 X208.508 Y205.524 E268.36977
G1 X208.323 Y205.622 E268.40068
G1 X208.035 Y205.755 E268.44753
G1 X207.82 Y205.839 E268.48162
G1 X207.403 Y205.976 E268.54644
G1 X207.179 Y206.036 E268.58068
G1 X206.87 Y206.099 E268.62725
G1 X206.627 Y206.133 E268.66349
G1 X206.195 Y206.167 E268.72748
G1 X206.038 Y206.173 E268.75068
G1 X28.994 Y206.174 E294.89565
G1 X28.88 Y206.171 E294.91249
G1 X28.564 Y206.153 E294.95924
G1 X28.404 Y206.137 E294.98298
G1 X28.108 Y206.096 E295.02711
G1 X27.88 Y206.051 E295.06143
G1 X27.556 Y205.967 E295.11086
G1 X27.377 Y205.911 E295.13856
G1 X27.101 Y205.811 E295.18191
G1 X26.937 Y205.744 E295.20807
G1 X26.671 Y205.62 E295.25141
G1 X26.493 Y205.525 E295.2812
G1 X26.226 Y205.366 E295.3271
G1 X26.055 Y205.252 E295.35745
G1 X25.785 Y205.051 E295.40715
G1 X25.635 Y204.928 E295.4358
G1 X25.408 Y204.722 E295.48107
G1 X25.267 Y204.581 E295.51051
G1 X25.063 Y204.355 E295.55547
G1 X24.939 Y204.203 E295.58444
G1 X24.739 Y203.932 E295.63418
G1 X24.626 Y203.761 E295.66445
G1 X24.469 Y203.495 E295.71006
G1 X24.377 Y203.321 E295.73913
G1 X24.245 Y203.037 E295.78538
G1 X24.169 Y202.849 E295.81532
G1 X24.074 Y202.575 E295.85815
G1 X24.027 Y202.417 E295.88249
G1 X23.949 Y202.113 E295.92884
G1 X23.902 Y201.869 E295.96553
G1 X23.85 Y201.461 E296.02627
G1 X23.829 Y201.114 E296.07761
G1 X23.827 Y201.034 E296.08943
G1 X23.826 Y33.994 E320.75706
G1 X23.829 Y33.882 E320.77361
G1 X23.847 Y33.56 E320.82123
G1 X23.865 Y33.384 E320.84736
G1 X23.907 Y33.095 E320.89048
G1 X23.95 Y32.882 E320.92257
G1 X24.033 Y32.561 E320.97154
G1 X24.088 Y32.382 E320.99919
G1 X24.194 Y32.089 E321.0452
G1 X24.264 Y31.921 E321.07208
G1 X24.382 Y31.669 E321.11317
G1 X24.479 Y31.487 E321.14363
G1 X24.646 Y31.209 E321.19152
G1 X24.749 Y31.053 E321.21912
G1 X24.922 Y30.818 E321.26222
G1 X25.048 Y30.664 E321.2916
G1 X25.278 Y30.409 E321.34231
G1 X25.431 Y30.257 E321.37416
G1 X25.673 Y30.041 E321.42206
G0 F6000 X26.206 Y30.638
G1 F1200 X26.304 Y30.559 E321.44065
G1 X26.586 Y30.356 E321.49197
G1 X26.702 Y30.282 E321.51228
G1 X27.055 Y30.085 E321.57198
G1 X27.171 Y30.028 E321.59107
G1 X27.449 Y29.91 E321.63567
G1 X27.575 Y29.865 E321.65543
G1 X27.887 Y29.772 E321.7035
G1 X27.991 Y29.746 E321.71933
G1 X28.286 Y29.686 E321.76379
G1 X28.462 Y29.661 E321.79004
G1 X28.873 Y29.63 E321.85091
G1 X28.963 Y29.627 E321.86421
G1 X206.002 Y29.626 E348.00844
G1 X206.396 Y29.646 E348.0667
G1 X206.508 Y29.657 E348.08332
G1 X206.815 Y29.703 E348.12916
G1 X206.94 Y29.729 E348.14802
G1 X207.243 Y29.808 E348.19426
G1 X207.346 Y29.84 E348.21019
G1 X207.613 Y29.936 E348.25209
G1 X207.712 Y29.977 E348.26791
G1 X208.005 Y30.113 E348.31561
G1 X208.119 Y30.173 E348.33464
G1 X208.383 Y30.332 E348.38015
G1 X208.487 Y30.402 E348.39866
G1 X208.74 Y30.593 E348.44547
G1 X208.834 Y30.672 E348.46361
G1 X209.107 Y30.926 E348.51867
G1 X209.204 Y31.027 E348.53935
G1 X209.461 Y31.329 E348.59791
G1 X209.546 Y31.442 E348.61879
G1 X209.721 Y31.705 E348.66545
G1 X209.777 Y31.797 E348.68135
G1 X209.916 Y32.053 E348.72437
G1 X209.976 Y32.182 E348.74538
G1 X210.136 Y32.584 E348.80927
G1 X210.182 Y32.723 E348.83089
G1 X210.275 Y33.077 E348.88495
G1 X210.304 Y33.23 E348.90794
G1 X210.356 Y33.638 E348.96868
G1 X210.372 Y33.918 E349.0101
G1 X210.374 Y201.006 E373.68482
G1 X210.372 Y201.074 E373.69486
G1 X210.354 Y201.39 E373.74161
G1 X210.345 Y201.486 E373.75584
G1 X210.307 Y201.761 E373.79684
G1 X210.281 Y201.894 E373.81685
G1 X210.194 Y202.235 E373.86882
G1 X210.161 Y202.343 E373.8855
G1 X210.065 Y202.611 E373.92754
G1 X210.023 Y202.712 E373.94369
G1 X209.896 Y202.985 E373.98816
G1 X209.841 Y203.089 E374.00553
G1 X209.684 Y203.355 E374.05114
G1 X209.619 Y203.454 E374.06863
G1 X209.435 Y203.705 E374.11459
G1 X209.358 Y203.8 E374.13265
G1 X209.128 Y204.055 E374.18336
G1 X209.04 Y204.143 E374.20174
G1 X208.801 Y204.358 E374.24922
G1 X208.706 Y204.435 E374.26727
G1 X208.457 Y204.617 E374.31282
G1 X208.364 Y204.679 E374.32933
G1 X208.099 Y204.837 E374.37489
G1 X207.987 Y204.895 E374.39351
G1 X207.699 Y205.028 E374.44036
G1 X207.571 Y205.079 E374.46071
G1 X207.154 Y205.216 E374.52553
G1 X207.019 Y205.252 E374.54616
G1 X206.71 Y205.315 E374.59273
G1 X206.564 Y205.335 E374.61449
G1 X206.132 Y205.369 E374.67848
G1 X206.038 Y205.373 E374.69238
G1 X28.994 Y205.374 E400.83735
G1 X28.926 Y205.372 E400.8474
G1 X28.61 Y205.354 E400.89414
G1 X28.513 Y205.345 E400.90852
G1 X28.217 Y205.304 E400.95265
G1 X28.081 Y205.277 E400.97313
G1 X27.757 Y205.193 E401.02256
G1 X27.649 Y205.159 E401.03928
G1 X27.373 Y205.059 E401.08263
G1 X27.275 Y205.019 E401.09826
G1 X27.009 Y204.895 E401.1416
G1 X26.902 Y204.838 E401.1595
G1 X26.635 Y204.679 E401.2054
G1 X26.532 Y204.611 E401.22362
G1 X26.262 Y204.41 E401.27333
G1 X26.173 Y204.336 E401.29042
G1 X25.946 Y204.13 E401.33569
G1 X25.861 Y204.045 E401.35344
G1 X25.657 Y203.819 E401.3984
G1 X25.582 Y203.728 E401.41582
G1 X25.382 Y203.457 E401.46555
G1 X25.315 Y203.354 E401.4837
G1 X25.158 Y203.088 E401.52931
G1 X25.103 Y202.984 E401.54669
G1 X24.971 Y202.7 E401.59294
G1 X24.925 Y202.587 E401.61095
G1 X24.83 Y202.313 E401.65378
G1 X24.802 Y202.218 E401.6684
G1 X24.724 Y201.914 E401.71475
G1 X24.696 Y201.768 E401.73671
G1 X24.644 Y201.36 E401.79744
G1 X24.628 Y201.082 E401.83857
G1 X24.626 Y33.994 E426.51329
