;FLAVOR:Marlin
;TIME:1289
;Filament used: 2.70817m
;Layer height: 0.4
;MINX:92.308
;MINY:92.301
;MINZ:0.4
;MAXX:142.693
;MAXY:142.699
;MAXZ:29.84
;Generated with Cura_SteamEngine 99.9.1-Arachne_engine_beta
M140 S100
M105
M190 S100
M104 S240
M105
M109 S240
M82 ;absolute extrusion mode
; Ender 3 Custom Start G-code
G92 E0 ; Reset Extruder
G28 ; Home all axes
G1 Z2.0 F3000 ; Move Z Axis up little to prevent scratching of Heat Bed
G1 X0.1 Y20 Z0.3 F5000.0 ; Move to start position
G1 X0.1 Y200.0 Z0.3 F1500.0 E15 ; Draw the first line
G1 X0.4 Y200.0 Z0.3 F5000.0 ; Move to side a little
G1 X0.4 Y20 Z0.3 F1500.0 E30 ; Draw the second line
G92 E0 ; Reset Extruder
G1 Z2.0 F3000 ; Move Z Axis up little to prevent scratching of Heat Bed
G1 X5 Y20 Z0.3 F5000.0 ; Move over to prevent blob squish
G92 E0
G92 E0
G1 F2700 E-5
;LAYER_COUNT:93
;LAYER:0
M107
G0 F6000 X102.387 Y97.303 Z0.4
G0 X101.913 Y97.898
;TYPE:SKIRT
G1 F2700 E0
G1 F1200 X102.157 Y97.575 E0.05978
G1 X102.387 Y97.303 E0.11238
G1 X102.882 Y96.82 E0.21451
G1 X103.3 Y96.496 E0.29261
G1 X103.43 Y96.406 E0.31596
G1 X103.81 Y96.176 E0.38156
G1 X104.112 Y96.018 E0.43189
G1 X104.79 Y95.747 E0.53972
G1 X105.052 Y95.672 E0.57996
G1 X105.339 Y95.602 E0.62359
G1 X106.297 Y95.411 E0.76784
G1 X106.829 Y95.346 E0.84699
G1 X107.365 Y95.36 E0.92617
G1 X107.944 Y95.468 E1.01315
G1 X108.245 Y95.55 E1.05922
G1 X108.281 Y95.551 E1.06454
G1 X108.813 Y95.652 E1.14451
G1 X109.11 Y95.732 E1.18993
G1 X109.166 Y95.734 E1.1982
G1 X109.726 Y95.841 E1.2824
G1 X110.017 Y95.919 E1.32689
G1 X110.604 Y96.027 E1.41503
G1 X110.876 Y96.101 E1.45666
G1 X110.918 Y96.102 E1.46286
G1 X111.49 Y96.208 E1.54877
G1 X112.174 Y96.393 E1.65341
G1 X112.68 Y96.571 E1.73262
G1 X113.153 Y96.822 E1.8117
G1 X113.284 Y96.919 E1.83577
G1 X113.515 Y96.873 E1.87055
G1 X113.533 Y96.84 E1.8761
G1 X113.86 Y96.415 E1.95529
G1 X114.349 Y95.961 E2.05383
G1 X114.911 Y95.529 E2.15851
G1 X115.389 Y95.221 E2.24248
G1 X115.639 Y95.027 E2.28921
G1 X116.086 Y94.731 E2.36838
G1 X116.167 Y94.693 E2.3816
G1 X116.418 Y94.501 E2.42826
G1 X116.867 Y94.207 E2.50752
G1 X116.966 Y94.162 E2.52358
G1 X117.222 Y93.966 E2.57119
G1 X117.41 Y93.85 E2.60381
G1 X117.88 Y93.488 E2.69142
G1 X118.328 Y93.193 E2.77063
G1 X118.815 Y92.968 E2.84986
G1 X119.382 Y92.807 E2.9369
G1 X120.336 Y92.619 E3.08049
G1 X120.729 Y92.564 E3.13909
G1 X121.096 Y92.533 E3.19348
G1 X121.794 Y92.542 E3.29657
G1 X122.066 Y92.572 E3.33698
G1 X122.555 Y92.656 E3.41025
G1 X122.961 Y92.762 E3.47222
G1 X123.283 Y92.867 E3.52223
G1 X123.934 Y93.154 E3.6273
G1 X124.4 Y93.428 E3.70713
G1 X125.195 Y93.958 E3.84823
G1 X125.618 Y94.288 E3.92745
G1 X125.987 Y94.677 E4.00663
G1 X126.321 Y95.163 E4.09372
G1 X126.468 Y95.42 E4.13744
G1 X126.5 Y95.454 E4.14433
G1 X126.817 Y95.921 E4.22769
G1 X126.974 Y96.189 E4.27355
G1 X127.31 Y96.678 E4.36117
G1 X127.45 Y96.923 E4.40284
G1 X127.816 Y97.45 E4.49759
G1 X127.97 Y97.717 E4.54311
G1 X128.293 Y98.186 E4.62721
G1 X128.646 Y98.797 E4.73141
G1 X128.879 Y99.28 E4.81061
G1 X129.038 Y99.792 E4.88978
G1 X129.063 Y99.96 E4.91486
G1 X129.266 Y100.096 E4.95094
G1 X129.306 Y100.084 E4.95711
G1 X129.837 Y100.014 E5.0362
G1 X130.507 Y100.04 E5.13522
G1 X131.218 Y100.134 E5.24113
G1 X131.857 Y100.268 E5.33755
G1 X132.102 Y100.3 E5.37404
G1 X132.783 Y100.441 E5.47674
G1 X132.983 Y100.467 E5.50652
G1 X133.509 Y100.575 E5.58582
G1 X133.644 Y100.625 E5.60708
G1 X133.918 Y100.661 E5.64789
G1 X134.207 Y100.725 E5.6916
G1 X134.743 Y100.793 E5.77139
G1 X135.269 Y100.9 E5.85066
G1 X135.772 Y101.083 E5.9297
G1 X136.293 Y101.372 E6.01768
G1 X137.102 Y101.913 E6.1614
G1 X137.425 Y102.157 E6.22118
G1 X137.697 Y102.387 E6.27378
G1 X138.169 Y102.868 E6.3733
G1 X138.341 Y103.08 E6.41362
G1 X138.612 Y103.456 E6.48206
G1 X138.824 Y103.81 E6.543
G1 X138.982 Y104.112 E6.59333
G1 X139.253 Y104.79 E6.70116
G1 X139.328 Y105.052 E6.7414
G1 X139.398 Y105.34 E6.78517
G1 X139.589 Y106.299 E6.92957
G1 X139.654 Y106.831 E7.00872
G1 X139.639 Y107.367 E7.0879
G1 X139.533 Y107.944 E7.17454
G1 X139.452 Y108.242 E7.22014
G1 X139.35 Y108.806 E7.30478
G1 X139.269 Y109.108 E7.35096
G1 X139.267 Y109.159 E7.35849
G1 X139.16 Y109.726 E7.4437
G1 X139.081 Y110.017 E7.48823
G1 X138.973 Y110.604 E7.57637
G1 X138.899 Y110.876 E7.618
G1 X138.898 Y110.918 E7.6242
G1 X138.792 Y111.49 E7.71011
G1 X138.607 Y112.174 E7.81475
G1 X138.429 Y112.68 E7.89396
G1 X138.178 Y113.153 E7.97304
G1 X138.082 Y113.284 E7.99702
G1 X138.128 Y113.515 E8.03181
G1 X138.585 Y113.86 E8.11636
G1 X139.039 Y114.349 E8.2149
G1 X139.471 Y114.911 E8.31958
G1 X139.765 Y115.359 E8.39871
G1 X139.78 Y115.392 E8.40407
G1 X139.978 Y115.647 E8.45174
G1 X140.274 Y116.094 E8.53091
G1 X140.308 Y116.168 E8.54294
G1 X140.503 Y116.422 E8.59023
G1 X140.797 Y116.871 E8.66949
G1 X140.84 Y116.966 E8.68488
G1 X141.013 Y117.191 E8.7268
G1 X141.172 Y117.442 E8.77068
G1 X141.501 Y117.865 E8.84981
G1 X141.798 Y118.311 E8.92894
G1 X142.025 Y118.797 E9.00816
G1 X142.192 Y119.378 E9.09743
G1 X142.384 Y120.35 E9.24374
G1 X142.439 Y120.74 E9.3019
G1 X142.469 Y121.089 E9.35363
G1 X142.456 Y121.827 E9.46263
G1 X142.38 Y122.373 E9.54404
G1 X142.349 Y122.529 E9.56753
G1 X142.244 Y122.932 E9.62903
G1 X142.135 Y123.27 E9.68148
G1 X141.864 Y123.898 E9.78248
G1 X141.725 Y124.151 E9.82511
G1 X141.564 Y124.418 E9.87115
G1 X141.047 Y125.192 E10.00861
G1 X140.716 Y125.614 E10.08781
G1 X140.327 Y125.983 E10.16699
G1 X139.837 Y126.319 E10.25473
G1 X139.573 Y126.469 E10.29957
G1 X139.534 Y126.506 E10.30751
G1 X139.076 Y126.817 E10.38926
G1 X138.819 Y126.966 E10.43313
G1 X138.317 Y127.313 E10.52325
G1 X138.057 Y127.467 E10.56788
G1 X137.557 Y127.811 E10.6575
G1 X137.278 Y127.976 E10.70537
G1 X136.821 Y128.29 E10.78725
G1 X136.207 Y128.646 E10.89206
G1 X135.724 Y128.88 E10.97132
G1 X135.212 Y129.039 E11.05049
G1 X135.037 Y129.066 E11.07664
G1 X134.904 Y129.265 E11.11199
G1 X134.919 Y129.317 E11.11998
G1 X134.986 Y129.849 E11.19916
G1 X134.959 Y130.512 E11.29715
G1 X134.865 Y131.217 E11.40218
G1 X134.755 Y131.742 E11.4814
G1 X134.742 Y131.777 E11.48691
G1 X134.7 Y132.1 E11.53501
G1 X134.592 Y132.625 E11.61416
G1 X134.572 Y132.679 E11.62267
G1 X134.533 Y132.983 E11.66793
G1 X134.425 Y133.509 E11.74723
G1 X134.375 Y133.644 E11.76848
G1 X134.341 Y133.904 E11.80721
G1 X134.27 Y134.235 E11.8572
G1 X134.205 Y134.744 E11.93298
G1 X134.099 Y135.269 E12.01207
G1 X133.915 Y135.773 E12.0913
G1 X133.627 Y136.292 E12.17896
G1 X133.08 Y137.11 E12.32427
G1 X132.842 Y137.427 E12.38281
G1 X132.614 Y137.698 E12.43511
G1 X132.11 Y138.19 E12.53912
G1 X131.724 Y138.487 E12.61105
G1 X131.585 Y138.583 E12.63599
G1 X131.222 Y138.804 E12.69875
G1 X130.891 Y138.979 E12.75405
G1 X130.195 Y139.258 E12.86478
G1 X129.946 Y139.329 E12.90301
G1 X129.662 Y139.398 E12.94617
G1 X128.703 Y139.589 E13.09058
G1 X128.171 Y139.654 E13.16972
G1 X127.635 Y139.639 E13.24891
G1 X127.059 Y139.533 E13.3354
G1 X126.735 Y139.451 E13.38475
G1 X126.193 Y139.349 E13.4662
G1 X125.887 Y139.267 E13.51298
G1 X125.836 Y139.265 E13.52052
G1 X125.271 Y139.159 E13.60541
G1 X124.983 Y139.081 E13.64947
G1 X124.396 Y138.973 E13.73761
G1 X124.124 Y138.899 E13.77924
G1 X124.082 Y138.898 E13.78544
G1 X123.511 Y138.792 E13.87121
G1 X122.826 Y138.607 E13.97599
G1 X122.32 Y138.429 E14.0552
G1 X121.847 Y138.178 E14.13428
G1 X121.716 Y138.081 E14.15835
G1 X121.485 Y138.127 E14.19313
G1 X121.467 Y138.16 E14.19868
G1 X121.14 Y138.585 E14.27787
G1 X120.651 Y139.039 E14.37641
G1 X120.089 Y139.471 E14.48109
G1 X119.611 Y139.779 E14.56506
G1 X119.361 Y139.973 E14.61179
G1 X118.914 Y140.269 E14.69096
G1 X118.833 Y140.307 E14.70418
G1 X118.582 Y140.499 E14.75084
G1 X118.133 Y140.793 E14.8301
G1 X118.034 Y140.838 E14.84616
G1 X117.778 Y141.034 E14.89377
G1 X117.578 Y141.158 E14.92852
G1 X117.122 Y141.51 E15.01359
G1 X116.675 Y141.806 E15.09276
G1 X116.188 Y142.031 E15.17199
G1 X115.618 Y142.193 E15.25949
G1 X114.664 Y142.381 E15.40309
G1 X114.271 Y142.436 E15.46169
G1 X113.904 Y142.467 E15.51608
G1 X113.206 Y142.458 E15.61916
G1 X112.934 Y142.428 E15.65957
G1 X112.445 Y142.344 E15.73284
G1 X112.039 Y142.238 E15.79481
G1 X111.717 Y142.133 E15.84483
G1 X111.066 Y141.846 E15.94989
G1 X110.6 Y141.572 E16.02972
G1 X109.805 Y141.042 E16.17082
G1 X109.382 Y140.712 E16.25005
G1 X109.013 Y140.323 E16.32923
G1 X108.679 Y139.837 E16.41631
G1 X108.532 Y139.58 E16.46003
G1 X108.5 Y139.546 E16.46693
G1 X108.183 Y139.079 E16.55028
G1 X108.036 Y138.824 E16.59375
G1 X107.689 Y138.323 E16.68375
G1 X107.526 Y138.049 E16.73083
G1 X107.183 Y137.548 E16.82049
G1 X107.023 Y137.275 E16.86722
G1 X106.706 Y136.813 E16.94996
G1 X106.353 Y136.202 E17.05417
G1 X106.12 Y135.719 E17.13336
G1 X105.961 Y135.207 E17.21253
G1 X105.936 Y135.039 E17.23761
G1 X105.734 Y134.904 E17.27349
G1 X105.694 Y134.916 E17.27966
G1 X105.163 Y134.986 E17.35875
G1 X104.493 Y134.96 E17.45777
G1 X103.782 Y134.866 E17.56368
G1 X103.142 Y134.731 E17.66027
G1 X102.898 Y134.7 E17.69659
G1 X102.216 Y134.558 E17.79947
G1 X102.017 Y134.533 E17.82909
G1 X101.491 Y134.425 E17.90838
G1 X101.356 Y134.375 E17.92964
G1 X101.096 Y134.341 E17.96837
G1 X100.777 Y134.272 E18.01656
G1 X100.256 Y134.206 E18.09412
G1 X99.73 Y134.099 E18.17339
G1 X99.227 Y133.916 E18.25243
G1 X98.702 Y133.624 E18.34114
G1 X97.892 Y133.081 E18.48515
G1 X97.577 Y132.844 E18.54337
G1 X97.31 Y132.619 E18.59493
G1 X96.828 Y132.126 E18.69675
G1 X96.653 Y131.909 E18.73791
G1 X96.39 Y131.545 E18.80423
G1 X96.166 Y131.172 E18.86848
G1 X96.016 Y130.884 E18.91644
G1 X95.742 Y130.19 E19.02662
G1 X95.664 Y129.911 E19.0694
G1 X95.601 Y129.649 E19.1092
G1 X95.413 Y128.711 E19.25047
G1 X95.347 Y128.179 E19.32963
G1 X95.361 Y127.643 E19.40882
G1 X95.468 Y127.063 E19.49591
G1 X95.549 Y126.748 E19.54394
G1 X95.652 Y126.183 E19.62875
G1 X95.737 Y125.863 E19.67765
G1 X95.742 Y125.773 E19.69096
G1 X95.842 Y125.271 E19.76655
G1 X95.92 Y124.987 E19.81004
G1 X96.026 Y124.407 E19.89711
G1 X96.101 Y124.13 E19.93949
G1 X96.102 Y124.078 E19.94717
G1 X96.208 Y123.511 E20.03235
G1 X96.393 Y122.827 E20.13699
G1 X96.571 Y122.321 E20.21621
G1 X96.822 Y121.848 E20.29528
G1 X96.919 Y121.717 E20.31935
G1 X96.873 Y121.485 E20.35428
G1 X96.838 Y121.466 E20.36016
G1 X96.413 Y121.139 E20.43935
G1 X95.961 Y120.651 E20.53758
G1 X95.529 Y120.089 E20.64226
G1 X95.221 Y119.611 E20.72623
G1 X95.027 Y119.361 E20.77296
G1 X94.731 Y118.914 E20.85213
G1 X94.693 Y118.833 E20.86535
G1 X94.501 Y118.582 E20.91201
G1 X94.207 Y118.133 E20.99127
G1 X94.162 Y118.034 E21.00733
G1 X93.966 Y117.778 E21.05494
G1 X93.842 Y117.578 E21.08969
G1 X93.49 Y117.122 E21.17476
G1 X93.194 Y116.675 E21.25393
G1 X92.969 Y116.188 E21.33316
G1 X92.807 Y115.618 E21.42066
G1 X92.619 Y114.664 E21.56426
G1 X92.564 Y114.27 E21.623
G1 X92.533 Y113.902 E21.67754
G1 X92.541 Y113.208 E21.78003
G1 X92.57 Y112.943 E21.8194
G1 X92.65 Y112.471 E21.8901
G1 X92.76 Y112.047 E21.95479
G1 X92.868 Y111.715 E22.00634
G1 X93.165 Y111.044 E22.11471
G1 X93.432 Y110.593 E22.1921
G1 X93.955 Y109.808 E22.3314
G1 X94.285 Y109.385 E22.41063
G1 X94.674 Y109.016 E22.48981
G1 X95.164 Y108.679 E22.57763
G1 X95.422 Y108.531 E22.62155
G1 X95.458 Y108.498 E22.62877
G1 X95.921 Y108.183 E22.71146
G1 X96.195 Y108.021 E22.75847
G1 X96.675 Y107.692 E22.8444
G1 X96.929 Y107.546 E22.88767
G1 X97.45 Y107.184 E22.98136
G1 X97.725 Y107.023 E23.02842
G1 X98.187 Y106.706 E23.11116
G1 X98.798 Y106.353 E23.21536
G1 X99.281 Y106.12 E23.29456
G1 X99.793 Y105.961 E23.37373
G1 X99.962 Y105.936 E23.39896
G1 X100.096 Y105.735 E23.43463
G1 X100.082 Y105.686 E23.44216
G1 X100.014 Y105.154 E23.52136
G1 X100.04 Y104.492 E23.61919
G1 X100.134 Y103.782 E23.72496
G1 X100.268 Y103.142 E23.82152
G1 X100.3 Y102.898 E23.85786
G1 X100.441 Y102.216 E23.96071
G1 X100.467 Y102.017 E23.99034
G1 X100.575 Y101.491 E24.06964
G1 X100.625 Y101.356 E24.0909
G1 X100.661 Y101.082 E24.13171
G1 X100.725 Y100.793 E24.17542
G1 X100.793 Y100.257 E24.25521
G1 X100.9 Y99.731 E24.33448
G1 X101.083 Y99.228 E24.41352
G1 X101.372 Y98.707 E24.5015
G1 X101.913 Y97.898 E24.64523
G0 F6000 X102.578 Y98.343
G1 F1200 X102.768 Y98.091 E24.69183
G1 X102.998 Y97.819 E24.74443
G1 X103.383 Y97.444 E24.8238
G1 X103.755 Y97.154 E24.89346
G1 X103.885 Y97.064 E24.91681
G1 X104.181 Y96.885 E24.96789
G1 X104.483 Y96.727 E25.01822
G1 X105.01 Y96.516 E25.10205
G1 X105.272 Y96.441 E25.1423
G1 X105.496 Y96.387 E25.17633
G1 X106.454 Y96.196 E25.32058
G1 X106.923 Y96.143 E25.39028
G1 X107.396 Y96.17 E25.46025
G1 X107.734 Y96.24 E25.51122
G1 X108.138 Y96.35 E25.57305
G1 X108.302 Y96.361 E25.59733
G1 X108.605 Y96.425 E25.64306
G1 X109.002 Y96.532 E25.70378
G1 X109.19 Y96.544 E25.7316
G1 X109.515 Y96.612 E25.78063
G1 X109.911 Y96.72 E25.84125
G1 X110.049 Y96.728 E25.86166
G1 X110.394 Y96.799 E25.91368
G1 X110.769 Y96.901 E25.97107
G1 X110.947 Y96.911 E25.99739
G1 X111.281 Y96.98 E26.04776
G1 X111.965 Y97.165 E26.1524
G1 X112.409 Y97.327 E26.22219
G1 X112.82 Y97.561 E26.29203
G1 X113.081 Y97.775 E26.34188
G1 X114.039 Y97.585 E26.48611
G1 X114.144 Y97.371 E26.52131
G1 X114.422 Y96.988 E26.5912
G1 X114.837 Y96.595 E26.6756
G1 X115.399 Y96.163 E26.78028
G1 X115.826 Y95.895 E26.85473
G1 X116.13 Y95.659 E26.91156
G1 X116.527 Y95.401 E26.98148
G1 X116.6 Y95.37 E26.99319
G1 X116.905 Y95.136 E27.04996
G1 X117.303 Y94.881 E27.11977
G1 X117.392 Y94.843 E27.13406
G1 X117.709 Y94.601 E27.19295
G1 X117.894 Y94.487 E27.22504
G1 X118.369 Y94.121 E27.31359
G1 X118.766 Y93.865 E27.38335
G1 X119.201 Y93.68 E27.45316
G1 X119.537 Y93.592 E27.50445
G1 X120.491 Y93.404 E27.64804
G1 X120.796 Y93.361 E27.69353
G1 X121.163 Y93.33 E27.74792
G1 X121.706 Y93.337 E27.82811
G1 X121.978 Y93.367 E27.86853
G1 X122.397 Y93.44 E27.93133
G1 X122.713 Y93.523 E27.97958
G1 X123.035 Y93.628 E28.0296
G1 X123.542 Y93.851 E28.11139
G1 X123.956 Y94.093 E28.18221
G1 X124.751 Y94.623 E28.32331
G1 X125.121 Y94.918 E28.39319
G1 X125.436 Y95.27 E28.46294
G1 X125.627 Y95.561 E28.51435
G1 X125.828 Y95.912 E28.57408
G1 X125.943 Y96.043 E28.59982
G1 X126.122 Y96.317 E28.64815
G1 X126.325 Y96.672 E28.70854
G1 X126.423 Y96.782 E28.7303
G1 X126.616 Y97.075 E28.78211
G1 X126.813 Y97.42 E28.84078
G1 X126.918 Y97.537 E28.864
G1 X127.12 Y97.844 E28.91827
G1 X127.324 Y98.204 E28.97937
G1 X127.418 Y98.31 E29.00029
G1 X127.6 Y98.586 E29.04912
G1 X127.953 Y99.197 E29.15332
G1 X128.155 Y99.625 E29.22321
G1 X128.281 Y100.081 E29.29307
G1 X128.316 Y100.425 E29.34414
G1 X129.132 Y100.969 E29.48896
G1 X129.363 Y100.891 E29.52497
G1 X129.83 Y100.817 E29.59479
G1 X130.402 Y100.833 E29.6793
G1 X131.113 Y100.927 E29.78521
G1 X131.575 Y101.028 E29.85504
G1 X131.614 Y101.044 E29.86127
G1 X131.998 Y101.094 E29.91846
G1 X132.46 Y101.194 E29.98826
G1 X132.507 Y101.213 E29.99575
G1 X132.881 Y101.261 E30.05143
G1 X133.344 Y101.361 E30.12138
G1 X133.459 Y101.407 E30.13967
G1 X133.813 Y101.454 E30.19241
G1 X134.104 Y101.519 E30.23644
G1 X134.643 Y101.587 E30.31667
G1 X135.105 Y101.686 E30.38644
G1 X135.544 Y101.861 E30.45623
G1 X135.848 Y102.037 E30.50811
G1 X136.657 Y102.578 E30.65183
G1 X136.909 Y102.768 E30.69843
G1 X137.181 Y102.998 E30.75104
G1 X137.547 Y103.372 E30.82831
G1 X137.861 Y103.774 E30.90364
G1 X137.95 Y103.905 E30.92703
G1 X138.115 Y104.181 E30.97452
G1 X138.273 Y104.483 E31.02485
G1 X138.484 Y105.01 E31.10868
G1 X138.559 Y105.272 E31.14892
G1 X138.613 Y105.496 E31.18295
G1 X138.804 Y106.455 E31.32735
G1 X138.857 Y106.925 E31.3972
G1 X138.83 Y107.397 E31.46702
G1 X138.76 Y107.735 E31.51799
G1 X138.653 Y108.131 E31.57857
G1 X138.641 Y108.296 E31.603
G1 X138.578 Y108.598 E31.64856
G1 X138.469 Y109.002 E31.71035
G1 X138.458 Y109.184 E31.73728
G1 X138.388 Y109.515 E31.78724
G1 X138.28 Y109.91 E31.84771
G1 X138.272 Y110.049 E31.86827
G1 X138.201 Y110.394 E31.92029
G1 X138.099 Y110.769 E31.97768
G1 X138.089 Y110.947 E32.004
G1 X138.02 Y111.281 E32.05437
G1 X137.835 Y111.965 E32.15901
G1 X137.673 Y112.409 E32.2288
G1 X137.439 Y112.82 E32.29865
G1 X137.225 Y113.081 E32.34849
G1 X137.416 Y114.039 E32.49275
G1 X137.629 Y114.144 E32.52781
G1 X138.012 Y114.422 E32.5977
G1 X138.405 Y114.837 E32.68211
G1 X138.837 Y115.399 E32.78679
G1 X139.105 Y115.826 E32.86123
G1 X139.346 Y116.137 E32.91934
