;FLAVOR:Marlin
;TIME:4054
;Filament used: 11.233m
;Layer height: 0.4
;MINX:74
;MINY:74
;MINZ:0.4
;MAXX:161
;MAXY:161
;MAXZ:17.24
;Generated with Cura_SteamEngine 4.9.0
M140 S100
M105
M190 S100
M104 S240
M105
M109 S240
M82 ;absolute extrusion mode
; Ender 3 Custom Start G-code
G92 E0 ; Reset Extruder
G28 ; Home all axes
G1 Z2.0 F3000 ; Move Z Axis up little to prevent scratching of Heat Bed
G1 X0.1 Y20 Z0.3 F5000.0 ; Move to start position
G1 X0.1 Y200.0 Z0.3 F1500.0 E15 ; Draw the first line
G1 X0.4 Y200.0 Z0.3 F5000.0 ; Move to side a little
G1 X0.4 Y20 Z0.3 F1500.0 E30 ; Draw the second line
G92 E0 ; Reset Extruder
G1 Z2.0 F3000 ; Move Z Axis up little to prevent scratching of Heat Bed
G1 X5 Y20 Z0.3 F5000.0 ; Move over to prevent blob squish
G92 E0
G92 E0
G1 F2700 E-5
;LAYER_COUNT:45
;LAYER:0
M107
G0 F6000 X75.994 Y76.228 Z0.4
;TYPE:SKIRT
G1 F2700 E0
G1 F1200 X76.24 Y75.983 E0.05127
G1 X76.52 Y75.73 E0.107
G1 X76.81 Y75.494 E0.16221
G1 X77.081 Y75.296 E0.21178
G1 X77.354 Y75.115 E0.26015
G1 X77.656 Y74.934 E0.31214
G1 X77.987 Y74.759 E0.36744
G1 X78.324 Y74.602 E0.42234
G1 X78.65 Y74.469 E0.47433
G1 X78.96 Y74.36 E0.52286
G1 X79.211 Y74.282 E0.56167
G1 X79.399 Y74.231 E0.59044
G1 X79.644 Y74.173 E0.62762
G1 X79.988 Y74.105 E0.6794
G1 X80.34 Y74.054 E0.73193
G1 X80.682 Y74.021 E0.78267
G1 X80.945 Y74.005 E0.82158
G1 X81.202 Y74 E0.85954
G1 X153.807 Y74 E11.58148
G1 X153.989 Y74.005 E11.60837
G1 X154.344 Y74.023 E11.66086
G1 X154.691 Y74.057 E11.71235
G1 X155.041 Y74.109 E11.7646
G1 X155.411 Y74.184 E11.82035
G1 X155.76 Y74.274 E11.87358
G1 X156.079 Y74.372 E11.92286
G1 X156.396 Y74.486 E11.97261
G1 X156.726 Y74.624 E12.02543
G1 X157.064 Y74.785 E12.08072
G1 X157.372 Y74.95 E12.13232
G1 X157.643 Y75.113 E12.17902
G1 X157.92 Y75.298 E12.22821
G1 X158.215 Y75.515 E12.28229
G1 X158.491 Y75.74 E12.33487
G1 X158.742 Y75.966 E12.38475
G1 X159.003 Y76.226 E12.43916
G1 X159.268 Y76.519 E12.4975
G1 X159.503 Y76.807 E12.55239
G1 X159.708 Y77.087 E12.60364
G1 X159.9 Y77.379 E12.65524
G1 X160.076 Y77.676 E12.70622
G1 X160.234 Y77.973 E12.7559
G1 X160.381 Y78.284 E12.8067
G1 X160.516 Y78.611 E12.85895
G1 X160.635 Y78.944 E12.91117
G1 X160.741 Y79.298 E12.96574
G1 X160.829 Y79.657 E13.02032
G1 X160.894 Y79.988 E13.07014
G1 X160.945 Y80.333 E13.12164
G1 X160.98 Y80.683 E13.17358
G1 X160.996 Y81.009 E13.22178
G1 X161 Y81.185 E13.24778
G1 X161 Y153.808 E23.97238
G1 X160.996 Y153.984 E23.99838
G1 X160.979 Y154.331 E24.04968
G1 X160.942 Y154.694 E24.10357
G1 X160.887 Y155.057 E24.15779
G1 X160.815 Y155.415 E24.21171
G1 X160.725 Y155.765 E24.26508
G1 X160.625 Y156.087 E24.31487
G1 X160.521 Y156.376 E24.36023
G1 X160.393 Y156.686 E24.40976
G1 X160.226 Y157.042 E24.46783
G1 X160.05 Y157.372 E24.52306
G1 X159.88 Y157.654 E24.57168
G1 X159.691 Y157.936 E24.62182
G1 X159.478 Y158.224 E24.67471
G1 X159.255 Y158.496 E24.72665
G1 X159.012 Y158.765 E24.78019
G1 X158.745 Y159.031 E24.83584
G1 X158.472 Y159.276 E24.89001
G1 X158.194 Y159.502 E24.94292
G1 X157.922 Y159.701 E24.99269
G1 X157.636 Y159.89 E25.04332
G1 X157.325 Y160.075 E25.09675
G1 X157.019 Y160.238 E25.14795
G1 X156.709 Y160.384 E25.19856
G1 X156.381 Y160.519 E25.25094
G1 X156.035 Y160.642 E25.30516
G1 X155.692 Y160.745 E25.35805
G1 X155.356 Y160.828 E25.40916
G1 X155.006 Y160.896 E25.46181
G1 X154.652 Y160.947 E25.51463
G1 X154.311 Y160.98 E25.56522
G1 X153.977 Y160.996 E25.6146
G1 X153.805 Y161 E25.64001
G1 X81.196 Y161 E36.36255
G1 X81.015 Y160.995 E36.38928
G1 X80.658 Y160.977 E36.44207
G1 X80.304 Y160.942 E36.4946
G1 X79.951 Y160.889 E36.54732
G1 X79.587 Y160.815 E36.60217
G1 X79.238 Y160.725 E36.65539
G1 X78.919 Y160.627 E36.70468
G1 X78.599 Y160.512 E36.75489
G1 X78.266 Y160.373 E36.80818
G1 X77.933 Y160.214 E36.86267
G1 X77.63 Y160.051 E36.91348
G1 X77.347 Y159.881 E36.96223
G1 X77.05 Y159.682 E37.01503
G1 X76.752 Y159.46 E37.06991
G1 X76.467 Y159.223 E37.12464
G1 X76.207 Y158.984 E37.1768
G1 X75.971 Y158.747 E37.22619
G1 X75.729 Y158.479 E37.27951
G1 X75.49 Y158.183 E37.33569
G1 X75.282 Y157.897 E37.38792
G1 X75.097 Y157.617 E37.43748
G1 X74.922 Y157.322 E37.48813
G1 X74.759 Y157.014 E37.53959
G1 X74.606 Y156.688 E37.59277
G1 X74.462 Y156.334 E37.64921
G1 X74.348 Y156.004 E37.70077
G1 X74.258 Y155.7 E37.74759
G1 X74.177 Y155.375 E37.79705
G1 X74.109 Y155.029 E37.84912
G1 X74.054 Y154.656 E37.9048
G1 X74.019 Y154.302 E37.95733
G1 X74.004 Y153.986 E38.00405
G1 X74 Y153.815 E38.02931
G1 X74 Y81.196 E48.75332
G1 X74.004 Y81.021 E48.77917
G1 X74.021 Y80.671 E48.83092
G1 X74.057 Y80.308 E48.88479
G1 X74.112 Y79.944 E48.93915
G1 X74.185 Y79.585 E48.99325
G1 X74.275 Y79.235 E49.04662
G1 X74.38 Y78.899 E49.0986
G1 X74.501 Y78.567 E49.15079
G1 X74.639 Y78.239 E49.20333
G1 X74.791 Y77.923 E49.25512
G1 X74.949 Y77.63 E49.30428
G1 X75.119 Y77.347 E49.35303
G1 X75.308 Y77.064 E49.40328
G1 X75.519 Y76.778 E49.45577
G1 X75.756 Y76.489 E49.51096
G1 X75.994 Y76.228 E49.56313
G0 F6000 X76.585 Y76.767
G1 F1200 X76.777 Y76.576 E49.60312
G1 X77.057 Y76.323 E49.65885
G1 X77.282 Y76.14 E49.70168
G1 X77.553 Y75.942 E49.75124
G1 X77.766 Y75.801 E49.78896
G1 X78.068 Y75.62 E49.84096
G1 X78.325 Y75.484 E49.8839
G1 X78.662 Y75.327 E49.9388
G1 X78.915 Y75.224 E49.97914
G1 X79.225 Y75.115 E50.02766
G1 X79.609 Y75.003 E50.08673
G1 X79.799 Y74.958 E50.11557
G1 X80.143 Y74.89 E50.16735
G1 X80.417 Y74.85 E50.20824
G1 X80.759 Y74.817 E50.25898
G1 X81.138 Y74.801 E50.315
G1 X153.807 Y74.8 E61.0464
G1 X153.949 Y74.804 E61.06737
G1 X154.304 Y74.822 E61.11987
G1 X154.573 Y74.848 E61.15978
G1 X154.923 Y74.9 E61.21203
G1 X155.211 Y74.959 E61.25544
G1 X155.56 Y75.049 E61.30867
G1 X155.809 Y75.125 E61.34711
G1 X156.126 Y75.239 E61.39686
G1 X156.382 Y75.346 E61.43784
G1 X156.72 Y75.507 E61.49312
G1 X156.959 Y75.636 E61.53323
G1 X157.23 Y75.799 E61.57993
G1 X157.446 Y75.942 E61.61819
G1 X157.741 Y76.159 E61.67227
G1 X157.956 Y76.334 E61.71321
G1 X158.207 Y76.56 E61.76308
G1 X158.41 Y76.763 E61.80548
G1 X158.675 Y77.056 E61.86382
G1 X158.857 Y77.28 E61.90644
G1 X159.062 Y77.56 E61.95769
G1 X159.212 Y77.787 E61.99787
G1 X159.388 Y78.084 E62.04885
G1 X159.51 Y78.314 E62.0873
G1 X159.657 Y78.625 E62.1381
G1 X159.763 Y78.88 E62.17888
G1 X159.882 Y79.213 E62.2311
G1 X159.964 Y79.488 E62.27348
G1 X160.052 Y79.847 E62.32806
G1 X160.103 Y80.105 E62.3669
G1 X160.154 Y80.45 E62.4184
G1 X160.181 Y80.722 E62.45877
G1 X160.197 Y81.048 E62.50697
G1 X160.2 Y81.185 E62.5272
G1 X160.2 Y153.808 E73.2518
G1 X160.197 Y153.945 E73.27204
G1 X160.18 Y154.292 E73.32334
G1 X160.151 Y154.574 E73.36521
G1 X160.096 Y154.937 E73.41943
G1 X160.04 Y155.215 E73.4613
G1 X159.95 Y155.565 E73.51467
G1 X159.873 Y155.816 E73.55344
G1 X159.769 Y156.105 E73.5988
G1 X159.669 Y156.346 E73.63733
G1 X159.502 Y156.702 E73.6954
G1 X159.365 Y156.959 E73.73841
G1 X159.195 Y157.241 E73.78704
G1 X159.048 Y157.46 E73.82599
G1 X158.835 Y157.748 E73.87889
G1 X158.662 Y157.96 E73.91929
G1 X158.419 Y158.229 E73.97283
G1 X158.211 Y158.436 E74.01616
G1 X157.938 Y158.681 E74.07033
G1 X157.721 Y158.857 E74.11159
G1 X157.449 Y159.056 E74.16136
G1 X157.227 Y159.202 E74.2006
G1 X156.916 Y159.387 E74.25404
G1 X156.678 Y159.514 E74.29388
G1 X156.368 Y159.66 E74.34448
G1 X156.113 Y159.765 E74.3852
G1 X155.767 Y159.888 E74.43943
G1 X155.5 Y159.968 E74.48059
G1 X155.164 Y160.051 E74.5317
G1 X154.892 Y160.104 E74.57263
G1 X154.538 Y160.155 E74.62544
G1 X154.273 Y160.181 E74.66476
G1 X153.939 Y160.197 E74.71414
G1 X153.805 Y160.2 E74.73394
G1 X81.196 Y160.2 E85.45647
G1 X81.055 Y160.196 E85.4773
G1 X80.698 Y160.178 E85.53009
G1 X80.423 Y160.151 E85.5709
G1 X80.07 Y160.098 E85.62361
G1 X79.787 Y160.04 E85.66627
G1 X79.438 Y159.95 E85.71949
G1 X79.19 Y159.874 E85.7578
G1 X78.87 Y159.759 E85.80801
G1 X78.611 Y159.651 E85.84945
G1 X78.278 Y159.492 E85.90395
G1 X78.042 Y159.365 E85.94352
G1 X77.759 Y159.195 E85.99228
G1 X77.528 Y159.04 E86.03336
G1 X77.23 Y158.818 E86.08823
G1 X77.008 Y158.634 E86.13081
G1 X76.748 Y158.395 E86.18297
G1 X76.565 Y158.211 E86.22129
G1 X76.323 Y157.943 E86.27461
G1 X76.137 Y157.713 E86.3183
G1 X75.929 Y157.427 E86.37052
G1 X75.785 Y157.209 E86.4091
G1 X75.61 Y156.914 E86.45976
G1 X75.483 Y156.675 E86.49972
G1 X75.33 Y156.349 E86.5529
G1 X75.218 Y156.073 E86.59689
G1 X75.104 Y155.743 E86.64845
G1 X75.034 Y155.506 E86.68494
G1 X74.953 Y155.181 E86.7344
G1 X74.9 Y154.912 E86.77489
G1 X74.845 Y154.539 E86.83057
G1 X74.818 Y154.264 E86.87138
G1 X74.803 Y153.948 E86.9181
G1 X74.8 Y153.815 E86.93774
G1 X74.8 Y81.196 E97.66175
G1 X74.803 Y81.06 E97.68184
G1 X74.82 Y80.71 E97.73359
G1 X74.848 Y80.428 E97.77544
G1 X74.903 Y80.064 E97.8298
G1 X74.96 Y79.785 E97.87185
G1 X75.05 Y79.435 E97.92522
G1 X75.131 Y79.173 E97.96572
G1 X75.252 Y78.841 E98.0179
G1 X75.36 Y78.586 E98.0588
G1 X75.512 Y78.27 E98.11058
G1 X75.635 Y78.042 E98.14884
G1 X75.805 Y77.759 E98.19759
G1 X75.952 Y77.539 E98.23666
G1 X76.163 Y77.253 E98.28915
G1 X76.347 Y77.028 E98.33207
G1 X76.585 Y76.767 E98.38423
G0 F6000 X77.176 Y77.306
G1 F1200 X77.313 Y77.17 E98.41274
G1 X77.593 Y76.917 E98.46847
G1 X77.754 Y76.786 E98.49912
G1 X78.025 Y76.588 E98.54868
G1 X78.177 Y76.488 E98.57555
G1 X78.479 Y76.307 E98.62755
G1 X78.662 Y76.209 E98.6582
G1 X78.999 Y76.052 E98.7131
G1 X79.181 Y75.978 E98.74212
G1 X79.491 Y75.869 E98.79065
G1 X79.818 Y75.775 E98.84089
G1 X79.954 Y75.743 E98.86152
G1 X80.298 Y75.675 E98.91331
G1 X80.494 Y75.646 E98.94257
G1 X80.836 Y75.613 E98.9933
G1 X81.156 Y75.601 E99.04059
G1 X153.807 Y75.6 E109.76933
G1 X153.908 Y75.603 E109.78425
G1 X154.263 Y75.621 E109.83674
G1 X154.456 Y75.64 E109.86538
G1 X154.806 Y75.692 E109.91764
G1 X155.011 Y75.733 E109.94851
G1 X155.36 Y75.823 E110.00173
G1 X155.538 Y75.878 E110.02925
G1 X155.855 Y75.992 E110.07899
G1 X156.038 Y76.068 E110.10826
G1 X156.376 Y76.229 E110.16354
G1 X156.547 Y76.321 E110.19222
G1 X156.818 Y76.484 E110.23892
G1 X156.972 Y76.587 E110.26628
G1 X157.267 Y76.804 E110.32036
G1 X157.42 Y76.929 E110.34954
G1 X157.671 Y77.155 E110.39942
G1 X157.816 Y77.299 E110.42959
G1 X158.081 Y77.592 E110.48793
G1 X158.212 Y77.753 E110.51859
G1 X158.417 Y78.033 E110.56983
G1 X158.524 Y78.194 E110.59838
G1 X158.7 Y78.491 E110.64936
G1 X158.787 Y78.656 E110.67691
G1 X158.934 Y78.967 E110.72771
G1 X159.009 Y79.149 E110.75678
G1 X159.128 Y79.482 E110.809
G1 X159.187 Y79.679 E110.83937
G1 X159.275 Y80.038 E110.89395
G1 X159.311 Y80.222 E110.92164
G1 X159.362 Y80.567 E110.97314
G1 X159.382 Y80.761 E111.00194
G1 X159.398 Y81.087 E111.05014
G1 X159.4 Y81.185 E111.06462
G1 X159.4 Y153.808 E121.78922
G1 X159.398 Y153.906 E121.80369
G1 X159.381 Y154.253 E121.855
G1 X159.36 Y154.455 E121.88499
G1 X159.305 Y154.818 E121.93921
G1 X159.265 Y155.016 E121.96904
G1 X159.175 Y155.366 E122.02241
G1 X159.12 Y155.545 E122.05006
G1 X159.016 Y155.834 E122.09542
G1 X158.945 Y156.006 E122.1229
G1 X158.778 Y156.362 E122.18096
G1 X158.68 Y156.546 E122.21175
G1 X158.51 Y156.828 E122.26038
G1 X158.405 Y156.984 E122.28815
G1 X158.192 Y157.272 E122.34104
G1 X158.068 Y157.424 E122.37001
G1 X157.825 Y157.693 E122.42355
G1 X157.677 Y157.84 E122.45435
G1 X157.404 Y158.085 E122.50852
G1 X157.249 Y158.211 E122.53802
G1 X156.977 Y158.41 E122.58779
G1 X156.818 Y158.515 E122.61593
G1 X156.507 Y158.7 E122.66936
G1 X156.337 Y158.79 E122.69777
G1 X156.027 Y158.936 E122.74837
G1 X155.845 Y159.011 E122.77744
G1 X155.499 Y159.134 E122.83167
G1 X155.309 Y159.192 E122.86101
G1 X154.973 Y159.275 E122.91212
G1 X154.778 Y159.313 E122.94146
G1 X154.424 Y159.364 E122.99427
G1 X154.235 Y159.382 E123.02231
G1 X153.901 Y159.398 E123.07169
G1 X153.805 Y159.4 E123.08587
G1 X81.196 Y159.4 E133.8084
G1 X81.095 Y159.397 E133.82332
G1 X80.738 Y159.379 E133.87611
G1 X80.542 Y159.36 E133.90519
G1 X80.189 Y159.307 E133.95791
G1 X79.987 Y159.266 E133.98834
G1 X79.638 Y159.176 E134.04157
G1 X79.461 Y159.121 E134.06894
G1 X79.141 Y159.006 E134.11915
G1 X78.955 Y158.929 E134.14888
G1 X78.622 Y158.77 E134.20338
G1 X78.454 Y158.679 E134.23159
G1 X78.171 Y158.509 E134.28034
G1 X78.006 Y158.399 E134.30963
G1 X77.708 Y158.177 E134.36451
G1 X77.55 Y158.045 E134.39491
G1 X77.29 Y157.806 E134.44706
G1 X77.159 Y157.674 E134.47453
G1 X76.917 Y157.406 E134.52785
G1 X76.784 Y157.242 E134.55903
G1 X76.576 Y156.956 E134.61126
G1 X76.473 Y156.8 E134.63886
G1 X76.298 Y156.505 E134.68951
G1 X76.207 Y156.335 E134.71799
G1 X76.054 Y156.009 E134.77117
G1 X75.975 Y155.812 E134.80251
G1 X75.861 Y155.482 E134.85407
G1 X75.81 Y155.313 E134.88014
G1 X75.729 Y154.988 E134.9296
G1 X75.691 Y154.796 E134.95851
G1 X75.636 Y154.423 E135.01419
G1 X75.617 Y154.226 E135.04341
G1 X75.602 Y153.91 E135.09013
G1 X75.6 Y153.815 E135.10416
G1 X75.6 Y81.196 E145.82817
G1 X75.602 Y81.099 E145.8425
G1 X75.619 Y80.749 E145.89425
G1 X75.639 Y80.547 E145.92422
G1 X75.694 Y80.183 E145.97859
G1 X75.735 Y79.984 E146.00859
G1 X75.825 Y79.634 E146.06196
G1 X75.883 Y79.447 E146.09087
G1 X76.004 Y79.115 E146.14306
G1 X76.081 Y78.933 E146.17224
G1 X76.233 Y78.617 E146.22402
G1 X76.321 Y78.454 E146.25138
G1 X76.491 Y78.171 E146.30013
G1 X76.596 Y78.014 E146.32802
G1 X76.807 Y77.728 E146.38051
G1 X76.938 Y77.567 E146.41116
G1 X77.176 Y77.306 E146.46332
G0 F6000 X77.767 Y77.845
G1 F1200 X77.849 Y77.764 E146.48034
G1 X78.129 Y77.511 E146.53607
G1 X78.226 Y77.432 E146.55454
G1 X78.497 Y77.234 E146.60411
G1 X78.588 Y77.174 E146.62021
G1 X78.89 Y76.993 E146.6722
G1 X79 Y76.934 E146.69063
G1 X79.337 Y76.777 E146.74553
G1 X79.446 Y76.733 E146.76289
G1 X79.756 Y76.624 E146.81142
G1 X80.028 Y76.547 E146.85317
G1 X80.109 Y76.528 E146.86545
G1 X80.453 Y76.46 E146.91724
G1 X80.571 Y76.443 E146.93484
G1 X80.913 Y76.41 E146.98558
G1 X81.174 Y76.4 E147.02415
G1 X153.807 Y76.4 E157.75023
G1 X154.223 Y76.42 E157.81173
G1 X154.338 Y76.431 E157.82879
G1 X154.688 Y76.483 E157.88105
G1 X154.812 Y76.508 E157.89973
G1 X155.161 Y76.598 E157.95295
G1 X155.267 Y76.631 E157.96935
G1 X155.584 Y76.745 E158.0191
G1 X155.694 Y76.791 E158.0367
G1 X156.032 Y76.952 E158.09199
G1 X156.135 Y77.007 E158.10923
G1 X156.406 Y77.17 E158.15593
G1 X156.498 Y77.231 E158.17224
G1 X156.793 Y77.448 E158.22632
G1 X156.885 Y77.523 E158.24385
G1 X157.136 Y77.749 E158.29372
G1 X157.223 Y77.836 E158.31189
G1 X157.488 Y78.129 E158.37023
G1 X157.566 Y78.225 E158.3885
G1 X157.771 Y78.505 E158.43975
G1 X157.835 Y78.602 E158.45691
G1 X158.011 Y78.899 E158.50789
G1 X158.064 Y78.998 E158.52447
G1 X158.211 Y79.309 E158.57527
G1 X158.256 Y79.418 E158.59269
G1 X158.375 Y79.751 E158.64491
G1 X158.41 Y79.869 E158.66308
G1 X158.498 Y80.228 E158.71767
G1 X158.52 Y80.339 E158.73438
G1 X158.571 Y80.684 E158.78588
G1 X158.583 Y80.8 E158.8031
G1 X158.599 Y81.126 E158.8513
G1 X158.6 Y153.808 E169.58462
G1 X158.599 Y153.867 E169.59333
G1 X158.582 Y154.214 E169.64464
G1 X158.569 Y154.335 E169.66261
G1 X158.514 Y154.698 E169.71683
G1 X158.49 Y154.817 E169.73475
G1 X158.4 Y155.167 E169.78812
G1 X158.367 Y155.274 E169.80466
G1 X158.263 Y155.563 E169.85001
G1 X158.22 Y155.667 E169.86663
G1 X158.053 Y156.023 E169.9247
G1 X157.995 Y156.133 E169.94307
G1 X157.825 Y156.415 E169.99169
G1 X157.762 Y156.509 E170.0084
G1 X157.549 Y156.797 E170.0613
G1 X157.474 Y156.887 E170.0786
G1 X157.231 Y157.156 E170.13213
G1 X157.142 Y157.245 E170.15072
G1 X156.869 Y157.49 E170.20489
G1 X156.777 Y157.565 E170.22242
G1 X156.505 Y157.764 E170.27219
G1 X156.409 Y157.827 E170.28915
G1 X156.098 Y158.012 E170.34259
G1 X155.996 Y158.067 E170.3597
G1 X155.686 Y158.213 E170.4103
G1 X155.577 Y158.258 E170.42771
G1 X155.231 Y158.381 E170.48194
G1 X155.117 Y158.415 E170.49951
G1 X154.781 Y158.498 E170.55062
G1 X154.664 Y158.521 E170.56823
G1 X154.31 Y158.572 E170.62105
G1 X154.196 Y158.583 E170.63796
G1 X153.862 Y158.599 E170.68734
G1 X81.196 Y158.6 E181.41829
G1 X80.779 Y158.58 E181.47994
G1 X80.661 Y158.569 E181.49744
G1 X80.308 Y158.516 E181.55016
G1 X80.186 Y158.491 E181.56855
G1 X79.837 Y158.401 E181.62177
G1 X79.731 Y158.368 E181.63817
G1 X79.411 Y158.253 E181.68838
G1 X79.3 Y158.207 E181.70613
G1 X78.967 Y158.048 E181.76062
G1 X78.866 Y157.994 E181.77753
G1 X78.583 Y157.824 E181.82629
G1 X78.484 Y157.757 E181.84394
G1 X78.186 Y157.535 E181.89881
