;FLAVOR:Marlin
;TIME:2962
;Filament used: 6.96944m
;Layer height: 0.4
;MINX:73.904
;MINY:73.9
;MINZ:0.4
;MAXX:161.096
;MAXY:161.096
;MAXZ:12.08
;Generated with Cura_SteamEngine 99.9.1-Arachne_engine_beta
M140 S100
M105
M190 S100
M104 S240
M105
M109 S240
M82 ;absolute extrusion mode
; Ender 3 Custom Start G-code
G92 E0 ; Reset Extruder
G28 ; Home all axes
G1 Z2.0 F3000 ; Move Z Axis up little to prevent scratching of Heat Bed
G1 X0.1 Y20 Z0.3 F5000.0 ; Move to start position
G1 X0.1 Y200.0 Z0.3 F1500.0 E15 ; Draw the first line
G1 X0.4 Y200.0 Z0.3 F5000.0 ; Move to side a little
G1 X0.4 Y20 Z0.3 F1500.0 E30 ; Draw the second line
G92 E0 ; Reset Extruder
G1 Z2.0 F3000 ; Move Z Axis up little to prevent scratching of Heat Bed
G1 X5 Y20 Z0.3 F5000.0 ; Move over to prevent blob squish
G92 E0
G92 E0
G1 F2700 E-5
;LAYER_COUNT:35
;LAYER:0
M107
G0 F6000 X75.918 Y76.104 Z0.4
G0 X75.396 Y76.71
;TYPE:SKIRT
G1 F2700 E0
G1 F1200 X75.569 Y76.492 E0.0411
G1 X75.724 Y76.312 E0.07618
G1 X75.918 Y76.104 E0.11818
G1 X76.148 Y75.876 E0.16601
G1 X76.393 Y75.654 E0.21483
G1 X76.665 Y75.43 E0.26687
G1 X76.957 Y75.214 E0.3205
G1 X77.251 Y75.018 E0.37268
G1 X77.553 Y74.837 E0.42468
G1 X77.866 Y74.67 E0.47707
G1 X78.171 Y74.525 E0.52694
G1 X78.496 Y74.389 E0.57897
G1 X78.855 Y74.261 E0.63525
G1 X79.193 Y74.16 E0.68734
G1 X79.516 Y74.079 E0.73652
G1 X79.865 Y74.009 E0.78909
G1 X80.216 Y73.957 E0.84149
G1 X80.567 Y73.922 E0.89358
G1 X80.924 Y73.904 E0.94636
G1 X153.9 Y73.9 E11.72309
G1 X154.426 Y73.921 E11.80083
G1 X154.78 Y73.956 E11.85336
G1 X155.131 Y74.008 E11.90576
G1 X155.483 Y74.078 E11.95876
G1 X155.824 Y74.164 E12.0107
G1 X156.149 Y74.263 E12.06087
G1 X156.484 Y74.382 E12.11337
G1 X156.823 Y74.522 E12.16753
G1 X157.141 Y74.673 E12.21952
G1 X157.448 Y74.837 E12.27092
G1 X157.75 Y75.018 E12.32291
G1 X158.03 Y75.205 E12.37263
G1 X158.29 Y75.396 E12.42028
G1 X158.508 Y75.569 E12.46138
G1 X158.688 Y75.724 E12.49645
G1 X158.896 Y75.918 E12.53846
G1 X159.124 Y76.148 E12.58628
G1 X159.346 Y76.393 E12.63511
G1 X159.57 Y76.665 E12.68714
G1 X159.786 Y76.957 E12.74078
G1 X159.982 Y77.251 E12.79296
G1 X160.163 Y77.553 E12.84495
G1 X160.33 Y77.866 E12.89734
G1 X160.475 Y78.171 E12.94722
G1 X160.611 Y78.496 E12.99924
G1 X160.739 Y78.855 E13.05553
G1 X160.84 Y79.193 E13.10762
G1 X160.92 Y79.512 E13.15619
G1 X160.99 Y79.859 E13.20846
G1 X161.043 Y80.214 E13.26147
G1 X161.078 Y80.565 E13.31356
G1 X161.096 Y80.922 E13.36635
G1 X161.095 Y154.118 E24.17557
G1 X161.078 Y154.441 E24.22333
G1 X161.044 Y154.78 E24.27365
G1 X160.992 Y155.131 E24.32604
G1 X160.922 Y155.483 E24.37904
G1 X160.836 Y155.824 E24.43098
G1 X160.738 Y156.146 E24.48068
G1 X160.62 Y156.479 E24.53286
G1 X160.479 Y156.822 E24.58762
G1 X160.327 Y157.142 E24.63994
G1 X160.163 Y157.448 E24.69121
G1 X159.982 Y157.75 E24.7432
G1 X159.795 Y158.03 E24.79292
G1 X159.604 Y158.29 E24.84057
G1 X159.431 Y158.508 E24.88166
G1 X159.276 Y158.688 E24.91674
G1 X159.082 Y158.896 E24.95875
G1 X158.852 Y159.124 E25.00657
G1 X158.607 Y159.346 E25.0554
G1 X158.335 Y159.57 E25.10743
G1 X158.043 Y159.786 E25.16107
G1 X157.749 Y159.982 E25.21325
G1 X157.447 Y160.163 E25.26524
G1 X157.134 Y160.33 E25.31763
G1 X156.829 Y160.475 E25.3675
G1 X156.504 Y160.611 E25.41953
G1 X156.145 Y160.739 E25.47582
G1 X155.807 Y160.84 E25.52791
G1 X155.484 Y160.921 E25.57709
G1 X155.135 Y160.991 E25.62965
G1 X154.784 Y161.043 E25.68205
G1 X154.433 Y161.078 E25.73414
G1 X154.076 Y161.096 E25.78693
G1 X80.924 Y161.096 E36.58965
G1 X80.567 Y161.078 E36.64244
G1 X80.216 Y161.043 E36.69453
G1 X79.865 Y160.991 E36.74693
G1 X79.516 Y160.921 E36.79949
G1 X79.193 Y160.84 E36.84867
G1 X78.855 Y160.739 E36.90076
G1 X78.496 Y160.611 E36.95705
G1 X78.171 Y160.475 E37.00908
G1 X77.866 Y160.33 E37.05895
G1 X77.553 Y160.163 E37.11134
G1 X77.251 Y159.982 E37.16333
G1 X76.957 Y159.786 E37.21551
G1 X76.665 Y159.57 E37.26915
G1 X76.393 Y159.346 E37.32118
G1 X76.136 Y159.113 E37.37241
G1 X75.886 Y158.863 E37.42462
G1 X75.652 Y158.604 E37.47617
G1 X75.429 Y158.333 E37.528
G1 X75.212 Y158.041 E37.58172
G1 X75.015 Y157.745 E37.63423
G1 X74.836 Y157.445 E37.68582
G1 X74.67 Y157.134 E37.73788
G1 X74.526 Y156.83 E37.78755
G1 X74.389 Y156.503 E37.83991
G1 X74.259 Y156.139 E37.89699
G1 X74.159 Y155.803 E37.94876
G1 X74.079 Y155.484 E37.99733
G1 X74.009 Y155.135 E38.04989
G1 X73.957 Y154.786 E38.102
G1 X73.922 Y154.437 E38.15379
G1 X73.904 Y154.078 E38.20688
G1 X73.904 Y80.926 E49.0096
G1 X73.921 Y80.575 E49.06149
G1 X73.956 Y80.223 E49.11373
G1 X74.008 Y79.871 E49.16628
G1 X74.078 Y79.517 E49.21957
G1 X74.164 Y79.176 E49.2715
G1 X74.262 Y78.854 E49.3212
G1 X74.38 Y78.521 E49.37338
G1 X74.521 Y78.178 E49.42814
G1 X74.673 Y77.858 E49.48046
G1 X74.837 Y77.552 E49.53173
G1 X75.018 Y77.25 E49.58372
G1 X75.205 Y76.97 E49.63344
G1 X75.396 Y76.71 E49.68109
G0 F6000 X75.849 Y77.443
G1 F1200 X76.04 Y77.183 E49.72873
G1 X76.33 Y76.834 E49.79574
G1 X76.481 Y76.672 E49.82844
G1 X76.711 Y76.444 E49.87627
G1 X76.902 Y76.272 E49.91423
G1 X77.174 Y76.048 E49.96626
G1 X77.401 Y75.879 E50.00805
G1 X77.695 Y75.683 E50.06023
G1 X77.93 Y75.543 E50.10063
G1 X78.243 Y75.376 E50.15302
G1 X78.48 Y75.263 E50.19179
G1 X78.805 Y75.127 E50.24382
G1 X79.084 Y75.027 E50.28759
G1 X79.422 Y74.926 E50.33968
G1 X79.673 Y74.864 E50.37786
G1 X80.022 Y74.794 E50.43043
G1 X80.295 Y74.753 E50.47119
G1 X80.646 Y74.718 E50.52329
G1 X80.924 Y74.704 E50.56439
G1 X153.9 Y74.7 E61.34112
G1 X154.387 Y74.72 E61.4131
G1 X154.662 Y74.747 E61.45391
G1 X155.013 Y74.799 E61.50631
G1 X155.288 Y74.854 E61.54772
G1 X155.629 Y74.94 E61.59965
G1 X155.881 Y75.017 E61.63857
G1 X156.216 Y75.136 E61.69107
G1 X156.48 Y75.245 E61.73325
G1 X156.798 Y75.396 E61.78523
G1 X157.036 Y75.523 E61.82507
G1 X157.338 Y75.704 E61.87706
G1 X157.557 Y75.849 E61.91585
G1 X157.817 Y76.04 E61.96349
G1 X158.166 Y76.33 E62.0305
G1 X158.328 Y76.481 E62.06321
G1 X158.556 Y76.711 E62.11103
G1 X158.728 Y76.902 E62.14899
G1 X158.952 Y77.174 E62.20102
G1 X159.121 Y77.401 E62.24282
G1 X159.317 Y77.695 E62.295
G1 X159.457 Y77.93 E62.33539
G1 X159.624 Y78.243 E62.38778
G1 X159.737 Y78.48 E62.42656
G1 X159.873 Y78.805 E62.47858
G1 X159.973 Y79.084 E62.52235
G1 X160.074 Y79.422 E62.57445
G1 X160.136 Y79.67 E62.6122
G1 X160.206 Y80.017 E62.66447
G1 X160.247 Y80.293 E62.70568
G1 X160.282 Y80.644 E62.75777
G1 X160.296 Y80.922 E62.79887
G1 X160.296 Y154.076 E73.60189
G1 X160.279 Y154.399 E73.64966
G1 X160.253 Y154.662 E73.68868
G1 X160.201 Y155.013 E73.74108
G1 X160.146 Y155.288 E73.7825
G1 X160.06 Y155.629 E73.83443
G1 X159.984 Y155.879 E73.87302
G1 X159.866 Y156.212 E73.92519
G1 X159.756 Y156.478 E73.9677
G1 X159.604 Y156.798 E74.02002
G1 X159.477 Y157.036 E74.05985
G1 X159.296 Y157.338 E74.11185
G1 X159.151 Y157.557 E74.15063
G1 X158.96 Y157.817 E74.19828
G1 X158.67 Y158.166 E74.26529
G1 X158.519 Y158.328 E74.29799
G1 X158.289 Y158.556 E74.34582
G1 X158.098 Y158.728 E74.38377
G1 X157.826 Y158.952 E74.43581
G1 X157.599 Y159.121 E74.4776
G1 X157.305 Y159.317 E74.52978
G1 X157.07 Y159.457 E74.57018
G1 X156.757 Y159.624 E74.62257
G1 X156.52 Y159.737 E74.66134
G1 X156.195 Y159.873 E74.71337
G1 X155.916 Y159.973 E74.75713
G1 X155.578 Y160.074 E74.80923
G1 X155.327 Y160.136 E74.84741
G1 X154.978 Y160.206 E74.89997
G1 X154.705 Y160.247 E74.94074
G1 X154.354 Y160.282 E74.99283
G1 X154.076 Y160.296 E75.03394
G1 X80.924 Y160.296 E85.83666
G1 X80.646 Y160.282 E85.87777
G1 X80.295 Y160.247 E85.92986
G1 X80.022 Y160.206 E85.97062
G1 X79.673 Y160.136 E86.02319
G1 X79.422 Y160.074 E86.06137
G1 X79.084 Y159.973 E86.11347
G1 X78.805 Y159.873 E86.15723
G1 X78.48 Y159.737 E86.20926
G1 X78.243 Y159.624 E86.24803
G1 X77.93 Y159.457 E86.30042
G1 X77.695 Y159.317 E86.34082
G1 X77.401 Y159.121 E86.393
G1 X77.174 Y158.952 E86.43479
G1 X76.902 Y158.728 E86.48683
G1 X76.702 Y158.547 E86.52666
G1 X76.452 Y158.297 E86.57887
G1 X76.27 Y158.096 E86.61891
G1 X76.047 Y157.825 E86.67074
G1 X75.878 Y157.597 E86.71265
G1 X75.681 Y157.301 E86.76516
G1 X75.542 Y157.068 E86.80523
G1 X75.376 Y156.757 E86.85729
G1 X75.263 Y156.521 E86.89593
G1 X75.126 Y156.194 E86.94828
G1 X75.025 Y155.911 E86.99266
G1 X74.925 Y155.575 E87.04443
G1 X74.864 Y155.327 E87.08214
G1 X74.794 Y154.978 E87.13471
G1 X74.753 Y154.706 E87.17533
G1 X74.718 Y154.357 E87.22713
G1 X74.704 Y154.078 E87.26838
G1 X74.703 Y80.965 E98.06534
G1 X74.72 Y80.614 E98.11724
G1 X74.747 Y80.34 E98.15789
G1 X74.799 Y79.988 E98.21044
G1 X74.854 Y79.712 E98.252
G1 X74.94 Y79.371 E98.30393
G1 X75.016 Y79.121 E98.34252
G1 X75.134 Y78.788 E98.39469
G1 X75.244 Y78.522 E98.4372
G1 X75.396 Y78.202 E98.48952
G1 X75.523 Y77.964 E98.52935
G1 X75.704 Y77.662 E98.58135
G1 X75.849 Y77.443 E98.62014
G0 F6000 X76.21 Y78.375
G1 F1200 X76.391 Y78.073 E98.67213
G1 X76.494 Y77.917 E98.69974
G1 X76.781 Y77.536 E98.77018
G1 X77.044 Y77.241 E98.82854
G1 X77.274 Y77.013 E98.87637
G1 X77.411 Y76.889 E98.90365
G1 X77.683 Y76.665 E98.95569
G1 X77.845 Y76.545 E98.98546
G1 X78.139 Y76.349 E99.03764
G1 X78.307 Y76.248 E99.06659
G1 X78.62 Y76.081 E99.11898
G1 X78.789 Y76.001 E99.14659
G1 X79.114 Y75.865 E99.19862
G1 X79.313 Y75.794 E99.22982
G1 X79.651 Y75.693 E99.28191
G1 X79.831 Y75.648 E99.30931
G1 X80.18 Y75.578 E99.36188
G1 X80.375 Y75.549 E99.39099
G1 X80.726 Y75.514 E99.44308
G1 X80.924 Y75.504 E99.47236
G1 X153.9 Y75.5 E110.24909
G1 X154.348 Y75.519 E110.31531
G1 X154.545 Y75.539 E110.34455
G1 X154.896 Y75.591 E110.39695
G1 X155.092 Y75.63 E110.42646
G1 X155.433 Y75.716 E110.4784
G1 X155.613 Y75.77 E110.50615
G1 X155.948 Y75.889 E110.55865
G1 X156.137 Y75.967 E110.58884
G1 X156.455 Y76.118 E110.64083
G1 X156.625 Y76.21 E110.66937
G1 X156.927 Y76.391 E110.72137
G1 X157.083 Y76.494 E110.74897
G1 X157.464 Y76.781 E110.81941
G1 X157.759 Y77.044 E110.87778
G1 X157.987 Y77.274 E110.9256
G1 X158.111 Y77.411 E110.95289
G1 X158.335 Y77.683 E111.00493
G1 X158.455 Y77.845 E111.0347
G1 X158.651 Y78.139 E111.08688
G1 X158.752 Y78.307 E111.11583
G1 X158.919 Y78.62 E111.16822
G1 X158.999 Y78.789 E111.19583
G1 X159.135 Y79.114 E111.24785
G1 X159.206 Y79.313 E111.27906
G1 X159.307 Y79.651 E111.33115
G1 X159.352 Y79.829 E111.35826
G1 X159.422 Y80.176 E111.41054
G1 X159.451 Y80.373 E111.43995
G1 X159.486 Y80.724 E111.49204
G1 X159.496 Y80.922 E111.52131
G1 X159.497 Y154.034 E122.31813
G1 X159.48 Y154.357 E122.36589
G1 X159.461 Y154.545 E122.3938
G1 X159.409 Y154.896 E122.4462
G1 X159.37 Y155.092 E122.47571
G1 X159.284 Y155.433 E122.52764
G1 X159.23 Y155.612 E122.55525
G1 X159.112 Y155.945 E122.60742
G1 X159.034 Y156.135 E122.63776
G1 X158.882 Y156.455 E122.69007
G1 X158.79 Y156.625 E122.71862
G1 X158.609 Y156.927 E122.77061
G1 X158.506 Y157.083 E122.79822
G1 X158.219 Y157.464 E122.86866
G1 X157.956 Y157.759 E122.92702
G1 X157.726 Y157.987 E122.97485
G1 X157.589 Y158.111 E123.00214
G1 X157.317 Y158.335 E123.05417
G1 X157.155 Y158.455 E123.08394
G1 X156.861 Y158.651 E123.13612
G1 X156.693 Y158.752 E123.16507
G1 X156.38 Y158.919 E123.21746
G1 X156.211 Y158.999 E123.24507
G1 X155.886 Y159.135 E123.2971
G1 X155.687 Y159.206 E123.3283
G1 X155.349 Y159.307 E123.3804
G1 X155.169 Y159.352 E123.4078
G1 X154.82 Y159.422 E123.46036
G1 X154.625 Y159.451 E123.48947
G1 X154.274 Y159.486 E123.54156
G1 X154.076 Y159.496 E123.57084
G1 X80.924 Y159.496 E134.37356
G1 X80.726 Y159.486 E134.40284
G1 X80.375 Y159.451 E134.45493
G1 X80.18 Y159.422 E134.48404
G1 X79.831 Y159.352 E134.53661
G1 X79.651 Y159.307 E134.56401
G1 X79.313 Y159.206 E134.6161
G1 X79.114 Y159.135 E134.64731
G1 X78.789 Y158.999 E134.69933
G1 X78.62 Y158.919 E134.72694
G1 X78.307 Y158.752 E134.77933
G1 X78.139 Y158.651 E134.80828
G1 X77.845 Y158.455 E134.86046
G1 X77.683 Y158.335 E134.89023
G1 X77.411 Y158.111 E134.94227
G1 X77.268 Y157.981 E134.97081
G1 X77.018 Y157.731 E135.02302
G1 X76.888 Y157.588 E135.05156
G1 X76.665 Y157.317 E135.10339
G1 X76.544 Y157.154 E135.13337
G1 X76.347 Y156.858 E135.18587
G1 X76.248 Y156.692 E135.21442
G1 X76.082 Y156.381 E135.26648
G1 X76.001 Y156.212 E135.29415
G1 X75.864 Y155.885 E135.34651
G1 X75.792 Y155.683 E135.37818
G1 X75.692 Y155.347 E135.42995
G1 X75.648 Y155.169 E135.45702
G1 X75.578 Y154.82 E135.50959
G1 X75.549 Y154.627 E135.53841
G1 X75.514 Y154.278 E135.59021
G1 X75.504 Y154.078 E135.61978
G1 X75.502 Y81.003 E146.41113
G1 X75.519 Y80.652 E146.46302
G1 X75.538 Y80.457 E146.49196
G1 X75.59 Y80.105 E146.5445
G1 X75.63 Y79.908 E146.57419
G1 X75.716 Y79.567 E146.62612
G1 X75.77 Y79.388 E146.65373
G1 X75.888 Y79.055 E146.7059
G1 X75.966 Y78.865 E146.73624
G1 X76.118 Y78.545 E146.78855
G1 X76.21 Y78.375 E146.8171
G0 F6000 X76.689 Y79.208
G1 F1200 X76.896 Y78.786 E146.88651
G1 X77.139 Y78.391 E146.95499
G1 X77.388 Y78.058 E147.0164
G1 X77.607 Y77.809 E147.06537
G1 X77.919 Y77.507 E147.12949
G1 X78.288 Y77.211 E147.19935
G1 X78.683 Y76.954 E147.26894
G1 X79.098 Y76.739 E147.33796
G1 X79.542 Y76.56 E147.40866
G1 X79.988 Y76.432 E147.47718
G1 X80.454 Y76.345 E147.54719
G1 X80.924 Y76.304 E147.61686
G1 X153.9 Y76.3 E158.39359
G1 X154.31 Y76.318 E158.45419
G1 X154.779 Y76.382 E158.52409
G1 X155.237 Y76.491 E158.59362
G1 X155.681 Y76.643 E158.66292
G1 X156.112 Y76.841 E158.73296
G1 X156.516 Y77.077 E158.80206
G1 X156.869 Y77.33 E158.86619
G1 X157.122 Y77.543 E158.91503
G1 X157.419 Y77.837 E158.97675
G1 X157.717 Y78.191 E159.04508
G1 X157.985 Y78.582 E159.11508
G1 X158.213 Y78.996 E159.18488
G1 X158.397 Y79.423 E159.25354
G1 X158.44 Y79.542 E159.27223
G1 X158.567 Y79.987 E159.34057
G1 X158.655 Y80.452 E159.41045
G1 X158.696 Y80.922 E159.48013
G1 X158.698 Y153.992 E170.27074
G1 X158.67 Y154.428 E170.33526
G1 X158.595 Y154.896 E170.40525
G1 X158.476 Y155.345 E170.47385
G1 X158.311 Y155.792 E170.54421
G1 X158.104 Y156.214 E170.61362
G1 X157.861 Y156.609 E170.68211
G1 X157.612 Y156.942 E170.74351
G1 X157.393 Y157.191 E170.79248
G1 X157.081 Y157.493 E170.8566
G1 X156.712 Y157.789 E170.92646
G1 X156.317 Y158.046 E170.99605
G1 X155.902 Y158.261 E171.06508
G1 X155.458 Y158.44 E171.13577
G1 X155.012 Y158.568 E171.20429
G1 X154.546 Y158.655 E171.2743
G1 X154.076 Y158.696 E171.34397
G1 X80.924 Y158.696 E182.14669
G1 X80.454 Y158.655 E182.21636
G1 X79.988 Y158.568 E182.28637
G1 X79.542 Y158.44 E182.35489
G1 X79.098 Y158.261 E182.42558
G1 X78.683 Y158.046 E182.49461
G1 X78.288 Y157.789 E182.5642
G1 X77.919 Y157.493 E182.63406
G1 X77.583 Y157.166 E182.70329
G1 X77.282 Y156.808 E182.77236
G1 X77.013 Y156.415 E182.84269
G1 X76.787 Y156.004 E182.91196
G1 X76.602 Y155.576 E182.98082
G1 X76.459 Y155.118 E183.05167
G1 X76.362 Y154.663 E183.12037
G1 X76.31 Y154.198 E183.18947
G1 X76.304 Y154.078 E183.20721
G1 X76.301 Y81.042 E193.9928
G1 X76.33 Y80.574 E194.06205
G1 X76.405 Y80.104 E194.13233
G1 X76.524 Y79.655 E194.20093
G1 X76.689 Y79.208 E194.27129
G0 F6000 X77.278 Y79.922
G1 F1200 X77.412 Y79.551 E194.32955
G1 X77.582 Y79.197 E194.38754
G1 X77.784 Y78.864 E194.44505
G1 X77.994 Y78.58 E194.49721
G1 X78.17 Y78.377 E194.53689
G1 X78.428 Y78.124 E194.59025
G1 X78.732 Y77.876 E194.64819
G1 X79.06 Y77.66 E194.70619
G1 X79.407 Y77.477 E194.76412
G1 X79.771 Y77.327 E194.82226
G1 X80.145 Y77.217 E194.87983
G1 X80.533 Y77.141 E194.93821
G1 X80.924 Y77.104 E194.99621
G1 X153.919 Y77.1 E205.77575
G1 X154.311 Y77.121 E205.83372
G1 X154.701 Y77.181 E205.89199
G1 X155.078 Y77.278 E205.94948
G1 X155.451 Y77.413 E206.00806
G1 X155.803 Y77.582 E206.06572
G1 X156.136 Y77.784 E206.12324
G1 X156.42 Y77.994 E206.1754
G1 X156.623 Y78.17 E206.21507
G1 X156.876 Y78.428 E206.26844
G1 X157.124 Y78.732 E206.32637
G1 X157.34 Y79.06 E206.38437
G1 X157.523 Y79.407 E206.4423
G1 X157.673 Y79.771 E206.50044
G1 X157.783 Y80.145 E206.55801
G1 X157.859 Y80.531 E206.61611
G1 X157.896 Y80.922 E206.67411
G1 X157.899 Y153.95 E217.45852
G1 X157.879 Y154.311 E217.51191
G1 X157.819 Y154.701 E217.57018
G1 X157.722 Y155.078 E217.62767
G1 X157.588 Y155.449 E217.68592
G1 X157.418 Y155.803 E217.74391
G1 X157.216 Y156.136 E217.80143
G1 X157.006 Y156.42 E217.85359
G1 X156.83 Y156.623 E217.89326
G1 X156.572 Y156.876 E217.94662
G1 X156.268 Y157.124 E218.00456
G1 X155.94 Y157.34 E218.06256
G1 X155.593 Y157.523 E218.12049
