;FLAVOR:Marlin
;TIME:1059
;Filament used: 2.60445m
;Layer height: 0.32
;MINX:75.65
;MINY:71.4
;MINZ:0.32
;MAXX:144.35
;MAXY:148.6
;MAXZ:7.04
;Generated with Cura_SteamEngine main
M140 S80
M105
M190 S80
M104 S240
M105
M109 S240
M82 ;absolute extrusion mode
; Ender 3 Custom Start G-code
G92 E0 ; Reset Extruder
G28 ; Home all axes
G1 Z2.0 F3000 ; Move Z Axis up little to prevent scratching of Heat Bed
G1 X0.1 Y20 Z0.3 F5000.0 ; Move to start position
G1 X0.1 Y200.0 Z0.3 F1500.0 E15 ; Draw the first line
G1 X0.4 Y200.0 Z0.3 F5000.0 ; Move to side a little
G1 X0.4 Y20 Z0.3 F1500.0 E30 ; Draw the second line
G92 E0 ; Reset Extruder
G1 Z2.0 F3000 ; Move Z Axis up little to prevent scratching of Heat Bed
G1 X5 Y20 Z0.3 F5000.0 ; Move over to prevent blob squish
G92 E0
G92 E0
G1 F1500 E-5
;LAYER_COUNT:22
;LAYER:0
M107
G0 F7500 X76.605 Y72.558 Z0.32
G0 X75.65 Y75
;TYPE:SKIRT
G1 F1500 E0
G1 X75.69 Y74.465 E0.0571
G1 X75.809 Y73.942 E0.11419
G1 X76.004 Y73.443 E0.17121
G1 X76.272 Y72.978 E0.22833
G1 X76.605 Y72.558 E0.28538
G1 X76.997 Y72.192 E0.34246
G1 X77.439 Y71.889 E0.39949
G1 X77.922 Y71.654 E0.45666
G1 X78.433 Y71.494 E0.51365
G1 X78.963 Y71.411 E0.57075
G1 X79.25 Y71.4 E0.60132
G1 X109.25 Y71.4 E3.79429
G1 X109.785 Y71.44 E3.85139
G1 X109.986 Y71.486 E3.87334
G1 X110.463 Y71.411 E3.92473
G1 X110.75 Y71.4 E3.9553
G1 X140.75 Y71.4 E7.14827
G1 X141.285 Y71.44 E7.20537
G1 X141.808 Y71.559 E7.26246
G1 X142.307 Y71.754 E7.31948
G1 X142.772 Y72.022 E7.3766
G1 X143.192 Y72.355 E7.43365
G1 X143.558 Y72.747 E7.49073
G1 X143.861 Y73.189 E7.54776
G1 X144.096 Y73.672 E7.60493
G1 X144.256 Y74.183 E7.66192
G1 X144.339 Y74.713 E7.71902
G1 X144.35 Y75 E7.74959
G1 X144.35 Y145 E15.19986
G1 X144.31 Y145.535 E15.25696
G1 X144.191 Y146.058 E15.31405
G1 X143.996 Y146.557 E15.37107
G1 X143.728 Y147.022 E15.42819
G1 X143.395 Y147.442 E15.48524
G1 X143.003 Y147.808 E15.54232
G1 X142.561 Y148.111 E15.59935
G1 X142.078 Y148.346 E15.65652
G1 X141.567 Y148.506 E15.71351
G1 X141.037 Y148.589 E15.77061
G1 X140.75 Y148.6 E15.80118
G1 X110.75 Y148.6 E18.99415
G1 X110.215 Y148.56 E19.05125
G1 X110.014 Y148.514 E19.0732
G1 X109.537 Y148.589 E19.12459
G1 X109.25 Y148.6 E19.15516
G1 X79.25 Y148.6 E22.34813
G1 X78.715 Y148.56 E22.40523
G1 X78.192 Y148.441 E22.46232
G1 X77.693 Y148.246 E22.51934
G1 X77.228 Y147.978 E22.57646
G1 X76.808 Y147.645 E22.63351
G1 X76.442 Y147.253 E22.69059
G1 X76.139 Y146.811 E22.74762
G1 X75.904 Y146.328 E22.80479
G1 X75.744 Y145.817 E22.86178
G1 X75.661 Y145.287 E22.91888
G1 X75.65 Y145 E22.94945
G1 X75.65 Y75 E30.39972
G0 F7500 X76.45 Y75
G1 F1500 X76.49 Y74.529 E30.45003
G1 X76.609 Y74.071 E30.50039
G1 X76.803 Y73.64 E30.5507
G1 X77.066 Y73.247 E30.60103
G1 X77.392 Y72.905 E30.65131
G1 X77.771 Y72.622 E30.70166
G1 X78.193 Y72.407 E30.75206
G1 X78.644 Y72.266 E30.80236
G1 X79.25 Y72.2 E30.86724
G1 X109.25 Y72.2 E34.06021
G1 X109.721 Y72.24 E34.11052
G1 X109.997 Y72.312 E34.14088
G1 X110.144 Y72.266 E34.15727
G1 X110.75 Y72.2 E34.22215
G1 X140.75 Y72.2 E37.41512
G1 X141.221 Y72.24 E37.46543
G1 X141.679 Y72.359 E37.5158
G1 X142.11 Y72.553 E37.5661
G1 X142.503 Y72.816 E37.61643
G1 X142.845 Y73.142 E37.66672
G1 X143.128 Y73.521 E37.71706
G1 X143.343 Y73.943 E37.76747
G1 X143.484 Y74.394 E37.81776
G1 X143.55 Y75 E37.88264
G1 X143.55 Y145 E45.33291
G1 X143.51 Y145.471 E45.38322
G1 X143.391 Y145.929 E45.43359
G1 X143.197 Y146.36 E45.48389
G1 X142.934 Y146.753 E45.53422
G1 X142.608 Y147.095 E45.58451
G1 X142.229 Y147.378 E45.63485
G1 X141.807 Y147.593 E45.68526
G1 X141.356 Y147.734 E45.73555
G1 X140.75 Y147.8 E45.80043
G1 X110.75 Y147.8 E48.99341
G1 X110.279 Y147.76 E49.04372
G1 X110.003 Y147.688 E49.07407
G1 X109.856 Y147.734 E49.09047
G1 X109.25 Y147.8 E49.15535
G1 X79.25 Y147.8 E52.34832
G1 X78.779 Y147.76 E52.39863
G1 X78.321 Y147.641 E52.449
G1 X77.89 Y147.447 E52.4993
G1 X77.497 Y147.184 E52.54963
G1 X77.155 Y146.858 E52.59992
G1 X76.872 Y146.479 E52.65026
G1 X76.657 Y146.057 E52.70067
G1 X76.516 Y145.606 E52.75096
G1 X76.45 Y145 E52.81584
G1 X76.45 Y75 E60.26611
G0 F7500 X77.25 Y75
G1 F1500 X77.29 Y74.602 E60.30868
G1 X77.408 Y74.221 E60.35114
G1 X77.6 Y73.87 E60.39372
G1 X77.857 Y73.565 E60.43617
G1 X78.17 Y73.317 E60.47867
G1 X78.526 Y73.136 E60.52118
G1 X78.911 Y73.029 E60.5637
G1 X79.25 Y73 E60.59992
G1 X109.25 Y73 E63.79289
G1 X109.648 Y73.04 E63.83546
G1 X109.99 Y73.146 E63.87357
G1 X110.411 Y73.029 E63.92008
G1 X110.75 Y73 E63.95629
G1 X140.75 Y73 E67.14926
G1 X141.148 Y73.04 E67.19184
G1 X141.529 Y73.158 E67.23429
G1 X141.88 Y73.35 E67.27687
G1 X142.185 Y73.607 E67.31932
G1 X142.433 Y73.92 E67.36182
G1 X142.614 Y74.276 E67.40433
G1 X142.721 Y74.661 E67.44686
G1 X142.75 Y75 E67.48307
G1 X142.75 Y145 E74.93334
G1 X142.71 Y145.398 E74.97591
G1 X142.592 Y145.779 E75.01836
G1 X142.4 Y146.13 E75.06095
G1 X142.143 Y146.435 E75.1034
G1 X141.83 Y146.683 E75.1459
G1 X141.474 Y146.864 E75.1884
G1 X141.089 Y146.971 E75.23093
G1 X140.75 Y147 E75.26715
G1 X110.75 Y147 E78.46012
G1 X110.352 Y146.96 E78.50269
G1 X110.01 Y146.854 E78.5408
G1 X109.589 Y146.971 E78.58731
G1 X109.25 Y147 E78.62352
G1 X79.25 Y147 E81.81649
G1 X78.852 Y146.96 E81.85907
G1 X78.471 Y146.842 E81.90152
G1 X78.12 Y146.65 E81.9441
G1 X77.815 Y146.393 E81.98655
G1 X77.567 Y146.08 E82.02905
G1 X77.386 Y145.724 E82.07156
G1 X77.279 Y145.339 E82.11409
G1 X77.25 Y145 E82.1503
G1 X77.25 Y75 E89.60057
G0 F7500 X78.05 Y75
G1 F1500 X78.09 Y74.693 E89.63352
G1 X78.207 Y74.407 E89.66641
G1 X78.393 Y74.16 E89.69932
G1 X78.636 Y73.969 E89.73221
G1 X78.92 Y73.846 E89.76515
G1 X79.25 Y73.8 E89.80062
G1 X109.25 Y73.8 E92.99359
G1 X109.557 Y73.84 E93.02654
G1 X109.843 Y73.957 E93.05943
G1 X110 Y74.076 E93.0804
G1 X110.136 Y73.969 E93.09881
G1 X110.42 Y73.846 E93.13175
G1 X110.75 Y73.8 E93.16722
G1 X140.75 Y73.8 E96.36019
G1 X141.057 Y73.84 E96.39314
G1 X141.343 Y73.957 E96.42603
G1 X141.59 Y74.143 E96.45894
G1 X141.781 Y74.386 E96.49183
G1 X141.904 Y74.67 E96.52477
G1 X141.95 Y75 E96.56024
G1 X141.95 Y145 E104.01051
G1 X141.91 Y145.307 E104.04346
G1 X141.793 Y145.593 E104.07634
G1 X141.607 Y145.84 E104.10925
G1 X141.364 Y146.031 E104.14215
G1 X141.08 Y146.154 E104.17509
G1 X140.75 Y146.2 E104.21055
G1 X110.75 Y146.2 E107.40353
G1 X110.443 Y146.16 E107.43648
G1 X110.157 Y146.043 E107.46936
G1 X110 Y145.924 E107.49033
G1 X109.864 Y146.031 E107.50875
G1 X109.58 Y146.154 E107.54169
G1 X109.25 Y146.2 E107.57715
G1 X79.25 Y146.2 E110.77012
G1 X78.943 Y146.16 E110.80308
G1 X78.657 Y146.043 E110.83596
G1 X78.41 Y145.857 E110.86887
G1 X78.219 Y145.614 E110.90177
G1 X78.096 Y145.33 E110.93471
G1 X78.05 Y145 E110.97017
G1 X78.05 Y75 E118.42044
G0 F7500 X78.85 Y75
G1 F1500 X78.89 Y74.827 E118.43934
G1 X79 Y74.688 E118.45821
G1 X79.181 Y74.6 E118.47963
G1 X109.25 Y74.6 E121.67994
G1 X109.423 Y74.64 E121.69884
G1 X109.562 Y74.75 E121.71771
G1 X109.65 Y74.931 E121.73913
G1 X109.65 Y145 E129.19674
G1 X109.611 Y145.173 E129.21562
G1 X109.5 Y145.312 E129.23455
G1 X109.319 Y145.4 E129.25597
G1 X79.25 Y145.4 E132.45629
G1 X79.077 Y145.361 E132.47516
G1 X78.938 Y145.25 E132.49409
G1 X78.85 Y145.069 E132.51552
G1 X78.85 Y75 E139.97313
G1 F1500 E134.97313
G0 F7500 X78.585 Y75
G0 X78.597 Y74.347
G0 X109.903 Y74.347
G0 X109.915 Y75
G0 X110.35 Y75
G1 F1500 E139.97313
G1 X110.39 Y74.827 E139.99203
G1 X110.5 Y74.688 E140.01089
G1 X110.681 Y74.6 E140.03231
G1 X140.75 Y74.6 E143.23263
G1 X140.923 Y74.64 E143.25153
G1 X141.062 Y74.75 E143.2704
G1 X141.15 Y74.931 E143.29182
G1 X141.15 Y145 E150.74943
G1 X141.111 Y145.173 E150.76831
G1 X141 Y145.312 E150.78724
G1 X140.819 Y145.4 E150.80866
G1 X110.75 Y145.4 E154.00897
G1 X110.577 Y145.361 E154.02785
G1 X110.438 Y145.25 E154.04678
G1 X110.35 Y145.069 E154.0682
G1 X110.35 Y75 E161.52582
G1 F1500 E156.52582
;MESH:enclosure_vizor.stl
G0 F7500 X108.436 Y75.814
G0 X108.05 Y76.2
;TYPE:WALL-INNER
G1 F1500 E161.52582
G1 X80.45 Y76.2 E164.46335
G1 X80.45 Y143.8 E171.65818
G1 X108.05 Y143.8 E174.59572
G1 X108.05 Y90 E180.32178
G1 X108.05 Y76.2 E181.79055
G0 F7500 X108.38 Y75.87
G0 X108.85 Y75.4
;TYPE:WALL-OUTER
G1 F1500 X79.65 Y75.4 E184.89838
G1 X79.65 Y144.6 E192.2635
G1 X108.85 Y144.6 E195.37133
G1 X108.85 Y90 E201.18254
G1 X108.85 Y75.4 E202.73645
G0 F7500 X108.38 Y75.87
G0 X107.25 Y76.5
G0 X107.25 Y77
;TYPE:SKIN
G1 F1500 X81.25 Y77 E205.5037
G1 X81.25 Y143 E212.52824
G1 X107.25 Y143 E215.29548
G1 X107.25 Y90 E220.9364
G1 X107.25 Y77 E222.32002
G0 F7500 X107.25 Y76.5
G0 X106.45 Y76.5
G0 X106.45 Y77.8
G1 F1500 X82.05 Y77.8 E224.91697
G1 X82.05 Y142.2 E231.77122
G1 X106.45 Y142.2 E234.36817
G1 X106.45 Y130 E235.66665
G1 X106.45 Y77.8 E241.22242
G0 F7500 X106.45 Y76.5
G0 X105.65 Y76.6
G0 X105.65 Y78.6
G1 F1500 X82.85 Y78.6 E243.64908
G1 X82.85 Y141.4 E250.33304
G1 X105.65 Y141.4 E252.7597
G1 X105.65 Y90 E258.23032
G1 X105.65 Y78.6 E259.44365
G0 F7500 X104.85 Y79.4
G1 F1500 X83.65 Y79.4 E261.70002
G1 X83.65 Y140.6 E268.21369
G1 X104.85 Y140.6 E270.47005
G1 X104.85 Y90 E275.85554
G1 X104.85 Y79.4 E276.98372
G0 F7500 X104.05 Y80.2
G1 F1500 X84.45 Y80.2 E279.06979
G1 X84.45 Y139.8 E285.41317
G1 X104.05 Y139.8 E287.49924
G1 X104.05 Y90 E292.79958
G1 X104.05 Y80.2 E293.84262
G0 F7500 X103.25 Y81
G1 F1500 X85.25 Y81 E295.7584
G1 X85.25 Y139 E301.93148
G1 X103.25 Y139 E303.84727
G1 X103.25 Y130 E304.80516
G1 X103.25 Y81 E310.02035
G0 F7500 X102.45 Y81.8
G1 F1500 X86.05 Y81.8 E311.76584
G1 X86.05 Y138.2 E317.76863
G1 X102.45 Y138.2 E319.51412
G1 X102.45 Y90 E324.64416
G1 X102.45 Y81.8 E325.51691
G0 F7500 X101.65 Y82.6
G1 F1500 X86.85 Y82.6 E327.09211
G1 X86.85 Y137.4 E332.92461
G1 X101.65 Y137.4 E334.49981
G1 X101.65 Y90 E339.5447
G1 X101.65 Y82.6 E340.3323
G0 F7500 X100.85 Y83.4
G1 F1500 X87.65 Y83.4 E341.73721
G1 X87.65 Y136.6 E347.39942
G1 X100.85 Y136.6 E348.80432
G1 X100.85 Y90 E353.76408
G1 X100.85 Y83.4 E354.46653
G0 F7500 X100.05 Y84.2
G1 F1500 X88.45 Y84.2 E355.70115
G1 X88.45 Y135.8 E361.19306
G1 X100.05 Y135.8 E362.42768
G1 X100.05 Y90 E367.30228
G1 X100.05 Y84.2 E367.91959
G0 F7500 X99.25 Y85
G1 F1500 X89.25 Y85 E368.98391
G1 X89.25 Y135 E374.30554
G1 X94.25 Y135 E374.8377
G1 X99.25 Y135 E375.36986
G1 X99.25 Y85 E380.69148
G0 F7500 X98.45 Y85.8
G1 F1500 X90.05 Y85.8 E381.58551
G1 X90.05 Y134.2 E386.73684
G1 X98.45 Y134.2 E387.63088
G1 X98.45 Y90 E392.33519
G1 X98.45 Y85.8 E392.78221
G0 F7500 X97.65 Y86.6
G1 F1500 X90.85 Y86.6 E393.50595
G1 X90.85 Y133.4 E398.48698
G1 X97.65 Y133.4 E399.21072
G1 X97.65 Y90 E403.82989
G1 X97.65 Y86.6 E404.19176
G0 F7500 X96.85 Y87.4
G1 F1500 X91.65 Y87.4 E404.74521
G1 X91.65 Y132.6 E409.55596
G1 X96.85 Y132.6 E410.10941
G1 X96.85 Y90 E414.64343
G1 X96.85 Y87.4 E414.92015
G0 F7500 X94.25 Y90
G1 F1000 X94.25 Y130 E421.3061
G0 F7500 X93.25 Y131
G1 F1500 X95.25 Y131 E421.51896
G1 X95.25 Y90 E425.88269
G1 X95.25 Y89 E425.98912
G1 X93.25 Y89 E426.20199
G1 X93.25 Y131 E430.67215
G0 F7500 X92.45 Y131.8
G1 F1500 X96.05 Y131.8 E431.05531
G1 X96.05 Y90 E435.50418
G1 X96.05 Y88.2 E435.69576
G1 X92.45 Y88.2 E436.07892
G1 X92.45 Y131.8 E440.71937
G1 F1500 E435.71937
;MESH:enclosure_vizor.stl(1)
G0 F7500 X92.45 Y145.665
G0 X109.903 Y145.653
G0 X110.085 Y131.8
G0 X111.95 Y143.8
;TYPE:WALL-INNER
G1 F1500 E440.71937
G1 X139.55 Y143.8 E443.65691
G1 X139.55 Y76.2 E450.85174
G1 X111.95 Y76.2 E453.78928
G1 X111.95 Y143.8 E460.98411
G0 F7500 X111.62 Y144.13
G0 X111.15 Y144.6
;TYPE:WALL-OUTER
G1 F1500 X140.35 Y144.6 E464.09193
G1 X140.35 Y75.4 E471.45706
G1 X111.15 Y75.4 E474.56489
G1 X111.15 Y144.6 E481.93001
G0 F7500 X111.62 Y144.13
G0 X112.25 Y143
G0 X112.75 Y143
;TYPE:SKIN
G1 F1500 X138.75 Y143 E484.69725
G1 X138.75 Y90 E490.33817
G1 X138.75 Y77 E491.72179
G1 X112.75 Y77 E494.48904
G1 X112.75 Y143 E501.51358
G0 F7500 X112.25 Y143
G0 X112.25 Y142.2
G0 X113.55 Y142.2
G1 F1500 X137.95 Y142.2 E504.11053
G1 X137.95 Y77.8 E510.96478
G1 X113.55 Y77.8 E513.56173
G1 X113.55 Y142.2 E520.41598
G0 F7500 X112.25 Y142.2
G0 X112.35 Y141.4
G0 X114.35 Y141.4
G1 F1500 X137.15 Y141.4 E522.84264
G1 X137.15 Y90 E528.31326
G1 X137.15 Y78.6 E529.52659
G1 X114.35 Y78.6 E531.95325
G1 X114.35 Y141.4 E538.63721
G0 F7500 X115.15 Y140.6
G1 F1500 X136.35 Y140.6 E540.89358
G1 X136.35 Y90 E546.27906
G1 X136.35 Y79.4 E547.40724
G1 X115.15 Y79.4 E549.66361
G1 X115.15 Y140.6 E556.17728
G0 F7500 X115.95 Y139.8
G1 F1500 X135.55 Y139.8 E558.26335
G1 X135.55 Y90 E563.56369
G1 X135.55 Y80.2 E564.60672
G1 X115.95 Y80.2 E566.6928
G1 X115.95 Y139.8 E573.03617
G0 F7500 X116.75 Y139
G1 F1500 X134.75 Y139 E574.95196
G1 X134.75 Y90 E580.16715
G1 X134.75 Y81 E581.12504
G1 X116.75 Y81 E583.04082
G1 X116.75 Y139 E589.2139
G0 F7500 X117.55 Y138.2
G1 F1500 X133.95 Y138.2 E590.95939
G1 X133.95 Y90 E596.08944
G1 X133.95 Y81.8 E596.96218
G1 X117.55 Y81.8 E598.70768
G1 X117.55 Y138.2 E604.71046
G0 F7500 X118.35 Y137.4
G1 F1500 X133.15 Y137.4 E606.28566
G1 X133.15 Y90 E611.33056
G1 X133.15 Y82.6 E612.11816
G1 X118.35 Y82.6 E613.69336
G1 X118.35 Y137.4 E619.52586
G0 F7500 X119.15 Y136.6
G1 F1500 X132.35 Y136.6 E620.93077
G1 X132.35 Y90 E625.89052
G1 X132.35 Y83.4 E626.59297
G1 X119.15 Y83.4 E627.99788
G1 X119.15 Y136.6 E633.66009
G0 F7500 X119.95 Y135.8
G1 F1500 X131.55 Y135.8 E634.8947
G1 X131.55 Y90 E639.76931
G1 X131.55 Y84.2 E640.38662
G1 X119.95 Y84.2 E641.62123
G1 X119.95 Y135.8 E647.11315
G0 F7500 X120.75 Y135
G1 F1500 X130.75 Y135 E648.17747
G1 X130.75 Y90 E652.96693
G1 X130.75 Y85 E653.49909
G1 X120.75 Y85 E654.56342
G1 X120.75 Y135 E659.88504
G0 F7500 X121.55 Y134.2
G1 F1500 X129.95 Y134.2 E660.77907
G1 X129.95 Y90 E665.48338
G1 X129.95 Y85.8 E665.9304
G1 X121.55 Y85.8 E666.82443
G1 X121.55 Y134.2 E671.97576
G0 F7500 X122.35 Y133.4
G1 F1500 X129.15 Y133.4 E672.6995
G1 X129.15 Y90 E677.31867
G1 X129.15 Y86.6 E677.68054
G1 X122.35 Y86.6 E678.40428
G1 X122.35 Y133.4 E683.38532
G0 F7500 X123.15 Y132.6
G1 F1500 X128.35 Y132.6 E683.93877
G1 X128.35 Y90 E688.47279
G1 X128.35 Y87.4 E688.74951
G1 X123.15 Y87.4 E689.30296
G1 X123.15 Y132.6 E694.11371
G0 F7500 X123.95 Y131.8
G1 F1500 X127.55 Y131.8 E694.49686
G1 X127.55 Y90 E698.94574
G1 X127.55 Y88.2 E699.13732
G1 X123.95 Y88.2 E699.52047
G1 X123.95 Y131.8 E704.16093
G0 F7500 X124.75 Y131
G1 F1500 X126.75 Y131 E704.37379
G1 X126.75 Y90 E708.73752
G1 X126.75 Y89 E708.84396
G1 X124.75 Y89 E709.05682
G1 X124.75 Y131 E713.52698
G0 F7500 X125.75 Y130
G1 F1000 X125.75 Y90 E719.91293
G1 F1500 E714.91293
;MESH:NONMESH
G0 F300 X125.75 Y90 Z0.64
G0 F7500 X141.415 Y90
G0 X141.403 Y74.347
G0 X110.097 Y74.347
G0 X109.915 Y90
G0 X80.45 Y76.2
;TIME_ELAPSED:288.688454
;LAYER:1
;TYPE:WALL-INNER
;MESH:enclosure_vizor.stl
G1 F1500 E719.91293
G1 X80.45 Y143.8 E727.10776
G1 X108.05 Y143.8 E730.0453
G1 X108.05 Y90 E735.77136
G1 X108.05 Y76.2 E737.24013
G1 X80.45 Y76.2 E740.17766
G0 F8000 X80.12 Y75.87
G0 X79.65 Y75.4
;TYPE:WALL-OUTER
G1 F1500 X79.65 Y144.6 E747.54279
G1 X108.85 Y144.6 E750.65062
G1 X108.85 Y90 E756.46183
G1 X108.85 Y75.4 E758.01574
G1 X79.65 Y75.4 E761.12357
G0 F8000 X80.12 Y75.87
G0 X80.75 Y77
G0 X81.25 Y77
;TYPE:SKIN
G1 F1500 X81.25 Y143 E768.14811
G1 X107.25 Y143 E770.91535
G1 X107.25 Y90 E776.55627
G1 X107.25 Y77 E777.93989
G1 X81.25 Y77 E780.70713
G0 F8000 X80.75 Y77
G0 X80.75 Y77.8
G0 X82.05 Y77.8
G1 F1500 X82.05 Y142.2 E787.56138
G1 X106.45 Y142.2 E790.15833
G1 X106.45 Y90 E795.71411
G1 X106.45 Y77.8 E797.01258
G1 X82.05 Y77.8 E799.60953
G0 F8000 X80.75 Y77.8
G0 X80.85 Y78.6
G0 X82.85 Y78.6
G1 F1500 X82.85 Y141.4 E806.29349
G1 X105.65 Y141.4 E808.72015
G1 X105.65 Y90 E814.19078
G1 X105.65 Y78.6 E815.40411
G1 X82.85 Y78.6 E817.83077
G0 F8000 X83.65 Y79.4
G1 F1500 X83.65 Y140.6 E824.34443
G1 X104.85 Y140.6 E826.6008
G1 X104.85 Y90 E831.98628
G1 X104.85 Y79.4 E833.11446
G1 X83.65 Y79.4 E835.37083
G0 F8000 X84.45 Y80.2
G1 F1500 X84.45 Y139.8 E841.7142
G1 X104.05 Y139.8 E843.80028
G1 X104.05 Y90 E849.10061
G1 X104.05 Y80.2 E850.14365
G1 X84.45 Y80.2 E852.22973
G0 F8000 X85.25 Y81
G1 F1500 X85.25 Y139 E858.40281
G1 X103.25 Y139 E860.31859
G1 X103.25 Y90 E865.53378
G1 X103.25 Y81 E866.49167
G1 X85.25 Y81 E868.40746
G0 F8000 X86.05 Y81.8
G1 F1500 X86.05 Y138.2 E874.41025
G1 X102.45 Y138.2 E876.15574
G1 X102.45 Y90 E881.28578
