;FLAVOR:Marlin
;TIME:3878
;Filament used: 8.98988m
;Layer height: 0.32
;MINX:75.654
;MINY:71.4
;MINZ:0.32
;MAXX:144.346
;MAXY:148.6
;MAXZ:29.12
;Generated with Cura_SteamEngine main
M140 S110
M105
M190 S110
M104 S240
M105
M109 S240
M82 ;absolute extrusion mode
; Ender 3 Custom Start G-code
G92 E0 ; Reset Extruder
G28 ; Home all axes
G1 Z2.0 F3000 ; Move Z Axis up little to prevent scratching of Heat Bed
G1 X0.1 Y20 Z0.3 F5000.0 ; Move to start position
G1 X0.1 Y200.0 Z0.3 F1500.0 E15 ; Draw the first line
G1 X0.4 Y200.0 Z0.3 F5000.0 ; Move to side a little
G1 X0.4 Y20 Z0.3 F1500.0 E30 ; Draw the second line
G92 E0 ; Reset Extruder
G1 Z2.0 F3000 ; Move Z Axis up little to prevent scratching of Heat Bed
G1 X5 Y20 Z0.3 F5000.0 ; Move over to prevent blob squish
G92 E0
G92 E0
G1 F2700 E-5
;LAYER_COUNT:91
;LAYER:0
M107
G0 F7500 X76.609 Y72.558 Z0.32
G0 X75.654 Y75
;TYPE:SKIRT
G1 F2700 E0
G1 F1500 X75.694 Y74.465 E0.0571
G1 X75.813 Y73.942 E0.11419
G1 X76.008 Y73.443 E0.17121
G1 X76.276 Y72.978 E0.22833
G1 X76.609 Y72.558 E0.28538
G1 X77.001 Y72.192 E0.34246
G1 X77.443 Y71.889 E0.39949
G1 X77.926 Y71.654 E0.45666
G1 X78.437 Y71.494 E0.51365
G1 X78.967 Y71.411 E0.57075
G1 X79.254 Y71.4 E0.60132
G1 X109.254 Y71.4 E3.79429
G1 X109.789 Y71.44 E3.85139
G1 X109.987 Y71.485 E3.873
G1 X110.459 Y71.411 E3.92385
G1 X110.746 Y71.4 E3.95442
G1 X140.746 Y71.4 E7.14739
G1 X141.281 Y71.44 E7.20449
G1 X141.804 Y71.559 E7.26158
G1 X142.303 Y71.754 E7.3186
G1 X142.768 Y72.022 E7.37572
G1 X143.188 Y72.355 E7.43277
G1 X143.554 Y72.747 E7.48985
G1 X143.857 Y73.189 E7.54689
G1 X144.092 Y73.672 E7.60406
G1 X144.252 Y74.183 E7.66105
G1 X144.335 Y74.713 E7.71814
G1 X144.346 Y75 E7.74871
G1 X144.346 Y145 E15.19898
G1 X144.306 Y145.535 E15.25608
G1 X144.187 Y146.058 E15.31317
G1 X143.992 Y146.557 E15.37019
G1 X143.724 Y147.022 E15.42731
G1 X143.391 Y147.442 E15.48436
G1 X142.999 Y147.808 E15.54144
G1 X142.557 Y148.111 E15.59847
G1 X142.074 Y148.346 E15.65564
G1 X141.563 Y148.506 E15.71263
G1 X141.033 Y148.589 E15.76973
G1 X140.746 Y148.6 E15.8003
G1 X110.746 Y148.6 E18.99327
G1 X110.211 Y148.56 E19.05037
G1 X110.013 Y148.515 E19.07198
G1 X109.541 Y148.589 E19.12283
G1 X109.254 Y148.6 E19.1534
G1 X79.254 Y148.6 E22.34637
G1 X78.719 Y148.56 E22.40347
G1 X78.196 Y148.441 E22.46056
G1 X77.697 Y148.246 E22.51758
G1 X77.232 Y147.978 E22.57471
G1 X76.812 Y147.645 E22.63175
G1 X76.446 Y147.253 E22.68883
G1 X76.143 Y146.811 E22.74587
G1 X75.908 Y146.328 E22.80304
G1 X75.748 Y145.817 E22.86003
G1 X75.665 Y145.287 E22.91712
G1 X75.654 Y145 E22.94769
G1 X75.654 Y75 E30.39796
G0 F7500 X76.454 Y75
G1 F1500 X76.494 Y74.529 E30.44827
G1 X76.613 Y74.071 E30.49864
G1 X76.807 Y73.64 E30.54894
G1 X77.07 Y73.247 E30.59927
G1 X77.396 Y72.905 E30.64956
G1 X77.775 Y72.622 E30.6999
G1 X78.197 Y72.407 E30.75031
G1 X78.648 Y72.266 E30.8006
G1 X79.254 Y72.2 E30.86548
G1 X109.254 Y72.2 E34.05845
G1 X109.725 Y72.24 E34.10877
G1 X109.997 Y72.311 E34.13868
G1 X110.14 Y72.266 E34.15464
G1 X110.746 Y72.2 E34.21952
G1 X140.746 Y72.2 E37.41249
G1 X141.217 Y72.24 E37.4628
G1 X141.675 Y72.359 E37.51317
G1 X142.106 Y72.553 E37.56347
G1 X142.499 Y72.816 E37.6138
G1 X142.841 Y73.142 E37.66409
G1 X143.124 Y73.521 E37.71443
G1 X143.339 Y73.943 E37.76484
G1 X143.48 Y74.394 E37.81513
G1 X143.546 Y75 E37.88001
G1 X143.546 Y145 E45.33028
G1 X143.506 Y145.471 E45.38059
G1 X143.387 Y145.929 E45.43096
G1 X143.193 Y146.36 E45.48126
G1 X142.93 Y146.753 E45.53159
G1 X142.604 Y147.095 E45.58188
G1 X142.225 Y147.378 E45.63222
G1 X141.803 Y147.593 E45.68263
G1 X141.352 Y147.734 E45.73292
G1 X140.746 Y147.8 E45.7978
G1 X110.746 Y147.8 E48.99078
G1 X110.275 Y147.76 E49.04109
G1 X110.003 Y147.689 E49.071
G1 X109.86 Y147.734 E49.08696
G1 X109.254 Y147.8 E49.15184
G1 X79.254 Y147.8 E52.34481
G1 X78.783 Y147.76 E52.39512
G1 X78.325 Y147.641 E52.44549
G1 X77.894 Y147.447 E52.49579
G1 X77.501 Y147.184 E52.54612
G1 X77.159 Y146.858 E52.59641
G1 X76.876 Y146.479 E52.64675
G1 X76.661 Y146.057 E52.69716
G1 X76.52 Y145.606 E52.74745
G1 X76.454 Y145 E52.81233
G1 X76.454 Y75 E60.2626
G0 F7500 X77.254 Y75
G1 F1500 X77.294 Y74.602 E60.30518
G1 X77.412 Y74.221 E60.34763
G1 X77.604 Y73.87 E60.39021
G1 X77.861 Y73.565 E60.43266
G1 X78.174 Y73.317 E60.47516
G1 X78.53 Y73.136 E60.51767
G1 X78.915 Y73.029 E60.5602
G1 X79.254 Y73 E60.59641
G1 X109.254 Y73 E63.78938
G1 X109.652 Y73.04 E63.83196
G1 X109.989 Y73.145 E63.86952
G1 X110.407 Y73.029 E63.91569
G1 X110.746 Y73 E63.95191
G1 X140.746 Y73 E67.14488
G1 X141.144 Y73.04 E67.18745
G1 X141.525 Y73.158 E67.2299
G1 X141.876 Y73.35 E67.27249
G1 X142.181 Y73.607 E67.31494
G1 X142.429 Y73.92 E67.35744
G1 X142.61 Y74.276 E67.39994
G1 X142.717 Y74.661 E67.44247
G1 X142.746 Y75 E67.47869
G1 X142.746 Y145 E74.92896
G1 X142.706 Y145.398 E74.97153
G1 X142.588 Y145.779 E75.01398
G1 X142.396 Y146.13 E75.05656
G1 X142.139 Y146.435 E75.09901
G1 X141.826 Y146.683 E75.14151
G1 X141.47 Y146.864 E75.18402
G1 X141.085 Y146.971 E75.22655
G1 X140.746 Y147 E75.26276
G1 X110.746 Y147 E78.45574
G1 X110.348 Y146.96 E78.49831
G1 X110.011 Y146.855 E78.53588
G1 X109.593 Y146.971 E78.58205
G1 X109.254 Y147 E78.61826
G1 X79.254 Y147 E81.81123
G1 X78.856 Y146.96 E81.85381
G1 X78.475 Y146.842 E81.89626
G1 X78.124 Y146.65 E81.93884
G1 X77.819 Y146.393 E81.98129
G1 X77.571 Y146.08 E82.02379
G1 X77.39 Y145.724 E82.0663
G1 X77.283 Y145.339 E82.10883
G1 X77.254 Y145 E82.14504
G1 X77.254 Y75 E89.59531
G0 F7500 X78.054 Y75
G1 F1500 X78.094 Y74.693 E89.62826
G1 X78.211 Y74.407 E89.66115
G1 X78.397 Y74.16 E89.69406
G1 X78.64 Y73.969 E89.72695
G1 X78.924 Y73.846 E89.75989
G1 X79.254 Y73.8 E89.79536
G1 X109.254 Y73.8 E92.98833
G1 X109.561 Y73.84 E93.02128
G1 X109.847 Y73.957 E93.05417
G1 X110 Y74.072 E93.07454
G1 X110.132 Y73.969 E93.09236
G1 X110.416 Y73.846 E93.1253
G1 X110.746 Y73.8 E93.16076
G1 X140.746 Y73.8 E96.35373
G1 X141.053 Y73.84 E96.38669
G1 X141.339 Y73.957 E96.41957
G1 X141.586 Y74.143 E96.45248
G1 X141.777 Y74.386 E96.48538
G1 X141.9 Y74.67 E96.51832
G1 X141.946 Y75 E96.55378
G1 X141.946 Y145 E104.00405
G1 X141.906 Y145.307 E104.037
G1 X141.789 Y145.593 E104.06989
G1 X141.603 Y145.84 E104.1028
G1 X141.36 Y146.031 E104.1357
G1 X141.076 Y146.154 E104.16864
G1 X140.746 Y146.2 E104.2041
G1 X110.746 Y146.2 E107.39707
G1 X110.439 Y146.16 E107.43002
G1 X110.153 Y146.043 E107.46291
G1 X110 Y145.928 E107.48328
G1 X109.868 Y146.031 E107.5011
G1 X109.584 Y146.154 E107.53404
G1 X109.254 Y146.2 E107.5695
G1 X79.254 Y146.2 E110.76248
G1 X78.947 Y146.16 E110.79543
G1 X78.661 Y146.043 E110.82832
G1 X78.414 Y145.857 E110.86123
G1 X78.223 Y145.614 E110.89412
G1 X78.1 Y145.33 E110.92706
G1 X78.054 Y145 E110.96252
G1 X78.054 Y75 E118.41279
G0 F7500 X78.854 Y75
G1 F1500 X78.894 Y74.827 E118.43169
G1 X79.004 Y74.688 E118.45056
G1 X79.185 Y74.6 E118.47198
G1 X109.254 Y74.6 E121.6723
G1 X109.427 Y74.64 E121.69119
G1 X109.566 Y74.75 E121.71006
G1 X109.654 Y74.931 E121.73148
G1 X109.654 Y145 E129.18909
G1 X109.615 Y145.173 E129.20797
G1 X109.504 Y145.312 E129.2269
G1 X109.323 Y145.4 E129.24832
G1 X79.254 Y145.4 E132.44864
G1 X79.081 Y145.361 E132.46751
G1 X78.942 Y145.25 E132.48645
G1 X78.854 Y145.069 E132.50787
G1 X78.854 Y75 E139.96548
G1 F2700 E134.96548
G0 F7500 X78.589 Y75
G0 X78.601 Y74.347
G0 X109.907 Y74.347
G0 X109.919 Y75
G0 X110.346 Y75
G1 F2700 E139.96548
G1 F1500 X110.386 Y74.827 E139.98438
G1 X110.496 Y74.688 E140.00325
G1 X110.677 Y74.6 E140.02467
G1 X140.746 Y74.6 E143.22498
G1 X140.919 Y74.64 E143.24388
G1 X141.058 Y74.75 E143.26275
G1 X141.146 Y74.931 E143.28417
G1 X141.146 Y145 E150.74178
G1 X141.107 Y145.173 E150.76066
G1 X140.996 Y145.312 E150.77959
G1 X140.815 Y145.4 E150.80101
G1 X110.746 Y145.4 E154.00133
G1 X110.573 Y145.361 E154.0202
G1 X110.434 Y145.25 E154.03913
G1 X110.346 Y145.069 E154.06055
G1 X110.346 Y75 E161.51817
G1 F2700 E156.51817
;MESH:enclosure_base.stl
G0 F7500 X108.44 Y75.814
G0 X108.054 Y76.2
;TYPE:WALL-INNER
G1 F2700 E161.51817
G1 F1500 X80.454 Y76.2 E164.4557
G1 X80.454 Y143.8 E171.65054
G1 X108.054 Y143.8 E174.58807
G1 X108.054 Y90 E180.31414
G1 X108.054 Y76.2 E181.7829
G0 F7500 X108.384 Y75.87
G0 X108.854 Y75.4
;TYPE:WALL-OUTER
G1 F1500 X79.654 Y75.4 E184.89073
G1 X79.654 Y144.6 E192.25586
G1 X108.854 Y144.6 E195.36368
G1 X108.854 Y90 E201.17489
G1 X108.854 Y75.4 E202.72881
G0 F7500 X108.384 Y75.87
G0 X107.334 Y76.5
G0 X107.334 Y76.92
;TYPE:SKIN
G1 F1500 X81.174 Y76.92 E205.51308
G1 X81.174 Y143.08 E212.55465
G1 X107.334 Y143.08 E215.33892
G1 X107.334 Y90 E220.98835
G1 X107.334 Y76.92 E222.38049
G0 F7500 X107.334 Y76.5
G0 X106.534 Y76.5
G0 X106.534 Y77.72
G1 F1500 X81.974 Y77.72 E224.99447
G1 X81.974 Y142.28 E231.86575
G1 X106.534 Y142.28 E234.47973
G1 X106.534 Y90 E240.04402
G1 X106.534 Y77.72 E241.35101
G0 F7500 X106.534 Y76.5
G0 X105.734 Y76.6
G0 X105.734 Y78.52
G1 F1500 X82.774 Y78.52 E243.7947
G1 X82.774 Y141.48 E250.49568
G1 X105.734 Y141.48 E252.93937
G1 X105.734 Y90 E258.41851
G1 X105.734 Y78.52 E259.64036
G0 F7500 X104.934 Y79.32
G1 F1500 X83.574 Y79.32 E261.91375
G1 X83.574 Y140.68 E268.44445
G1 X104.934 Y140.68 E270.71784
G1 X104.934 Y90 E276.11184
G1 X104.934 Y79.32 E277.24854
G0 F7500 X104.134 Y80.12
G1 F1500 X84.374 Y80.12 E279.35164
G1 X84.374 Y130 E284.66049
G1 X84.374 Y139.88 E285.71205
G1 X104.134 Y139.88 E287.81515
G1 X104.134 Y80.12 E294.17555
G0 F7500 X103.334 Y80.92
G1 F1500 X85.174 Y80.92 E296.10837
G1 X85.174 Y139.08 E302.29848
G1 X103.334 Y139.08 E304.23129
G1 X103.334 Y90 E309.45499
G1 X103.334 Y80.92 E310.4214
G0 F7500 X102.534 Y81.72
G1 F1500 X85.974 Y81.72 E312.18392
G1 X85.974 Y138.28 E318.20374
G1 X102.534 Y138.28 E319.96626
G1 X102.534 Y130 E320.84752
G1 X102.534 Y81.72 E325.98608
G0 F7500 X101.734 Y82.52
G1 F1500 X86.774 Y82.52 E327.57831
G1 X86.774 Y137.48 E333.42783
G1 X101.734 Y137.48 E335.02006
G1 X101.734 Y90 E340.07347
G1 X101.734 Y82.52 E340.86959
G0 F7500 X100.934 Y83.32
G1 F1500 X87.574 Y83.32 E342.29153
G1 X87.574 Y136.68 E347.97076
G1 X100.934 Y136.68 E349.3927
G1 X100.934 Y90 E354.36096
G1 X100.934 Y83.32 E355.07193
G0 F7500 X100.134 Y84.12
G1 F1500 X88.374 Y84.12 E356.32358
G1 X88.374 Y135.88 E361.83252
G1 X100.134 Y135.88 E363.08417
G1 X100.134 Y90 E367.96729
G1 X100.134 Y84.12 E368.59311
G0 F7500 X99.334 Y84.92
G1 F1500 X89.174 Y84.92 E369.67446
G1 X89.174 Y135.08 E375.01311
G1 X99.334 Y135.08 E376.09447
G1 X99.334 Y90 E380.89244
G1 X99.334 Y84.92 E381.43312
G0 F7500 X98.534 Y85.72
G1 F1500 X89.974 Y85.72 E382.34418
G1 X89.974 Y134.28 E387.51254
G1 X98.534 Y134.28 E388.4236
G1 X98.534 Y90 E393.13643
G1 X98.534 Y85.72 E393.59196
G0 F7500 X97.734 Y86.52
G1 F1500 X90.774 Y86.52 E394.33273
G1 X90.774 Y133.48 E399.3308
G1 X97.734 Y133.48 E400.07156
G1 X97.734 Y90 E404.69925
G1 X97.734 Y86.52 E405.06963
G0 F7500 X96.934 Y87.32
G1 F1500 X91.574 Y87.32 E405.64011
G1 X91.574 Y132.68 E410.46788
G1 X96.934 Y132.68 E411.03836
G1 X96.934 Y90 E415.5809
G1 X96.934 Y87.32 E415.86614
G0 F7500 X94.254 Y90
G1 F882.4 X94.254 Y130 E423.10354
G0 F7500 X93.174 Y131.08
G1 F1500 X95.334 Y131.08 E423.33344
G1 X95.334 Y90 E427.70568
G1 X95.334 Y88.92 E427.82063
G1 X93.174 Y88.92 E428.05052
G1 X93.174 Y131.08 E432.53771
G0 F7500 X92.374 Y131.88
G1 F1500 X96.134 Y131.88 E432.9379
G1 X96.134 Y90 E437.39529
G1 X96.134 Y88.12 E437.59538
G1 X92.374 Y88.12 E437.99557
G1 X92.374 Y131.88 E442.65305
G1 F2700 E437.65305
;MESH:enclosure_base.stl(1)
G0 F7500 X92.374 Y145.665
G0 X109.907 Y145.653
G0 X110.081 Y131.88
G0 X111.946 Y143.8
;TYPE:WALL-INNER
G1 F2700 E442.65305
G1 F1500 X139.546 Y143.8 E445.59059
G1 X139.546 Y90 E451.31665
G1 X139.546 Y76.2 E452.78542
G1 X111.946 Y76.2 E455.72296
G1 X111.946 Y143.8 E462.91779
G0 F7500 X111.616 Y144.13
G0 X111.146 Y144.6
;TYPE:WALL-OUTER
G1 F1500 X140.346 Y144.6 E466.02561
G1 X140.346 Y90 E471.83683
G1 X140.346 Y75.4 E473.39074
G1 X111.146 Y75.4 E476.49857
G1 X111.146 Y144.6 E483.86369
G0 F7500 X111.616 Y144.13
G0 X112.246 Y143.08
G0 X112.666 Y143.08
;TYPE:SKIN
G1 F1500 X138.826 Y143.08 E486.64796
G1 X138.826 Y90 E492.2974
G1 X138.826 Y76.92 E493.68953
G1 X112.666 Y76.92 E496.4738
G1 X112.666 Y143.08 E503.51537
G0 F7500 X112.246 Y143.08
G0 X112.246 Y142.28
G0 X113.466 Y142.28
G1 F1500 X125.746 Y142.28 E504.82236
G1 X138.026 Y142.28 E506.12935
G1 X138.026 Y77.72 E513.00063
G1 X113.466 Y77.72 E515.61461
G1 X113.466 Y142.28 E522.48589
G0 F7500 X112.246 Y142.28
G0 X112.346 Y141.48
G0 X114.266 Y141.48
G1 F1500 X137.226 Y141.48 E524.92958
G1 X137.226 Y90 E530.40872
G1 X137.226 Y78.52 E531.63057
G1 X114.266 Y78.52 E534.07425
G1 X114.266 Y141.48 E540.77524
G0 F7500 X115.066 Y140.68
G1 F1500 X136.426 Y140.68 E543.04864
G1 X136.426 Y90 E548.44263
G1 X136.426 Y79.32 E549.57933
G1 X115.066 Y79.32 E551.85273
G1 X115.066 Y140.68 E558.38342
G0 F7500 X115.866 Y139.88
G1 F1500 X135.626 Y139.88 E560.48653
G1 X135.626 Y90 E565.79538
G1 X135.626 Y80.12 E566.84693
G1 X115.866 Y80.12 E568.95003
G1 X115.866 Y139.88 E575.31044
G0 F7500 X116.666 Y139.08
G1 F1500 X134.826 Y139.08 E577.24325
G1 X134.826 Y80.92 E583.43336
G1 X116.666 Y80.92 E585.36617
G1 X116.666 Y139.08 E591.55628
G0 F7500 X117.466 Y138.28
G1 F1500 X134.026 Y138.28 E593.3188
G1 X134.026 Y90 E598.45736
G1 X134.026 Y81.72 E599.33862
G1 X117.466 Y81.72 E601.10114
G1 X117.466 Y138.28 E607.12096
G0 F7500 X118.266 Y137.48
G1 F1500 X133.226 Y137.48 E608.71319
G1 X133.226 Y90 E613.7666
G1 X133.226 Y82.52 E614.56272
G1 X118.266 Y82.52 E616.15495
G1 X118.266 Y137.48 E622.00447
G0 F7500 X119.066 Y136.68
G1 F1500 X132.426 Y136.68 E623.42641
G1 X132.426 Y90 E628.39468
G1 X132.426 Y83.32 E629.10564
G1 X119.066 Y83.32 E630.52758
G1 X119.066 Y136.68 E636.20682
G0 F7500 X119.866 Y135.88
G1 F1500 X131.626 Y135.88 E637.45846
G1 X131.626 Y90 E642.34158
G1 X131.626 Y84.12 E642.9674
G1 X119.866 Y84.12 E644.21905
G1 X119.866 Y135.88 E649.72799
G0 F7500 X120.666 Y135.08
G1 F1500 X130.826 Y135.08 E650.80935
G1 X130.826 Y90 E655.60732
G1 X130.826 Y84.92 E656.148
G1 X120.666 Y84.92 E657.22935
G1 X120.666 Y135.08 E662.568
G0 F7500 X121.466 Y134.28
G1 F1500 X130.026 Y134.28 E663.47906
G1 X130.026 Y90 E668.19189
G1 X130.026 Y85.72 E668.64742
G1 X121.466 Y85.72 E669.55848
G1 X121.466 Y134.28 E674.72684
G0 F7500 X122.266 Y133.48
G1 F1500 X129.226 Y133.48 E675.46761
G1 X129.226 Y90 E680.09529
G1 X129.226 Y86.52 E680.46568
G1 X122.266 Y86.52 E681.20645
G1 X122.266 Y133.48 E686.20452
G0 F7500 X123.066 Y132.68
G1 F1500 X128.426 Y132.68 E686.77499
G1 X128.426 Y90 E691.31753
G1 X128.426 Y87.32 E691.60277
G1 X123.066 Y87.32 E692.17325
G1 X123.066 Y132.68 E697.00102
G0 F7500 X123.866 Y131.88
G1 F1500 X127.626 Y131.88 E697.40121
G1 X127.626 Y90 E701.8586
G1 X127.626 Y88.12 E702.05869
G1 X123.866 Y88.12 E702.45888
G1 X123.866 Y131.88 E707.11636
G0 F7500 X124.666 Y131.08
G1 F1500 X126.826 Y131.08 E707.34625
G1 X126.826 Y90 E711.7185
G1 X126.826 Y88.92 E711.83345
G1 X124.666 Y88.92 E712.06334
G1 X124.666 Y131.08 E716.55053
G0 F7500 X125.746 Y130
G1 F882.4 X125.746 Y90 E723.78794
G1 F2700 E718.78794
;MESH:NONMESH
G0 F300 X125.746 Y90 Z0.64
G0 F7500 X141.411 Y90
G0 X141.399 Y74.347
G0 X110.093 Y74.347
G0 X109.919 Y90
G0 X80.454 Y76.2
;TIME_ELAPSED:289.716160
;LAYER:1
;TYPE:WALL-INNER
;MESH:enclosure_base.stl
G1 F2700 E723.78794
G1 F1500 X80.454 Y143.8 E730.98277
G1 X108.054 Y143.8 E733.9203
G1 X108.054 Y76.2 E741.11514
G1 X80.454 Y76.2 E744.05267
G0 F8000 X80.124 Y75.87
G0 X79.654 Y75.4
;TYPE:WALL-OUTER
G1 F1500 X79.654 Y144.6 E751.4178
G1 X108.854 Y144.6 E754.52562
G1 X108.854 Y75.4 E761.89075
G1 X79.654 Y75.4 E764.99857
G0 F8000 X80.124 Y75.87
G0 X80.754 Y76.92
G0 X81.174 Y76.92
;TYPE:SKIN
G1 F1500 X81.174 Y143.08 E772.04014
G1 X107.334 Y143.08 E774.82442
G1 X107.334 Y90 E780.47385
G1 X107.334 Y76.92 E781.86599
G1 X81.174 Y76.92 E784.65026
G0 F8000 X80.754 Y76.92
G0 X80.754 Y77.719
G0 X81.973 Y77.719
G1 F1500 X81.974 Y78.68 E784.75254
G1 X82.935 Y77.719 E784.89719
G1 X84.066 Y77.719 E785.01756
G1 X81.974 Y79.811 E785.33245
G1 X81.974 Y80.943 E785.45293
G1 X85.197 Y77.719 E785.93812
G1 X86.329 Y77.719 E786.05861
G1 X81.974 Y82.074 E786.71411
G1 X81.974 Y83.205 E786.83449
G1 X87.46 Y77.719 E787.66023
