;FLAVOR:Marlin
;TIME:2166
;Filament used: 1.72257m
;Layer height: 0.16
;MINX:71.757
;MINY:71.764
;MINZ:0.2
;MAXX:163.218
;MAXY:163.243
;MAXZ:2.92
;Generated with Cura_SteamEngine 4.8.0
M140 S100
M105
M190 S100
M104 S240
M105
M109 S240
M82 ;absolute extrusion mode
; Ender 3 Custom Start G-code
G92 E0 ; Reset Extruder
G28 ; Home all axes
G1 Z2.0 F3000 ; Move Z Axis up little to prevent scratching of Heat Bed
G1 X0.1 Y20 Z0.3 F5000.0 ; Move to start position
G1 X0.1 Y200.0 Z0.3 F1500.0 E15 ; Draw the first line
G1 X0.4 Y200.0 Z0.3 F5000.0 ; Move to side a little
G1 X0.4 Y20 Z0.3 F1500.0 E30 ; Draw the second line
G92 E0 ; Reset Extruder
G1 Z2.0 F3000 ; Move Z Axis up little to prevent scratching of Heat Bed
G1 X5 Y20 Z0.3 F5000.0 ; Move over to prevent blob squish
G92 E0
G92 E0
G1 F2700 E-5
;LAYER_COUNT:17
;LAYER:0
M107
G0 F1200 X117.487 Y104.389 Z0.2
;TYPE:SKIRT
G1 F2700 E0
G1 F1200 X117.138 Y105.268 E0.08847
G1 X116.959 Y105.655 E0.12836
G1 X115.94 Y107.576 E0.33177
G1 X115.721 Y107.94 E0.37151
G1 X114.517 Y109.712 E0.57191
G1 X114.264 Y110.045 E0.61103
G1 X112.872 Y111.684 E0.81218
G1 X112.577 Y111.994 E0.85221
G1 X111.046 Y113.443 E1.0494
G1 X110.718 Y113.723 E1.08975
G1 X108.989 Y115.038 E1.29295
G1 X108.639 Y115.275 E1.33249
G1 X106.818 Y116.371 E1.5313
G1 X106.443 Y116.57 E1.57102
G1 X104.465 Y117.484 E1.77485
G1 X104.426 Y117.5 E1.77879
G1 X104.527 Y117.54 E1.78895
G1 X105.389 Y117.916 E1.87692
G1 X105.578 Y118.005 E1.89647
G1 X106.679 Y118.557 E2.01168
G1 X106.868 Y118.658 E2.03172
G1 X107.679 Y119.122 E2.11913
G1 X107.859 Y119.231 E2.13881
G1 X108.93 Y119.923 E2.25809
G1 X109.107 Y120.045 E2.2782
G1 X109.811 Y120.557 E2.35963
G1 X109.978 Y120.686 E2.37937
G1 X110.971 Y121.494 E2.49912
G1 X111.151 Y121.646 E2.52116
G1 X111.764 Y122.204 E2.5987
G1 X111.915 Y122.349 E2.61829
G1 X112.88 Y123.327 E2.74681
G1 X113.031 Y123.489 E2.76753
G1 X113.546 Y124.074 E2.84043
G1 X113.679 Y124.233 E2.85983
G1 X114.556 Y125.343 E2.99216
G1 X114.683 Y125.513 E3.01201
G1 X115.116 Y126.127 E3.08229
G1 X115.235 Y126.307 E3.10247
G1 X115.985 Y127.506 E3.23477
G1 X116.09 Y127.683 E3.25402
G1 X116.451 Y128.334 E3.32365
G1 X116.553 Y128.53 E3.34432
G1 X117.172 Y129.813 E3.47758
G1 X117.254 Y129.995 E3.49625
G1 X117.511 Y130.605 E3.55817
G1 X118.23 Y128.966 E3.72559
G1 X118.424 Y128.583 E3.76576
G1 X119.505 Y126.711 E3.96797
G1 X119.739 Y126.352 E4.00806
G1 X121.037 Y124.585 E4.21315
G1 X121.31 Y124.253 E4.25336
G1 X122.807 Y122.626 E4.46018
G1 X123.114 Y122.328 E4.5002
G1 X124.74 Y120.91 E4.70202
G1 X125.108 Y120.623 E4.74567
G1 X126.903 Y119.382 E4.94981
G1 X127.268 Y119.158 E4.98987
G1 X129.17 Y118.129 E5.19216
G1 X129.566 Y117.941 E5.23316
G1 X130.612 Y117.516 E5.33878
G1 X130.474 Y117.46 E5.35271
G1 X129.611 Y117.084 E5.44077
G1 X129.42 Y116.995 E5.46048
G1 X128.32 Y116.443 E5.57561
G1 X128.132 Y116.342 E5.59557
G1 X127.321 Y115.878 E5.68298
G1 X127.141 Y115.769 E5.70266
G1 X126.07 Y115.077 E5.82194
G1 X125.886 Y114.95 E5.84285
G1 X125.213 Y114.46 E5.92073
G1 X125.029 Y114.32 E5.94235
G1 X124.015 Y113.497 E6.06452
G1 X123.847 Y113.353 E6.08522
G1 X123.233 Y112.794 E6.16289
G1 X123.083 Y112.649 E6.18241
G1 X122.119 Y111.672 E6.3108
G1 X121.972 Y111.515 E6.33092
G1 X121.456 Y110.931 E6.40382
G1 X121.316 Y110.763 E6.42427
G1 X120.441 Y109.653 E6.55649
G1 X120.318 Y109.488 E6.57574
G1 X119.884 Y108.873 E6.64615
G1 X119.763 Y108.691 E6.6666
G1 X119.014 Y107.493 E6.79876
G1 X118.91 Y107.316 E6.81797
G1 X118.546 Y106.659 E6.88823
G1 X118.441 Y106.457 E6.90952
G1 X117.992 Y105.522 E7.00655
G1 X117.829 Y105.189 E7.04123
G1 X117.735 Y104.981 E7.06258
G1 X117.487 Y104.389 E7.12263
G0 X118.018 Y104.101
G1 X117.952 Y103.933 E7.13951
G1 X117.5 Y102.661 E7.26579
G1 X117.482 Y102.727 E7.27219
G1 X117.369 Y103.062 E7.30526
G1 X116.58 Y105.046 E7.50499
G1 X116.429 Y105.373 E7.53868
G1 X115.41 Y107.294 E7.7421
G1 X115.225 Y107.603 E7.77579
G1 X114.021 Y109.375 E7.97619
G1 X113.806 Y109.656 E8.00929
G1 X112.414 Y111.295 E8.21044
G1 X112.165 Y111.558 E8.24432
G1 X111.052 Y112.61 E8.38758
G1 X110.633 Y113.009 E8.4417
G1 X110.355 Y113.246 E8.47588
G1 X108.626 Y114.561 E8.67908
G1 X108.33 Y114.761 E8.71249
G1 X106.509 Y115.857 E8.91131
G1 X106.191 Y116.026 E8.945
G1 X104.213 Y116.94 E9.14883
G1 X103.881 Y117.072 E9.18225
G1 X102.639 Y117.49 E9.30483
G1 X102.977 Y117.599 E9.33805
G1 X104.114 Y118.02 E9.45147
G1 X104.287 Y118.09 E9.46893
G1 X105.149 Y118.466 E9.5569
G1 X105.309 Y118.541 E9.57343
G1 X106.41 Y119.093 E9.68864
G1 X106.57 Y119.179 E9.70563
G1 X107.381 Y119.643 E9.79304
G1 X107.533 Y119.735 E9.80966
G1 X108.604 Y120.427 E9.92894
G1 X108.754 Y120.53 E9.94596
G1 X109.458 Y121.042 E10.02739
G1 X109.6 Y121.151 E10.04413
G1 X110.593 Y121.959 E10.16389
G1 X110.747 Y122.09 E10.1828
G1 X111.36 Y122.648 E10.26034
G1 X111.488 Y122.77 E10.27688
G1 X112.453 Y123.748 E10.40541
G1 X112.581 Y123.885 E10.42295
G1 X113.096 Y124.47 E10.49585
G1 X113.208 Y124.605 E10.51226
G1 X114.085 Y125.715 E10.6446
G1 X114.193 Y125.859 E10.66143
G1 X114.626 Y126.473 E10.73172
G1 X114.727 Y126.625 E10.74879
G1 X115.477 Y127.824 E10.88108
G1 X115.565 Y127.974 E10.89735
G1 X115.926 Y128.625 E10.96698
G1 X116.012 Y128.791 E10.98447
G1 X116.631 Y130.074 E11.11773
G1 X116.701 Y130.228 E11.13355
G1 X116.975 Y130.879 E11.19962
G1 X117.042 Y131.053 E11.21706
G1 X117.512 Y132.375 E11.34831
G1 X117.764 Y131.57 E11.42722
G1 X117.892 Y131.229 E11.46129
G1 X118.779 Y129.207 E11.66784
G1 X118.943 Y128.883 E11.70181
G1 X120.024 Y127.011 E11.90402
G1 X120.222 Y126.707 E11.93796
G1 X121.52 Y124.94 E12.14305
G1 X121.752 Y124.66 E12.17707
G1 X123.249 Y123.033 E12.38389
G1 X123.508 Y122.78 E12.41776
G1 X125.134 Y121.362 E12.61957
G1 X125.449 Y121.117 E12.6569
G1 X127.244 Y119.876 E12.86104
G1 X127.553 Y119.686 E12.89497
G1 X129.457 Y118.656 E13.09747
G1 X129.792 Y118.497 E13.13216
G1 X131.804 Y117.679 E13.33533
G1 X132.149 Y117.561 E13.36944
G1 X132.345 Y117.506 E13.38848
G1 X132.023 Y117.401 E13.42016
G1 X130.886 Y116.98 E13.53358
G1 X130.714 Y116.91 E13.55095
G1 X129.851 Y116.534 E13.63901
G1 X129.689 Y116.458 E13.65574
G1 X128.589 Y115.906 E13.77087
G1 X128.43 Y115.821 E13.78774
G1 X127.619 Y115.357 E13.87514
G1 X127.467 Y115.265 E13.89176
G1 X126.396 Y114.573 E14.01104
G1 X126.24 Y114.465 E14.02879
G1 X125.765 Y114.118 E14.08382
G1 X125.407 Y113.854 E14.12543
G1 X124.393 Y113.031 E14.24759
G1 X124.251 Y112.909 E14.2651
G1 X123.637 Y112.35 E14.34278
G1 X123.51 Y112.228 E14.35925
G1 X122.546 Y111.251 E14.48764
G1 X122.422 Y111.118 E14.50465
G1 X121.906 Y110.534 E14.57755
G1 X121.787 Y110.392 E14.59488
G1 X120.912 Y109.282 E14.7271
G1 X120.808 Y109.142 E14.74341
G1 X120.374 Y108.527 E14.81383
G1 X120.272 Y108.373 E14.8311
G1 X119.523 Y107.175 E14.96327
G1 X119.434 Y107.025 E14.97959
G1 X119.07 Y106.368 E15.04985
G1 X118.982 Y106.198 E15.06775
G1 X118.533 Y105.263 E15.16478
G1 X118.368 Y104.925 E15.19996
G1 X118.289 Y104.749 E15.21801
G1 X118.018 Y104.101 E15.28371
G0 X118.571 Y103.87
G1 X118.518 Y103.732 E15.29754
G1 X118.02 Y102.33 E15.43672
G1 X117.973 Y102.184 E15.45107
G1 X117.787 Y101.548 E15.51305
G1 X117.75 Y101.411 E15.52633
G1 X117.506 Y100.379 E15.62553
G1 X117.482 Y100.487 E15.63588
G1 X116.904 Y102.566 E15.83773
G1 X116.812 Y102.841 E15.86486
G1 X116.023 Y104.825 E16.06458
G1 X115.899 Y105.092 E16.09212
G1 X114.88 Y107.013 E16.29554
G1 X114.728 Y107.265 E16.32307
G1 X113.524 Y109.037 E16.52347
G1 X113.349 Y109.268 E16.55058
G1 X111.957 Y110.907 E16.75173
G1 X111.753 Y111.122 E16.77946
G1 X110.63 Y112.183 E16.92398
G1 X110.219 Y112.574 E16.97704
G1 X109.991 Y112.768 E17.00505
G1 X108.262 Y114.083 E17.20825
G1 X108.02 Y114.247 E17.23559
G1 X106.199 Y115.343 E17.43441
G1 X105.94 Y115.481 E17.46186
G1 X103.962 Y116.395 E17.66569
G1 X103.69 Y116.503 E17.69307
G1 X101.683 Y117.178 E17.89115
G1 X101.404 Y117.255 E17.91822
G1 X100.356 Y117.486 E18.01861
G1 X100.439 Y117.505 E18.02657
G1 X101.566 Y117.788 E18.13527
G1 X101.71 Y117.829 E18.14928
G1 X102.633 Y118.116 E18.23969
G1 X102.769 Y118.162 E18.25312
G1 X103.906 Y118.583 E18.36654
G1 X104.047 Y118.64 E18.38077
G1 X104.909 Y119.016 E18.46874
G1 X105.04 Y119.077 E18.48226
G1 X106.141 Y119.629 E18.59747
G1 X106.272 Y119.699 E18.61136
G1 X107.083 Y120.163 E18.69877
G1 X107.207 Y120.239 E18.71237
G1 X108.278 Y120.931 E18.83165
G1 X108.401 Y121.015 E18.84558
G1 X109.105 Y121.527 E18.92701
G1 X109.221 Y121.617 E18.94075
G1 X110.214 Y122.425 E19.0605
G1 X110.344 Y122.533 E19.07631
G1 X110.957 Y123.091 E19.15385
G1 X111.061 Y123.192 E19.16742
G1 X112.026 Y124.17 E19.29594
G1 X112.131 Y124.282 E19.3103
G1 X112.646 Y124.867 E19.38321
G1 X112.738 Y124.977 E19.39662
G1 X113.615 Y126.087 E19.52895
G1 X113.703 Y126.205 E19.54272
G1 X114.136 Y126.819 E19.61301
G1 X114.218 Y126.943 E19.62691
G1 X114.968 Y128.142 E19.75921
G1 X115.04 Y128.265 E19.77254
G1 X115.401 Y128.916 E19.84217
G1 X115.472 Y129.052 E19.85652
G1 X116.091 Y130.335 E19.98978
G1 X116.148 Y130.461 E20.00272
G1 X116.422 Y131.112 E20.06879
G1 X116.477 Y131.254 E20.08303
G1 X116.978 Y132.663 E20.22292
G1 X117.025 Y132.808 E20.23718
G1 X117.213 Y133.449 E20.29967
G1 X117.25 Y133.588 E20.31312
G1 X117.506 Y134.673 E20.4174
G1 X117.619 Y134.099 E20.47213
G1 X117.692 Y133.812 E20.49983
G1 X118.337 Y131.749 E20.70202
G1 X118.441 Y131.47 E20.72988
G1 X119.328 Y129.448 E20.93642
G1 X119.463 Y129.183 E20.96424
G1 X120.544 Y127.311 E21.16646
G1 X120.706 Y127.063 E21.19417
G1 X122.004 Y125.296 E21.39926
G1 X122.193 Y125.066 E21.42711
G1 X123.69 Y123.439 E21.63393
G1 X123.902 Y123.232 E21.66165
G1 X125.528 Y121.814 E21.86346
G1 X125.791 Y121.61 E21.8946
G1 X127.586 Y120.369 E22.09873
G1 X127.838 Y120.214 E22.12641
G1 X129.744 Y119.183 E22.32912
G1 X130.018 Y119.053 E22.35749
G1 X132.03 Y118.235 E22.56066
G1 X132.312 Y118.138 E22.58855
G1 X134.441 Y117.536 E22.79552
G1 X134.561 Y117.495 E22.80738
G1 X133.434 Y117.212 E22.91608
G1 X133.29 Y117.171 E22.93008
G1 X132.367 Y116.884 E23.0205
G1 X132.231 Y116.838 E23.03393
G1 X131.094 Y116.417 E23.14735
G1 X130.954 Y116.36 E23.16149
G1 X130.091 Y115.984 E23.24955
G1 X129.958 Y115.922 E23.26327
G1 X128.858 Y115.37 E23.3784
G1 X128.728 Y115.301 E23.39217
G1 X127.917 Y114.837 E23.47957
G1 X127.793 Y114.761 E23.49318
G1 X126.722 Y114.069 E23.61246
G1 X126.594 Y113.981 E23.62699
G1 X125.913 Y113.485 E23.7058
G1 X125.785 Y113.388 E23.72082
G1 X124.771 Y112.565 E23.84298
G1 X124.655 Y112.466 E23.85725
G1 X124.041 Y111.907 E23.93492
G1 X123.937 Y111.806 E23.94848
G1 X122.973 Y110.829 E24.07688
G1 X122.872 Y110.721 E24.09071
G1 X122.356 Y110.137 E24.16361
G1 X122.259 Y110.02 E24.17782
G1 X121.384 Y108.91 E24.31004
G1 X121.298 Y108.796 E24.3234
G1 X120.864 Y108.181 E24.39381
G1 X120.781 Y108.055 E24.40793
G1 X120.032 Y106.857 E24.54009
G1 X119.959 Y106.734 E24.55347
G1 X119.595 Y106.077 E24.62373
G1 X119.523 Y105.938 E24.63837
G1 X119.074 Y105.003 E24.7354
G1 X118.907 Y104.662 E24.77092
G1 X118.842 Y104.518 E24.7857
G1 X118.571 Y103.87 E24.8514
G0 X119.125 Y103.638
G1 X119.083 Y103.531 E24.86216
G1 X118.585 Y102.129 E25.00133
G1 X118.548 Y102.015 E25.01254
G1 X118.362 Y101.379 E25.07453
G1 X118.334 Y101.273 E25.08479
G1 X117.981 Y99.78 E25.2283
G1 X117.957 Y99.662 E25.23956
G1 X117.853 Y99.073 E25.29551
G1 X117.837 Y98.965 E25.30572
G1 X117.644 Y97.4 E25.45323
G1 X117.633 Y97.291 E25.46348
G1 X117.593 Y96.723 E25.51674
G1 X117.588 Y96.602 E25.52807
G1 X117.567 Y94.971 E25.68065
G1 X117.574 Y94.769 E25.69956
G1 X117.757 Y92.582 E25.90486
G1 X117.789 Y92.353 E25.92649
G1 X118.208 Y90.214 E26.13038
G1 X118.265 Y89.991 E26.15191
G1 X118.91 Y87.928 E26.35411
G1 X118.991 Y87.711 E26.37577
G1 X119.878 Y85.689 E26.58232
G1 X119.982 Y85.483 E26.6039
G1 X121.063 Y83.611 E26.80612
G1 X121.19 Y83.418 E26.82773
G1 X122.488 Y81.651 E27.03283
G1 X122.635 Y81.472 E27.05449
G1 X124.132 Y79.845 E27.26131
G1 X124.297 Y79.684 E27.28288
G1 X125.923 Y78.266 E27.48469
G1 X126.132 Y78.104 E27.50943
G1 X127.927 Y76.863 E27.71357
G1 X128.123 Y76.742 E27.73511
G1 X130.031 Y75.71 E27.93803
G1 X130.244 Y75.609 E27.96008
G1 X132.256 Y74.791 E28.16325
G1 X132.476 Y74.715 E28.18502
G1 X134.605 Y74.113 E28.39199
G1 X134.83 Y74.063 E28.41355
G1 X136.954 Y73.708 E28.61499
G1 X137.214 Y73.679 E28.63947
G1 X139.403 Y73.561 E28.84453
G1 X139.628 Y73.561 E28.86558
G1 X141.753 Y73.675 E29.06465
G1 X141.98 Y73.7 E29.08601
G1 X144.103 Y74.047 E29.28724
G1 X144.327 Y74.096 E29.30869
G1 X146.411 Y74.676 E29.51104
G1 X146.624 Y74.748 E29.53208
G1 X148.605 Y75.536 E29.73151
G1 X148.813 Y75.632 E29.75294
G1 X150.732 Y76.65 E29.95614
G1 X150.928 Y76.768 E29.97755
G1 X152.7 Y77.972 E30.17795
G1 X152.879 Y78.108 E30.19898
G1 X154.518 Y79.5 E30.40013
G1 X154.686 Y79.659 E30.42177
G1 X155.74 Y80.775 E30.56536
G1 X156.14 Y81.195 E30.61962
G1 X156.29 Y81.371 E30.64125
G1 X157.604 Y83.098 E30.84424
G1 X157.732 Y83.287 E30.8656
G1 X158.829 Y85.11 E31.06462
G1 X158.936 Y85.312 E31.08601
G1 X159.85 Y87.29 E31.28984
G1 X159.934 Y87.502 E31.31117
G1 X160.609 Y89.509 E31.50924
G1 X160.67 Y89.725 E31.53024
G1 X161.135 Y91.829 E31.73181
G1 X161.172 Y92.055 E31.75323
G1 X161.406 Y94.208 E31.95582
G1 X161.418 Y94.435 E31.97708
G1 X161.418 Y96.586 E32.17829
G1 X161.413 Y96.736 E32.19233
G1 X161.373 Y97.294 E32.24466
G1 X161.362 Y97.401 E32.25473
G1 X161.168 Y98.977 E32.40326
G1 X161.152 Y99.087 E32.41366
G1 X161.047 Y99.679 E32.4699
G1 X161.022 Y99.797 E32.48119
G1 X160.668 Y101.288 E32.62454
G1 X160.64 Y101.393 E32.6347
G1 X160.456 Y102.021 E32.69592
G1 X160.417 Y102.141 E32.70772
G1 X160.06 Y103.136 E32.80661
G1 X159.927 Y103.523 E32.84489
G1 X159.877 Y103.653 E32.85792
G1 X159.61 Y104.289 E32.92244
G1 X159.564 Y104.392 E32.93299
G1 X158.916 Y105.729 E33.07198
G1 X158.86 Y105.837 E33.08336
G1 X158.616 Y106.274 E33.13018
G1 X158.463 Y106.547 E33.15945
G1 X157.71 Y107.748 E33.29205
G1 X157.647 Y107.842 E33.30264
G1 X157.204 Y108.47 E33.37453
G1 X157.134 Y108.564 E33.38549
G1 X156.275 Y109.649 E33.51495
G1 X156.204 Y109.734 E33.52531
G1 X155.675 Y110.334 E33.60013
G1 X155.593 Y110.421 E33.61132
G1 X154.627 Y111.398 E33.73984
G1 X154.546 Y111.476 E33.75036
G1 X153.945 Y112.022 E33.82632
G1 X153.856 Y112.099 E33.83732
G1 X152.85 Y112.915 E33.9585
G1 X152.762 Y112.982 E33.96884
G1 X152.032 Y113.513 E34.05328
G1 X151.936 Y113.579 E34.06418
G1 X150.863 Y114.272 E34.18367
G1 X150.766 Y114.331 E34.19429
G1 X149.975 Y114.783 E34.27951
G1 X149.873 Y114.838 E34.29035
G1 X148.772 Y115.389 E34.40552
G1 X148.666 Y115.438 E34.41644
G1 X148.067 Y115.697 E34.47749
G1 X147.83 Y115.803 E34.50178
G1 X147.7 Y115.856 E34.51491
G1 X146.573 Y116.272 E34.62729
G1 X146.469 Y116.307 E34.63755
G1 X145.52 Y116.602 E34.73052
G1 X145.407 Y116.634 E34.7415
G1 X144.284 Y116.915 E34.84979
G1 X144.175 Y116.939 E34.86023
G1 X143.163 Y117.136 E34.95667
G1 X143.047 Y117.156 E34.96769
G1 X141.931 Y117.309 E35.07306
G1 X141.817 Y117.321 E35.08378
G1 X140.765 Y117.407 E35.18252
G1 X140.651 Y117.413 E35.1932
G1 X139.553 Y117.443 E35.29595
G1 X139.438 Y117.443 E35.3067
G1 X138.351 Y117.413 E35.40842
G1 X138.236 Y117.407 E35.4192
G1 X137.174 Y117.319 E35.51888
G1 X137.062 Y117.307 E35.52942
G1 X135.959 Y117.156 E35.63356
G1 X135.844 Y117.137 E35.64446
G1 X134.819 Y116.938 E35.74214
G1 X134.708 Y116.913 E35.75278
G1 X133.581 Y116.63 E35.86148
G1 X133.468 Y116.598 E35.87246
G1 X132.545 Y116.311 E35.96288
G1 X132.44 Y116.275 E35.97327
G1 X131.303 Y115.854 E36.08668
G1 X131.193 Y115.81 E36.09776
G1 X130.33 Y115.434 E36.18582
G1 X130.227 Y115.386 E36.19645
G1 X129.127 Y114.834 E36.31158
G1 X129.026 Y114.78 E36.32229
G1 X128.215 Y114.316 E36.4097
G1 X128.118 Y114.257 E36.42032
G1 X127.047 Y113.565 E36.5396
G1 X126.948 Y113.496 E36.55089
G1 X126.464 Y113.143 E36.60692
G1 X126.164 Y112.923 E36.64172
G1 X125.15 Y112.1 E36.76389
G1 X125.059 Y112.022 E36.7751
G1 X124.445 Y111.463 E36.85277
G1 X124.364 Y111.385 E36.86329
G1 X123.4 Y110.408 E36.99168
G1 X123.321 Y110.323 E37.00254
G1 X122.805 Y109.739 E37.07544
G1 X122.73 Y109.649 E37.0864
G1 X121.855 Y108.539 E37.21861
G1 X121.788 Y108.45 E37.22903
G1 X121.354 Y107.835 E37.29945
G1 X121.289 Y107.737 E37.31045
