;FLAVOR:Marlin
;TIME:5348
;Filament used: 3.76978m
;Layer height: 0.16
;MINX:57.077
;MINY:57.089
;MINZ:0.2
;MAXX:177.923
;MAXY:177.911
;MAXZ:3.92
;Generated with Cura_SteamEngine 4.8.0
M140 S100
M105
M190 S100
M104 S240
M105
M109 S240
M82 ;absolute extrusion mode
; Ender 3 Custom Start G-code
G92 E0 ; Reset Extruder
G28 ; Home all axes
G1 Z2.0 F3000 ; Move Z Axis up little to prevent scratching of Heat Bed
G1 X0.1 Y20 Z0.3 F5000.0 ; Move to start position
G1 X0.1 Y200.0 Z0.3 F1500.0 E15 ; Draw the first line
G1 X0.4 Y200.0 Z0.3 F5000.0 ; Move to side a little
G1 X0.4 Y20 Z0.3 F1500.0 E30 ; Draw the second line
G92 E0 ; Reset Extruder
G1 Z2.0 F3000 ; Move Z Axis up little to prevent scratching of Heat Bed
G1 X5 Y20 Z0.3 F5000.0 ; Move over to prevent blob squish
G92 E0
G92 E0
G1 F2700 E-5
;LAYER_COUNT:23
;LAYER:0
M107
G0 F1200 X92.459 Y117.513 Z0.2
;TYPE:SKIRT
G1 F2700 E0
G1 F1200 X94.739 Y117.958 E0.2173
G1 X95.156 Y118.063 E0.25753
G1 X97.944 Y118.934 E0.53076
G1 X98.348 Y119.086 E0.57114
G1 X101.056 Y120.274 E0.84776
G1 X101.439 Y120.467 E0.88788
G1 X103.97 Y121.928 E1.16126
G1 X104.33 Y122.164 E1.20152
G1 X106.661 Y123.878 E1.47218
G1 X106.888 Y124.058 E1.49928
G1 X107.023 Y124.177 E1.51611
G1 X109.139 Y126.125 E1.78516
G1 X109.284 Y126.264 E1.80395
G1 X109.467 Y126.46 E1.82903
G1 X111.366 Y128.64 E2.09948
G1 X111.639 Y128.993 E2.14122
G1 X111.973 Y129.479 E2.19639
G1 X113.304 Y131.395 E2.41462
G1 X113.532 Y131.766 E2.45535
G1 X114.925 Y134.344 E2.72946
G1 X115.107 Y134.73 E2.76938
G1 X116.194 Y137.405 E3.03949
G1 X116.334 Y137.812 E3.07975
G1 X117.138 Y140.657 E3.3563
G1 X117.232 Y141.076 E3.39647
G1 X117.499 Y142.675 E3.54812
G1 X117.745 Y141.166 E3.69114
G1 X117.836 Y140.752 E3.73079
G1 X118.598 Y138.005 E3.99746
G1 X118.679 Y137.747 E4.02276
G1 X118.745 Y137.568 E4.04061
G1 X119.798 Y134.926 E4.30666
G1 X119.976 Y134.543 E4.34616
G1 X121.338 Y131.975 E4.61808
G1 X121.555 Y131.613 E4.65756
G1 X123.142 Y129.273 E4.92205
G1 X123.422 Y128.905 E4.9653
G1 X125.257 Y126.745 E5.23043
G1 X125.392 Y126.593 E5.24945
G1 X125.574 Y126.41 E5.27359
G1 X127.654 Y124.442 E5.54145
G1 X127.973 Y124.171 E5.5806
G1 X130.239 Y122.447 E5.84695
G1 X130.623 Y122.186 E5.89038
G1 X133.053 Y120.726 E6.15557
G1 X133.227 Y120.627 E6.17429
G1 X133.459 Y120.511 E6.19856
G1 X136.062 Y119.308 E6.4668
G1 X136.454 Y119.152 E6.50627
G1 X139.144 Y118.247 E6.77176
G1 X139.546 Y118.135 E6.8108
G1 X142.359 Y117.513 E7.08029
G1 X142.427 Y117.502 E7.08674
G1 X141.705 Y117.372 E7.15536
G1 X141.497 Y117.329 E7.17523
G1 X139.508 Y116.858 E7.36643
G1 X139.308 Y116.805 E7.38579
G1 X138.477 Y116.561 E7.4668
G1 X138.268 Y116.493 E7.48736
G1 X136.367 Y115.816 E7.67613
G1 X136.175 Y115.742 E7.69538
G1 X135.347 Y115.397 E7.77929
G1 X135.146 Y115.306 E7.79993
G1 X133.366 Y114.443 E7.98498
G1 X133.182 Y114.348 E8.00435
G1 X132.345 Y113.886 E8.09378
G1 X132.161 Y113.778 E8.11374
G1 X130.554 Y112.772 E8.29109
G1 X130.374 Y112.652 E8.31132
G1 X129.527 Y112.054 E8.40831
G1 X129.354 Y111.925 E8.4285
G1 X127.904 Y110.776 E8.60156
G1 X127.74 Y110.638 E8.62161
G1 X126.935 Y109.925 E8.72221
G1 X126.783 Y109.783 E8.74166
G1 X125.497 Y108.515 E8.9106
G1 X125.345 Y108.356 E8.93118
G1 X124.624 Y107.558 E9.03178
G1 X124.468 Y107.382 E9.05378
G1 X123.361 Y106.022 E9.21782
G1 X123.23 Y105.851 E9.23797
G1 X122.546 Y104.909 E9.34687
G1 X122.426 Y104.733 E9.3668
G1 X121.504 Y103.305 E9.5258
G1 X121.396 Y103.128 E9.5452
G1 X120.781 Y102.054 E9.66097
G1 X120.679 Y101.864 E9.68114
G1 X119.934 Y100.378 E9.83664
G1 X119.84 Y100.178 E9.85731
G1 X119.342 Y99.026 E9.97471
G1 X119.267 Y98.839 E9.99356
G1 X118.708 Y97.338 E10.14339
G1 X118.634 Y97.096 E10.16706
G1 X118.629 Y97.098 E10.16757
G1 X118.243 Y95.847 E10.29004
G1 X118.188 Y95.649 E10.30926
G1 X117.814 Y94.164 E10.45251
G1 X117.767 Y93.953 E10.47273
G1 X117.499 Y92.561 E10.60534
G1 X117.235 Y93.94 E10.73668
G1 X117.186 Y94.158 E10.75758
G1 X116.803 Y95.674 E10.90385
G1 X116.748 Y95.87 E10.92289
G1 X116.372 Y97.087 E11.04204
G1 X116.293 Y97.328 E11.06577
G1 X115.725 Y98.85 E11.21773
G1 X115.649 Y99.038 E11.2367
G1 X115.149 Y100.191 E11.35426
G1 X115.057 Y100.387 E11.37452
G1 X114.321 Y101.855 E11.52813
G1 X114.219 Y102.045 E11.5483
G1 X113.604 Y103.119 E11.66408
G1 X113.497 Y103.296 E11.68342
G1 X112.57 Y104.732 E11.84331
G1 X112.29 Y105.124 E11.88837
G1 X111.776 Y105.835 E11.97044
G1 X111.639 Y106.013 E11.99145
G1 X110.53 Y107.375 E12.15576
G1 X110.395 Y107.533 E12.1752
G1 X109.654 Y108.35 E12.27837
G1 X109.501 Y108.509 E12.29901
G1 X108.191 Y109.799 E12.471
G1 X108.035 Y109.945 E12.49099
G1 X107.238 Y110.648 E12.5904
G1 X107.079 Y110.78 E12.60973
G1 X105.642 Y111.918 E12.7812
G1 X105.44 Y112.069 E12.80479
G1 X105.32 Y112.152 E12.81844
G1 X104.645 Y112.632 E12.89592
G1 X104.435 Y112.771 E12.91948
G1 X104.105 Y112.975 E12.95577
G1 X102.822 Y113.778 E13.09735
G1 X102.476 Y113.974 E13.13455
G1 X101.815 Y114.341 E13.20528
G1 X101.624 Y114.44 E13.2254
G1 X99.861 Y115.295 E13.40869
G1 X99.656 Y115.387 E13.42971
G1 X98.797 Y115.744 E13.51673
G1 X98.603 Y115.819 E13.53618
G1 X96.719 Y116.487 E13.72317
G1 X96.517 Y116.552 E13.74302
G1 X95.671 Y116.801 E13.82552
G1 X95.468 Y116.855 E13.84517
G1 X93.482 Y117.325 E14.03608
G1 X93.266 Y117.37 E14.05672
G1 X92.459 Y117.513 E14.13338
G0 X92.356 Y116.922
G1 X92.181 Y116.948 E14.14993
G1 X90.087 Y117.205 E14.34728
G1 X89.909 Y117.222 E14.36401
G1 X89.145 Y117.274 E14.43564
G1 X88.965 Y117.282 E14.4525
G1 X86.8 Y117.311 E14.65504
G1 X86.482 Y117.3 E14.6848
G1 X83.601 Y117.06 E14.95524
G1 X83.206 Y117.005 E14.99254
G1 X80.375 Y116.453 E15.26235
G1 X80.023 Y116.364 E15.29632
G1 X77.235 Y115.493 E15.56955
G1 X76.893 Y115.365 E15.60371
G1 X74.183 Y114.176 E15.88054
G1 X73.859 Y114.012 E15.91451
G1 X71.33 Y112.552 E16.18768
G1 X71.025 Y112.352 E16.22179
G1 X68.693 Y110.637 E16.49258
G1 X68.383 Y110.382 E16.53013
G1 X66.266 Y108.433 E16.7993
G1 X65.984 Y108.144 E16.83708
G1 X64.085 Y105.963 E17.1076
G1 X63.862 Y105.676 E17.14159
G1 X62.187 Y103.259 E17.41668
G1 X61.996 Y102.948 E17.45082
G1 X60.602 Y100.369 E17.72505
G1 X60.448 Y100.042 E17.75887
G1 X59.362 Y97.369 E18.02876
G1 X59.243 Y97.025 E18.06281
G1 X58.438 Y94.177 E18.33966
G1 X58.359 Y93.821 E18.37377
G1 X57.88 Y90.944 E18.6466
G1 X57.84 Y90.582 E18.68067
G1 X57.682 Y87.696 E18.95104
G1 X57.682 Y87.3 E18.98809
G1 X57.835 Y84.459 E19.25423
G1 X57.873 Y84.104 E19.28763
G1 X58.337 Y81.262 E19.557
G1 X58.414 Y80.912 E19.59053
G1 X59.176 Y78.165 E19.85719
G1 X59.303 Y77.79 E19.89423
G1 X60.356 Y75.148 E20.16028
G1 X60.506 Y74.824 E20.19368
G1 X61.868 Y72.256 E20.4656
G1 X62.052 Y71.95 E20.499
G1 X63.639 Y69.61 E20.76348
G1 X63.879 Y69.293 E20.80068
G1 X65.714 Y67.133 E21.0658
G1 X65.986 Y66.846 E21.10279
G1 X68.066 Y64.878 E21.37065
G1 X68.336 Y64.649 E21.40377
G1 X70.602 Y62.925 E21.67011
G1 X70.932 Y62.7 E21.70748
G1 X73.362 Y61.24 E21.97266
G1 X73.711 Y61.055 E22.00961
G1 X76.314 Y59.852 E22.27785
G1 X76.646 Y59.72 E22.31127
G1 X79.336 Y58.815 E22.57677
G1 X79.676 Y58.721 E22.60977
G1 X82.489 Y58.099 E22.87926
G1 X82.843 Y58.04 E22.91283
G1 X85.683 Y57.73 E23.18008
G1 X86.08 Y57.709 E23.21727
G1 X88.938 Y57.709 E23.48461
G1 X89.17 Y57.717 E23.50633
G1 X89.936 Y57.771 E23.57816
G1 X90.108 Y57.788 E23.59433
G1 X92.202 Y58.046 E23.79169
G1 X92.382 Y58.073 E23.80872
G1 X93.188 Y58.218 E23.88533
G1 X93.364 Y58.255 E23.90215
G1 X95.353 Y58.726 E24.09335
G1 X95.523 Y58.771 E24.1098
G1 X96.354 Y59.015 E24.19082
G1 X96.531 Y59.072 E24.20822
G1 X98.432 Y59.749 E24.39698
G1 X98.594 Y59.812 E24.41324
G1 X99.422 Y60.157 E24.49715
G1 X99.593 Y60.234 E24.5147
G1 X101.373 Y61.097 E24.69974
G1 X101.527 Y61.176 E24.71593
G1 X102.361 Y61.636 E24.80503
G1 X102.518 Y61.729 E24.8221
G1 X104.124 Y62.734 E24.99932
G1 X104.277 Y62.835 E25.01647
G1 X105.128 Y63.436 E25.11393
G1 X105.273 Y63.545 E25.1309
G1 X106.722 Y64.693 E25.30383
G1 X106.86 Y64.809 E25.32069
G1 X107.659 Y65.516 E25.42049
G1 X107.789 Y65.637 E25.4371
G1 X109.081 Y66.911 E25.60684
G1 X109.209 Y67.045 E25.62417
G1 X109.952 Y67.865 E25.72768
G1 X110.065 Y67.996 E25.74387
G1 X111.169 Y69.35 E25.90729
G1 X111.282 Y69.497 E25.92464
G1 X111.967 Y70.441 E26.03374
G1 X112.068 Y70.588 E26.05043
G1 X112.992 Y72.018 E26.20969
G1 X113.083 Y72.167 E26.22602
G1 X113.7 Y73.243 E26.34205
G1 X113.799 Y73.433 E26.36209
G1 X114.53 Y74.89 E26.51458
G1 X114.609 Y75.06 E26.53211
G1 X115.107 Y76.211 E26.64943
G1 X115.17 Y76.368 E26.66525
G1 X115.73 Y77.87 E26.8152
G1 X115.796 Y78.075 E26.83535
G1 X116.183 Y79.33 E26.9582
G1 X116.23 Y79.497 E26.97443
G1 X116.604 Y80.983 E27.11777
G1 X116.644 Y81.161 E27.13484
G1 X116.904 Y82.504 E27.2628
G1 X116.933 Y82.681 E27.27958
G1 X117.139 Y84.179 E27.42103
G1 X117.159 Y84.36 E27.43806
G1 X117.273 Y85.752 E27.56871
G1 X117.283 Y85.929 E27.58529
G1 X117.324 Y87.404 E27.72332
G1 X117.324 Y87.59 E27.74072
G1 X117.282 Y89.068 E27.87904
G1 X117.272 Y89.244 E27.89553
G1 X117.157 Y90.646 E28.02712
G1 X117.137 Y90.828 E28.04424
G1 X116.931 Y92.319 E28.18504
G1 X116.903 Y92.49 E28.20125
G1 X116.646 Y93.826 E28.32852
G1 X116.604 Y94.011 E28.34627
G1 X116.221 Y95.527 E28.49253
G1 X116.175 Y95.693 E28.50865
G1 X115.799 Y96.91 E28.6278
G1 X115.731 Y97.118 E28.64827
G1 X115.163 Y98.64 E28.80024
G1 X115.099 Y98.799 E28.81627
G1 X114.599 Y99.952 E28.93383
G1 X114.521 Y100.118 E28.95099
G1 X113.785 Y101.586 E29.1046
G1 X113.699 Y101.747 E29.12168
G1 X113.084 Y102.821 E29.23745
G1 X112.992 Y102.971 E29.25391
G1 X112.065 Y104.407 E29.4138
G1 X111.829 Y104.738 E29.45182
G1 X111.29 Y105.484 E29.53792
G1 X111.174 Y105.635 E29.55573
G1 X110.065 Y106.997 E29.72003
G1 X109.95 Y107.13 E29.73648
G1 X109.209 Y107.947 E29.83965
G1 X109.08 Y108.081 E29.85705
G1 X107.77 Y109.371 E30.02904
G1 X107.638 Y109.495 E30.04598
G1 X106.841 Y110.198 E30.14539
G1 X106.707 Y110.31 E30.16173
G1 X105.27 Y111.448 E30.3332
G1 X105.014 Y111.633 E30.36275
G1 X104.297 Y112.143 E30.44505
G1 X104.119 Y112.261 E30.46503
G1 X103.804 Y112.456 E30.49969
G1 X102.503 Y113.27 E30.64324
G1 X102.154 Y113.466 E30.68069
G1 X101.524 Y113.816 E30.7481
G1 X101.362 Y113.9 E30.76517
G1 X99.599 Y114.755 E30.94846
G1 X99.425 Y114.833 E30.9663
G1 X98.566 Y115.19 E31.05332
G1 X98.403 Y115.253 E31.06967
G1 X96.519 Y115.921 E31.25665
G1 X96.348 Y115.977 E31.27348
G1 X95.502 Y116.226 E31.35598
G1 X95.33 Y116.271 E31.37261
G1 X93.344 Y116.741 E31.56352
G1 X93.161 Y116.779 E31.581
G1 X92.356 Y116.922 E31.65749
G0 X92.251 Y116.331
G1 X92.108 Y116.353 E31.67102
G1 X90.014 Y116.61 E31.86837
G1 X89.868 Y116.624 E31.88209
G1 X89.104 Y116.676 E31.95373
G1 X88.957 Y116.682 E31.96749
G1 X86.792 Y116.711 E32.17003
G1 X86.532 Y116.702 E32.19436
G1 X83.651 Y116.462 E32.4648
G1 X83.321 Y116.416 E32.49597
G1 X80.49 Y115.864 E32.76578
G1 X80.202 Y115.791 E32.79357
G1 X77.414 Y114.92 E33.0668
G1 X77.134 Y114.815 E33.09478
G1 X74.424 Y113.626 E33.37161
G1 X74.159 Y113.492 E33.39938
G1 X71.63 Y112.032 E33.67255
G1 X71.38 Y111.869 E33.70047
G1 X69.048 Y110.154 E33.97125
G1 X68.789 Y109.94 E34.00268
G1 X66.672 Y107.991 E34.27186
G1 X66.437 Y107.75 E34.30335
G1 X64.538 Y105.569 E34.57386
G1 X64.355 Y105.334 E34.60173
G1 X62.68 Y102.917 E34.87681
G1 X62.524 Y102.663 E34.90469
G1 X61.13 Y100.084 E35.17893
G1 X61.004 Y99.816 E35.20663
G1 X59.918 Y97.143 E35.47652
G1 X59.821 Y96.861 E35.50442
G1 X59.016 Y94.013 E35.78127
G1 X58.951 Y93.722 E35.80916
G1 X58.472 Y90.845 E36.082
G1 X58.439 Y90.55 E36.10976
G1 X58.281 Y87.664 E36.38014
G1 X58.281 Y87.332 E36.41119
G1 X58.434 Y84.491 E36.67734
G1 X58.465 Y84.201 E36.70462
G1 X58.929 Y81.359 E36.97399
G1 X58.992 Y81.072 E37.00148
G1 X59.754 Y78.325 E37.26815
G1 X59.86 Y78.012 E37.29906
G1 X60.913 Y75.37 E37.56511
G1 X61.036 Y75.105 E37.59244
G1 X62.398 Y72.537 E37.86436
G1 X62.548 Y72.287 E37.89163
G1 X64.135 Y69.947 E38.15611
G1 X64.336 Y69.682 E38.18723
G1 X66.171 Y67.522 E38.45235
G1 X66.398 Y67.282 E38.48325
G1 X68.478 Y65.314 E38.75112
G1 X68.699 Y65.126 E38.77826
G1 X70.965 Y63.402 E39.0446
G1 X71.241 Y63.215 E39.07579
G1 X73.671 Y61.755 E39.34097
G1 X73.962 Y61.6 E39.37182
G1 X76.565 Y60.397 E39.64006
G1 X76.837 Y60.289 E39.66743
G1 X79.527 Y59.384 E39.93293
G1 X79.805 Y59.307 E39.95991
G1 X82.618 Y58.685 E40.22941
G1 X82.908 Y58.637 E40.2569
G1 X85.748 Y58.327 E40.52415
G1 X86.08 Y58.309 E40.55525
G1 X88.938 Y58.309 E40.8226
G1 X89.128 Y58.316 E40.84038
G1 X89.894 Y58.37 E40.91222
G1 X90.034 Y58.383 E40.92537
G1 X92.128 Y58.641 E41.12273
G1 X92.276 Y58.664 E41.13674
G1 X93.082 Y58.809 E41.21335
G1 X93.226 Y58.839 E41.22711
G1 X95.215 Y59.31 E41.41831
G1 X95.354 Y59.346 E41.43175
G1 X96.185 Y59.59 E41.51276
G1 X96.33 Y59.637 E41.52702
G1 X98.231 Y60.314 E41.71579
G1 X98.363 Y60.366 E41.72906
G1 X99.191 Y60.711 E41.81297
G1 X99.331 Y60.773 E41.82729
G1 X101.111 Y61.636 E42.01234
G1 X101.237 Y61.702 E42.02564
G1 X102.071 Y62.162 E42.11474
G1 X102.199 Y62.237 E42.12862
G1 X103.805 Y63.242 E42.30584
G1 X103.931 Y63.326 E42.32001
G1 X104.782 Y63.927 E42.41746
G1 X104.901 Y64.016 E42.43136
G1 X106.35 Y65.164 E42.60429
G1 X106.462 Y65.258 E42.61797
G1 X107.261 Y65.965 E42.71777
G1 X107.368 Y66.064 E42.73141
G1 X108.66 Y67.338 E42.90114
G1 X108.765 Y67.448 E42.91537
G1 X109.508 Y68.268 E43.01888
G1 X109.6 Y68.375 E43.03208
G1 X110.704 Y69.729 E43.1955
G1 X110.796 Y69.849 E43.20965
G1 X111.481 Y70.793 E43.31875
G1 X111.564 Y70.914 E43.33248
G1 X112.488 Y72.344 E43.49174
G1 X112.562 Y72.466 E43.50509
G1 X113.179 Y73.542 E43.62112
G1 X113.262 Y73.702 E43.63798
G1 X113.993 Y75.159 E43.79046
G1 X114.058 Y75.298 E43.80482
G1 X114.556 Y76.449 E43.92213
G1 X114.608 Y76.578 E43.93514
G1 X115.168 Y78.08 E44.0851
G1 X115.61 Y79.506 E44.22475
G1 X115.648 Y79.643 E44.23805
G1 X116.022 Y81.129 E44.38139
G1 X116.055 Y81.275 E44.39539
G1 X116.315 Y82.618 E44.52336
G1 X116.339 Y82.763 E44.5371
G1 X116.545 Y84.261 E44.67855
G1 X116.561 Y84.409 E44.69248
G1 X116.675 Y85.801 E44.82313
G1 X116.683 Y85.946 E44.83671
G1 X116.724 Y87.421 E44.97474
G1 X116.724 Y87.573 E44.98896
G1 X116.682 Y89.051 E45.12728
G1 X116.674 Y89.195 E45.14077
G1 X116.559 Y90.597 E45.27236
G1 X116.543 Y90.746 E45.28637
G1 X116.337 Y92.237 E45.42717
G1 X116.313 Y92.377 E45.44046
G1 X116.056 Y93.713 E45.56773
G1 X116.023 Y93.864 E45.58218
G1 X115.64 Y95.38 E45.72845
G1 X115.602 Y95.516 E45.74166
G1 X115.226 Y96.733 E45.86082
G1 X115.169 Y96.908 E45.87803
G1 X114.601 Y98.43 E46.03
G1 X114.548 Y98.56 E46.04313
G1 X114.048 Y99.713 E46.16069
G1 X113.985 Y99.849 E46.17471
G1 X113.249 Y101.317 E46.32833
G1 X113.178 Y101.449 E46.34235
G1 X112.563 Y102.523 E46.45812
G1 X112.488 Y102.645 E46.47152
G1 X111.561 Y104.081 E46.6314
G1 X111.343 Y104.386 E46.66647
G1 X110.804 Y105.132 E46.75257
G1 X110.709 Y105.256 E46.76718
G1 X109.6 Y106.618 E46.93148
G1 X109.506 Y106.727 E46.94494
G1 X108.765 Y107.544 E47.04812
G1 X108.659 Y107.654 E47.06241
G1 X107.349 Y108.944 E47.23439
G1 X107.241 Y109.045 E47.24823
G1 X106.444 Y109.748 E47.34764
G1 X106.334 Y109.84 E47.36105
G1 X104.897 Y110.978 E47.53252
G1 X104.637 Y111.165 E47.56248
G1 X103.949 Y111.654 E47.64144
G1 X103.804 Y111.751 E47.65776
G1 X103.474 Y111.955 E47.69405
G1 X102.185 Y112.761 E47.83626
G1 X101.894 Y112.925 E47.86751
G1 X101.233 Y113.292 E47.93823
G1 X101.1 Y113.36 E47.95221
G1 X99.337 Y114.215 E48.1355
G1 X99.195 Y114.279 E48.15007
G1 X98.336 Y114.636 E48.23708
G1 X98.202 Y114.688 E48.25053
G1 X96.318 Y115.356 E48.43752
G1 X96.178 Y115.401 E48.45127
G1 X95.332 Y115.65 E48.53377
G1 X95.192 Y115.687 E48.54731
G1 X93.206 Y116.157 E48.73822
G1 X93.056 Y116.188 E48.75255
G1 X92.251 Y116.331 E48.82903
G0 X92.146 Y115.741
G1 X92.035 Y115.757 E48.83952
G1 X89.941 Y116.014 E49.03687
G1 X89.828 Y116.025 E49.0475
G1 X89.064 Y116.077 E49.11913
G1 X88.949 Y116.082 E49.1299
G1 X86.784 Y116.111 E49.33244
G1 X86.582 Y116.104 E49.35134
G1 X83.701 Y115.864 E49.62178
G1 X83.436 Y115.827 E49.64681
G1 X80.605 Y115.275 E49.91662
G1 X80.381 Y115.218 E49.93824
G1 X77.593 Y114.347 E50.21147
G1 X77.375 Y114.266 E50.23323
G1 X74.665 Y113.077 E50.51006
G1 X74.459 Y112.973 E50.53164
G1 X71.93 Y111.513 E50.80481
G1 X71.736 Y111.386 E50.8265
