;FLAVOR:Marlin
;TIME:7862
;Filament used: 5.11379m
;Layer height: 0.2
;MINX:45.606
;MINY:45.622
;MINZ:0.2
;MAXX:189.394
;MAXY:189.378
;MAXZ:4.88
;Generated with Cura_SteamEngine 4.8.0
M140 S100
M105
M190 S100
M104 S240
M105
M109 S240
M82 ;absolute extrusion mode
; Ender 3 Custom Start G-code
G92 E0 ; Reset Extruder
G28 ; Home all axes
G1 Z2.0 F3000 ; Move Z Axis up little to prevent scratching of Heat Bed
G1 X0.1 Y20 Z0.3 F5000.0 ; Move to start position
G1 X0.1 Y200.0 Z0.3 F1500.0 E15 ; Draw the first line
G1 X0.4 Y200.0 Z0.3 F5000.0 ; Move to side a little
G1 X0.4 Y20 Z0.3 F1500.0 E30 ; Draw the second line
G92 E0 ; Reset Extruder
G1 Z2.0 F3000 ; Move Z Axis up little to prevent scratching of Heat Bed
G1 X5 Y20 Z0.3 F5000.0 ; Move over to prevent blob squish
G92 E0
G92 E0
G1 F2700 E-5
;LAYER_COUNT:28
;LAYER:0
M107
G0 F1200 X94.027 Y117.505 Z0.2
;TYPE:SKIRT
G1 F2700 E0
G1 F1200 X95.247 Y117.887 E0.09966
G1 X95.65 Y118.038 E0.1332
G1 X98.98 Y119.5 E0.41671
G1 X99.364 Y119.694 E0.45024
G1 X102.511 Y121.513 E0.73359
G1 X102.869 Y121.748 E0.76698
G1 X105.774 Y123.884 E1.04806
G1 X106.001 Y124.064 E1.07064
G1 X106.136 Y124.182 E1.08462
G1 X108.777 Y126.612 E1.36438
G1 X108.922 Y126.752 E1.38009
G1 X109.105 Y126.949 E1.40105
G1 X111.466 Y129.66 E1.6813
G1 X111.728 Y129.996 E1.71451
G1 X113.804 Y132.985 E1.9982
G1 X114.03 Y133.353 E2.03186
G1 X115.761 Y136.549 E2.3152
G1 X115.893 Y136.815 E2.33835
G1 X115.963 Y136.977 E2.3521
G1 X117.104 Y139.79 E2.58874
G1 X117.312 Y140.297 E2.63146
G1 X117.457 Y140.718 E2.66617
G1 X117.494 Y140.848 E2.6767
G1 X117.613 Y140.501 E2.7053
G1 X118.926 Y137.206 E2.9818
G1 X119.103 Y136.823 E3.01469
G1 X120.792 Y133.638 E3.29572
G1 X121.011 Y133.275 E3.32877
G1 X122.992 Y130.356 E3.60377
G1 X123.269 Y129.99 E3.63955
G1 X125.557 Y127.294 E3.91519
G1 X125.694 Y127.141 E3.9312
G1 X125.876 Y126.957 E3.95138
G1 X128.473 Y124.501 E4.23001
G1 X128.795 Y124.228 E4.26292
G1 X131.185 Y122.415 E4.49677
G1 X131.616 Y122.084 E4.53913
G1 X131.983 Y121.834 E4.57375
G1 X135.023 Y120.008 E4.85019
G1 X135.196 Y119.909 E4.86573
G1 X135.427 Y119.793 E4.88588
G1 X138.666 Y118.295 E5.16407
G1 X139.059 Y118.139 E5.19703
G1 X140.973 Y117.495 E5.35445
G1 X139.753 Y117.113 E5.45411
G1 X139.35 Y116.962 E5.48765
G1 X136.018 Y115.499 E5.77133
G1 X135.634 Y115.304 E5.8049
G1 X132.489 Y113.486 E6.08808
G1 X132.131 Y113.252 E6.12142
G1 X129.225 Y111.115 E6.40261
G1 X129.008 Y110.944 E6.42415
G1 X128.864 Y110.818 E6.43906
G1 X126.222 Y108.387 E6.71894
G1 X126.077 Y108.247 E6.73465
G1 X125.894 Y108.05 E6.75561
G1 X123.534 Y105.34 E7.03574
G1 X123.272 Y105.004 E7.06895
G1 X121.195 Y102.014 E7.35275
G1 X120.968 Y101.646 E7.38646
G1 X119.237 Y98.449 E7.66986
G1 X119.104 Y98.178 E7.69339
G1 X119.038 Y98.025 E7.70638
G1 X117.682 Y94.688 E7.98717
G1 X117.542 Y94.279 E8.02087
G1 X117.506 Y94.152 E8.03116
G1 X117.387 Y94.499 E8.05975
G1 X116.074 Y97.794 E8.33625
G1 X115.897 Y98.177 E8.36914
G1 X114.209 Y101.361 E8.65007
G1 X113.989 Y101.726 E8.68329
G1 X111.985 Y104.676 E8.9613
G1 X111.732 Y105.008 E8.99384
G1 X109.442 Y107.706 E9.2697
G1 X109.306 Y107.859 E9.28566
G1 X109.124 Y108.042 E9.30578
G1 X106.531 Y110.495 E9.58403
G1 X106.209 Y110.769 E9.61699
G1 X103.815 Y112.585 E9.85122
G1 X103.384 Y112.916 E9.89359
G1 X103.017 Y113.166 E9.9282
G1 X99.977 Y114.992 E10.20464
G1 X99.804 Y115.091 E10.22018
G1 X99.573 Y115.207 E10.24033
G1 X96.334 Y116.705 E10.51852
G1 X95.941 Y116.861 E10.55148
G1 X94.027 Y117.505 E10.7089
G0 X95.068 Y118.46
G1 X95.409 Y118.587 E10.73727
G1 X98.739 Y120.049 E11.02077
G1 X99.063 Y120.214 E11.04911
G1 X102.21 Y122.033 E11.33246
G1 X102.514 Y122.231 E11.36075
G1 X105.419 Y124.367 E11.64183
G1 X105.616 Y124.524 E11.66146
G1 X105.729 Y124.624 E11.67323
G1 X108.37 Y127.054 E11.95299
G1 X108.653 Y127.343 E11.98452
G1 X111.014 Y130.054 E12.26476
G1 X111.235 Y130.339 E12.29288
G1 X113.311 Y133.328 E12.57656
G1 X113.503 Y133.638 E12.60499
G1 X115.234 Y136.834 E12.88832
G1 X115.348 Y137.065 E12.90841
G1 X115.407 Y137.202 E12.92003
G1 X116.549 Y140.017 E13.15684
G1 X116.757 Y140.524 E13.19956
G1 X116.88 Y140.881 E13.229
G1 X117.497 Y143.067 E13.40606
G1 X118.044 Y141.097 E13.56544
G1 X118.17 Y140.723 E13.5962
G1 X119.483 Y137.428 E13.8727
G1 X119.634 Y137.104 E13.90057
G1 X121.323 Y133.919 E14.1816
G1 X121.507 Y133.612 E14.2095
G1 X123.488 Y130.693 E14.4845
G1 X123.727 Y130.379 E14.51526
G1 X126.015 Y127.683 E14.7909
G1 X126.289 Y127.393 E14.822
G1 X128.886 Y124.937 E15.10064
G1 X129.158 Y124.706 E15.12846
G1 X131.548 Y122.892 E15.36236
G1 X131.981 Y122.56 E15.40489
G1 X132.292 Y122.348 E15.43423
G1 X135.332 Y120.522 E15.71067
G1 X135.679 Y120.338 E15.74129
G1 X138.918 Y118.84 E16.01948
G1 X139.251 Y118.707 E16.04743
G1 X142.604 Y117.579 E16.3232
G1 X142.948 Y117.484 E16.35102
G1 X139.932 Y116.54 E16.59738
G1 X139.591 Y116.413 E16.62574
G1 X136.259 Y114.95 E16.90942
G1 X135.934 Y114.785 E16.93783
G1 X132.789 Y112.967 E17.22101
G1 X132.486 Y112.769 E17.24922
G1 X129.58 Y110.632 E17.53041
G1 X129.271 Y110.376 E17.56169
G1 X126.629 Y107.945 E17.84157
G1 X126.346 Y107.656 E17.8731
G1 X123.986 Y104.946 E18.15323
G1 X123.765 Y104.662 E18.18128
G1 X121.688 Y101.672 E18.46508
G1 X121.496 Y101.36 E18.49364
G1 X119.765 Y98.163 E18.77704
G1 X119.65 Y97.929 E18.79736
G1 X119.594 Y97.799 E18.8084
G1 X118.238 Y94.462 E19.08919
G1 X118.119 Y94.116 E19.11771
G1 X117.503 Y91.933 E19.29453
G1 X116.956 Y93.903 E19.4539
G1 X116.83 Y94.277 E19.48467
G1 X115.517 Y97.572 E19.76117
G1 X115.367 Y97.896 E19.789
G1 X113.679 Y101.08 E20.06993
G1 X113.493 Y101.388 E20.09797
G1 X111.489 Y104.338 E20.37598
G1 X111.275 Y104.619 E20.40351
G1 X108.985 Y107.317 E20.67938
G1 X108.712 Y107.606 E20.71037
G1 X106.119 Y110.059 E20.98862
G1 X105.846 Y110.291 E21.01655
G1 X103.452 Y112.108 E21.25083
G1 X103.019 Y112.44 E21.29337
G1 X102.708 Y112.652 E21.32271
G1 X99.668 Y114.478 E21.59915
G1 X99.321 Y114.662 E21.62977
G1 X96.082 Y116.16 E21.90795
G1 X95.749 Y116.293 E21.9359
G1 X92.396 Y117.421 E22.21168
G1 X92.052 Y117.516 E22.2395
G1 X95.068 Y118.46 E22.48585
G0 X94.888 Y119.032
G1 X95.167 Y119.137 E22.50909
G1 X98.497 Y120.599 E22.79259
G1 X98.763 Y120.733 E22.81581
G1 X101.91 Y122.552 E23.09916
G1 X102.158 Y122.715 E23.1223
G1 X105.063 Y124.851 E23.40338
G1 X105.323 Y125.065 E23.42963
G1 X107.964 Y127.495 E23.70939
G1 X108.2 Y127.737 E23.73574
G1 X110.561 Y130.448 E24.01598
G1 X110.743 Y130.681 E24.03903
G1 X112.819 Y133.67 E24.32272
G1 X112.975 Y133.924 E24.34595
G1 X114.706 Y137.12 E24.62929
G1 X114.851 Y137.428 E24.65583
G1 X115.994 Y140.245 E24.89281
G1 X116.202 Y140.752 E24.93553
G1 X116.302 Y141.044 E24.95959
G1 X117.299 Y144.576 E25.24568
G1 X117.364 Y144.866 E25.26885
G1 X117.496 Y145.66 E25.33159
G1 X117.609 Y144.968 E25.38625
G1 X117.672 Y144.68 E25.40923
G1 X118.622 Y141.258 E25.68608
G1 X118.728 Y140.946 E25.71176
G1 X120.041 Y137.651 E25.98826
G1 X120.164 Y137.385 E26.01111
G1 X121.853 Y134.2 E26.29214
G1 X122.004 Y133.949 E26.31497
G1 X123.985 Y131.03 E26.58997
G1 X124.184 Y130.767 E26.61568
G1 X126.472 Y128.071 E26.89132
G1 X126.701 Y127.829 E26.9173
G1 X129.298 Y125.373 E27.19593
G1 X129.521 Y125.184 E27.21872
G1 X131.911 Y123.37 E27.45262
G1 X132.347 Y123.035 E27.49548
G1 X132.601 Y122.862 E27.51943
G1 X135.641 Y121.036 E27.79588
G1 X135.931 Y120.882 E27.82147
G1 X139.17 Y119.384 E28.09966
G1 X139.442 Y119.276 E28.12247
G1 X142.795 Y118.148 E28.39825
G1 X143.074 Y118.071 E28.42081
G1 X145.71 Y117.489 E28.63124
G1 X143.904 Y117.137 E28.77468
G1 X143.614 Y117.064 E28.79799
G1 X140.112 Y115.968 E29.08404
G1 X139.833 Y115.863 E29.10728
G1 X136.501 Y114.4 E29.39095
G1 X136.235 Y114.266 E29.41417
G1 X133.09 Y112.448 E29.69735
G1 X132.841 Y112.285 E29.72055
G1 X129.935 Y110.148 E30.00174
G1 X129.677 Y109.935 E30.02782
G1 X127.035 Y107.504 E30.30769
G1 X126.799 Y107.262 E30.33404
G1 X124.439 Y104.552 E30.61417
G1 X124.258 Y104.319 E30.63717
G1 X122.181 Y101.329 E30.92097
G1 X122.024 Y101.075 E30.94425
G1 X120.293 Y97.878 E31.22765
G1 X120.15 Y97.573 E31.25391
G1 X118.794 Y94.236 E31.53469
G1 X118.697 Y93.953 E31.55802
G1 X117.701 Y90.424 E31.84386
G1 X117.636 Y90.134 E31.86703
G1 X117.504 Y89.342 E31.92962
G1 X117.393 Y90.024 E31.98348
G1 X117.33 Y90.312 E32.00646
G1 X116.378 Y93.742 E32.28395
G1 X116.272 Y94.054 E32.30964
G1 X114.959 Y97.349 E32.58614
G1 X114.836 Y97.615 E32.60898
G1 X113.148 Y100.799 E32.88991
G1 X112.996 Y101.051 E32.91285
G1 X110.992 Y104.001 E33.19085
G1 X110.817 Y104.231 E33.21338
G1 X108.527 Y106.929 E33.48925
G1 X108.3 Y107.17 E33.51506
G1 X105.707 Y109.623 E33.79331
G1 X105.483 Y109.813 E33.8162
G1 X103.089 Y111.63 E34.05049
G1 X102.653 Y111.965 E34.09335
G1 X102.399 Y112.138 E34.11731
G1 X99.359 Y113.964 E34.39375
G1 X99.069 Y114.118 E34.41934
G1 X95.83 Y115.616 E34.69753
G1 X95.558 Y115.724 E34.72035
G1 X92.205 Y116.852 E34.99612
G1 X91.926 Y116.929 E35.01868
G1 X89.29 Y117.511 E35.22911
G1 X91.096 Y117.863 E35.37255
G1 X91.386 Y117.936 E35.39586
G1 X94.888 Y119.032 E35.68191
G0 X94.709 Y119.605
G1 X94.926 Y119.686 E35.69996
G1 X98.256 Y121.148 E35.98347
G1 X98.463 Y121.253 E36.00156
G1 X101.61 Y123.072 E36.28491
G1 X101.803 Y123.198 E36.30288
G1 X104.708 Y125.334 E36.58396
G1 X104.917 Y125.507 E36.60511
G1 X107.558 Y127.937 E36.88487
G1 X107.748 Y128.131 E36.90604
G1 X110.109 Y130.842 E37.18628
G1 X110.25 Y131.023 E37.20417
G1 X112.326 Y134.012 E37.48786
G1 X112.448 Y134.21 E37.50599
G1 X114.179 Y137.406 E37.78932
G1 X114.295 Y137.653 E37.81059
G1 X115.439 Y140.473 E38.04782
G1 X115.647 Y140.98 E38.09054
G1 X115.725 Y141.207 E38.10925
G1 X116.722 Y144.739 E38.39534
G1 X116.773 Y144.964 E38.41333
G1 X117.368 Y148.541 E38.696
G1 X117.393 Y148.771 E38.71403
G1 X117.499 Y150.71 E38.86541
G1 X117.601 Y148.822 E39.0128
G1 X117.625 Y148.597 E39.03044
G1 X118.201 Y145.064 E39.30948
G1 X118.251 Y144.84 E39.32738
G1 X119.201 Y141.418 E39.60422
G1 X119.285 Y141.168 E39.62478
G1 X120.598 Y137.873 E39.90128
G1 X120.694 Y137.666 E39.91907
G1 X122.383 Y134.481 E40.2001
G1 X122.5 Y134.286 E40.21783
G1 X124.481 Y131.367 E40.49282
G1 X124.642 Y131.155 E40.51358
G1 X126.93 Y128.459 E40.78922
G1 X127.113 Y128.265 E40.81001
G1 X129.71 Y125.809 E41.08865
G1 X129.883 Y125.662 E41.10634
G1 X132.273 Y123.848 E41.34024
G1 X132.712 Y123.511 E41.38338
G1 X132.91 Y123.377 E41.40202
G1 X136.025 Y121.507 E41.68524
G1 X136.182 Y121.427 E41.69897
G1 X139.421 Y119.929 E41.97716
G1 X139.633 Y119.845 E41.99494
G1 X142.986 Y118.717 E42.27071
G1 X143.203 Y118.656 E42.28828
G1 X146.699 Y117.884 E42.56737
G1 X146.924 Y117.847 E42.58515
G1 X150.298 Y117.479 E42.84972
G1 X147.81 Y117.272 E43.04434
G1 X147.546 Y117.235 E43.06512
G1 X144.019 Y116.548 E43.34523
G1 X143.793 Y116.491 E43.3634
G1 X140.291 Y115.395 E43.64945
G1 X140.074 Y115.314 E43.66751
G1 X136.742 Y113.851 E43.95118
G1 X136.535 Y113.746 E43.96927
G1 X133.39 Y111.928 E44.25245
G1 X133.197 Y111.802 E44.27042
G1 X130.291 Y109.665 E44.55161
G1 X130.083 Y109.493 E44.57265
G1 X127.441 Y107.062 E44.85252
G1 X127.251 Y106.868 E44.87369
G1 X124.891 Y104.158 E45.15382
G1 X124.75 Y103.977 E45.17171
G1 X122.673 Y100.987 E45.4555
G1 X122.551 Y100.789 E45.47363
G1 X120.82 Y97.592 E45.75704
G1 X120.705 Y97.348 E45.77806
G1 X119.349 Y94.011 E46.05885
G1 X119.274 Y93.79 E46.07704
G1 X118.278 Y90.261 E46.36289
G1 X118.227 Y90.035 E46.38095
G1 X117.632 Y86.456 E46.66377
G1 X117.607 Y86.227 E46.68173
G1 X117.501 Y84.293 E46.83272
G1 X117.4 Y86.176 E46.97972
G1 X117.376 Y86.401 E46.99736
G1 X116.801 Y89.928 E47.27593
G1 X116.752 Y90.152 E47.2938
G1 X115.8 Y93.582 E47.57129
G1 X115.715 Y93.832 E47.59187
G1 X114.402 Y97.127 E47.86837
G1 X114.306 Y97.334 E47.88616
G1 X112.618 Y100.518 E48.16709
G1 X112.5 Y100.714 E48.18492
G1 X110.496 Y103.664 E48.46293
G1 X110.36 Y103.843 E48.48045
G1 X108.07 Y106.541 E48.75631
G1 X107.887 Y106.735 E48.7771
G1 X105.294 Y109.188 E49.05535
G1 X105.121 Y109.335 E49.07305
G1 X102.727 Y111.152 E49.30734
G1 X102.288 Y111.489 E49.35048
G1 X102.09 Y111.623 E49.36911
G1 X98.975 Y113.493 E49.65233
G1 X98.818 Y113.573 E49.66607
G1 X95.579 Y115.071 E49.94426
G1 X95.367 Y115.155 E49.96203
G1 X92.014 Y116.283 E50.23781
G1 X91.797 Y116.344 E50.25538
G1 X88.301 Y117.116 E50.53447
G1 X88.076 Y117.153 E50.55224
G1 X84.702 Y117.521 E50.81682
G1 X87.19 Y117.728 E51.01144
G1 X87.454 Y117.765 E51.03222
G1 X90.981 Y118.452 E51.31233
G1 X91.207 Y118.509 E51.3305
G1 X94.709 Y119.605 E51.61655
G0 X94.53 Y120.177
G1 X94.685 Y120.236 E51.62947
G1 X98.015 Y121.698 E51.91298
G1 X98.163 Y121.772 E51.92587
G1 X101.31 Y123.591 E52.20923
G1 X101.448 Y123.682 E52.22211
G1 X104.353 Y125.818 E52.50319
G1 X104.511 Y125.948 E52.51914
G1 X107.197 Y128.421 E52.80376
G1 X107.295 Y128.525 E52.8149
G1 X109.656 Y131.236 E53.09514
G1 X109.757 Y131.365 E53.10791
G1 X111.833 Y134.354 E53.3916
G1 X111.92 Y134.496 E53.40458
G1 X113.651 Y137.692 E53.68791
G1 X113.739 Y137.879 E53.70402
G1 X114.884 Y140.701 E53.94143
G1 X115.092 Y141.208 E53.98415
G1 X115.148 Y141.37 E53.99751
G1 X116.145 Y144.902 E54.2836
G1 X116.181 Y145.063 E54.29646
G1 X116.776 Y148.64 E54.57913
G1 X116.794 Y148.804 E54.59199
G1 X116.991 Y152.403 E54.87297
G1 X116.991 Y152.604 E54.88863
G1 X116.801 Y156.143 E55.16491
G1 X116.783 Y156.304 E55.17754
G1 X116.208 Y159.831 E55.45611
G1 X116.173 Y159.991 E55.46888
G1 X115.221 Y163.421 E55.74636
G1 X115.157 Y163.61 E55.76192
G1 X113.844 Y166.905 E56.03842
G1 X113.776 Y167.053 E56.05111
G1 X112.088 Y170.237 E56.33204
G1 X112.004 Y170.377 E56.34477
G1 X110 Y173.327 E56.62277
G1 X109.903 Y173.455 E56.63529
G1 X107.613 Y176.153 E56.91116
G1 X107.475 Y176.299 E56.92682
G1 X104.882 Y178.752 E57.20507
G1 X104.758 Y178.857 E57.21773
G1 X102.364 Y180.674 E57.45202
G1 X101.923 Y181.013 E57.49538
G1 X101.781 Y181.109 E57.50874
G1 X98.687 Y182.966 E57.79004
G1 X98.566 Y183.028 E57.80064
G1 X95.327 Y184.526 E58.07882
G1 X95.175 Y184.587 E58.09159
G1 X91.822 Y185.715 E58.36736
G1 X91.667 Y185.758 E58.3799
G1 X88.171 Y186.53 E58.65899
G1 X88.011 Y186.556 E58.67163
G1 X84.472 Y186.942 E58.94914
G1 X84.271 Y186.953 E58.96483
G1 X80.712 Y186.953 E59.24227
G1 X80.606 Y186.949 E59.25054
G1 X79.656 Y186.882 E59.32478
G1 X79.579 Y186.875 E59.33081
G1 X76.972 Y186.554 E59.53556
G1 X76.891 Y186.542 E59.54195
G1 X75.891 Y186.363 E59.62114
G1 X75.81 Y186.346 E59.62759
G1 X73.33 Y185.759 E59.82626
G1 X73.251 Y185.738 E59.83263
G1 X72.22 Y185.434 E59.91642
G1 X72.142 Y185.409 E59.92281
G1 X69.785 Y184.572 E60.11778
G1 X69.706 Y184.541 E60.1244
G1 X68.653 Y184.099 E60.21342
G1 X68.58 Y184.066 E60.21967
G1 X66.382 Y183.002 E60.41003
G1 X66.311 Y182.965 E60.41627
G1 X65.269 Y182.39 E60.50904
G1 X65.198 Y182.348 E60.51547
G1 X63.195 Y181.094 E60.69969
G1 X63.124 Y181.047 E60.70633
G1 X62.078 Y180.306 E60.80626
G1 X62.014 Y180.258 E60.81249
G1 X60.206 Y178.828 E60.99219
G1 X60.144 Y178.776 E60.99849
G1 X59.16 Y177.907 E61.10083
G1 X59.1 Y177.851 E61.10723
G1 X57.483 Y176.257 E61.28423
G1 X57.424 Y176.196 E61.29084
G1 X56.497 Y175.172 E61.39852
G1 X56.445 Y175.111 E61.40477
G1 X55.069 Y173.419 E61.57477
G1 X55.02 Y173.355 E61.58106
G1 X54.167 Y172.182 E61.69412
G1 X54.12 Y172.114 E61.70056
G1 X52.975 Y170.341 E61.86509
G1 X52.933 Y170.272 E61.87139
G1 X52.169 Y168.938 E61.99122
G1 X51.207 Y167.022 E62.15835
G1 X51.171 Y166.943 E62.16512
G1 X50.662 Y165.764 E62.26522
G1 X50.524 Y165.449 E62.29203
G1 X49.823 Y163.563 E62.44888
G1 X49.313 Y161.913 E62.58351
G1 X49.291 Y161.834 E62.5899
G1 X48.895 Y160.252 E62.71703
G1 X48.823 Y159.976 E62.73926
G1 X48.802 Y159.883 E62.74669
G1 X48.481 Y158.218 E62.87888
G1 X48.468 Y158.138 E62.88519
G1 X48.212 Y156.275 E63.03179
G1 X48.203 Y156.194 E63.03814
G1 X48.06 Y154.449 E63.17462
G1 X48.056 Y154.367 E63.18102
G1 X48.006 Y152.546 E63.32303
G1 X48.006 Y152.463 E63.3295
G1 X48.058 Y150.611 E63.47393
G1 X48.062 Y150.53 E63.48025
G1 X48.205 Y148.794 E63.61604
G1 X48.214 Y148.711 E63.62254
G1 X48.47 Y146.862 E63.76805
G1 X48.483 Y146.784 E63.77422
G1 X48.807 Y145.104 E63.90759
G1 X48.826 Y145.021 E63.91423
G1 X49.294 Y143.165 E64.06344
G1 X49.315 Y143.09 E64.06951
G1 X49.798 Y141.525 E64.19719
