;FLAVOR:Marlin
;TIME:5638
;Filament used: 3.75708m
;Layer height: 0.16
;MINX:78.735
;MINY:78.73
;MINZ:0.2
;MAXX:156.264
;MAXY:156.269
;MAXZ:7.88
;Generated with Cura_SteamEngine 4.8.0
M140 S75
M105
M190 S75
M104 S240
M105
M109 S240
M82 ;absolute extrusion mode
; Ender 3 Custom Start G-code
G92 E0 ; Reset Extruder
G28 ; Home all axes
G1 Z2.0 F3000 ; Move Z Axis up little to prevent scratching of Heat Bed
G1 X5 Y20 Z0.3 F5000.0 ; Move over to prevent blob squish
G92 E0
G92 E0
G1 F2400 E-6
;LAYER_COUNT:46
;LAYER:0
M107
G0 F3000 X89.51 Y90.678 Z0.2
;TYPE:SKIRT
G1 F2400 E0
;FLOW_RATE_COMPENSATED_OFFSET = 1.875000
G1 F600 X92.26 Y88.078 E2.17002
G1 X92.456 Y87.905 E2.19039
G1 X93.271 Y87.232 E2.27279
G1 X93.445 Y87.096 E2.29
G1 X95.641 Y85.483 E2.50241
G1 X95.816 Y85.362 E2.51899
G1 X96.81 Y84.712 E2.61157
G1 X96.992 Y84.6 E2.62823
G1 X99.22 Y83.312 E2.82885
G1 X99.411 Y83.208 E2.8458
G1 X100.614 Y82.599 E2.95091
G1 X100.806 Y82.508 E2.96747
G1 X103.034 Y81.529 E3.15718
G1 X103.245 Y81.444 E3.17491
G1 X104.65 Y80.922 E3.29175
G1 X104.842 Y80.856 E3.30758
G1 X106.999 Y80.18 E3.48379
G1 X107.208 Y80.121 E3.50072
G1 X108.785 Y79.722 E3.62752
G1 X108.991 Y79.676 E3.64398
G1 X111.11 Y79.26 E3.81231
G1 X111.326 Y79.224 E3.82938
G1 X113.051 Y78.985 E3.96514
G1 X113.264 Y78.961 E3.98185
G1 X115.29 Y78.793 E4.14032
G1 X115.506 Y78.781 E4.15719
G1 X117.381 Y78.73 E4.3034
G1 X117.594 Y78.73 E4.32001
G1 X119.491 Y78.782 E4.46794
G1 X119.703 Y78.794 E4.48449
G1 X121.728 Y78.96 E4.64288
G1 X121.951 Y78.985 E4.66037
G1 X123.712 Y79.232 E4.79899
G1 X123.915 Y79.266 E4.81504
G1 X126.001 Y79.672 E4.9807
G1 X126.217 Y79.72 E4.99795
G1 X127.791 Y80.12 E5.12455
G1 X127.997 Y80.179 E5.14125
G1 X130.185 Y80.865 E5.32
G1 X130.382 Y80.932 E5.33622
G1 X131.769 Y81.45 E5.45163
G1 X131.975 Y81.534 E5.46898
G1 X134.221 Y82.522 E5.66025
G1 X134.408 Y82.61 E5.67636
G1 X135.595 Y83.209 E5.78001
G1 X135.795 Y83.318 E5.79776
G1 X138.027 Y84.613 E5.99892
G1 X138.201 Y84.72 E6.01484
G1 X139.197 Y85.37 E6.10756
G1 X139.377 Y85.495 E6.12464
G1 X141.561 Y87.102 E6.33601
G1 X141.735 Y87.237 E6.35318
G1 X142.565 Y87.923 E6.43712
G1 X142.723 Y88.061 E6.45347
G1 X144.804 Y89.979 E6.67409
G1 X145.069 Y90.248 E6.70352
G1 X147.673 Y93.162 E7.00816
G1 X147.946 Y93.504 E7.04227
G1 X150.202 Y96.683 E7.34615
G1 X150.433 Y97.052 E7.38008
G1 X152.332 Y100.484 E7.68584
G1 X152.523 Y100.88 E7.72012
G1 X154.017 Y104.489 E8.0246
G1 X154.161 Y104.899 E8.05848
G1 X155.241 Y108.64 E8.36201
G1 X155.339 Y109.069 E8.39632
G1 X155.998 Y112.947 E8.70295
G1 X156.047 Y113.384 E8.73723
G1 X156.264 Y117.291 E9.04227
G1 X156.264 Y117.718 E9.07555
G1 X156.059 Y121.494 E9.37034
G1 X156.014 Y121.912 E9.40311
G1 X155.408 Y125.619 E9.69592
G1 X155.317 Y126.034 E9.72904
G1 X154.303 Y129.682 E10.02419
G1 X154.168 Y130.081 E10.05703
G1 X152.774 Y133.582 E10.35078
G1 X152.568 Y134.001 E10.38718
G1 X152.574 Y134.004 E10.3877
G1 X150.821 Y137.313 E10.67961
G1 X150.602 Y137.677 E10.71273
G1 X148.485 Y140.797 E11.00664
G1 X148.231 Y141.132 E11.03942
G1 X145.784 Y144.013 E11.33408
G1 X145.49 Y144.322 E11.36732
G1 X142.74 Y146.922 E11.66234
G1 X142.544 Y147.095 E11.68272
G1 X141.729 Y147.768 E11.76511
G1 X141.555 Y147.904 E11.78233
G1 X139.359 Y149.517 E11.99473
G1 X139.184 Y149.638 E12.01132
G1 X138.19 Y150.288 E12.1039
G1 X138.008 Y150.4 E12.12056
G1 X135.78 Y151.688 E12.32117
G1 X135.589 Y151.792 E12.33812
G1 X134.386 Y152.401 E12.44323
G1 X134.194 Y152.491 E12.45976
G1 X131.967 Y153.47 E12.6494
G1 X131.755 Y153.556 E12.66723
G1 X130.348 Y154.078 E12.78422
G1 X130.158 Y154.143 E12.79987
G1 X128.002 Y154.819 E12.97601
G1 X127.792 Y154.879 E12.99303
G1 X126.215 Y155.278 E13.11984
G1 X126.009 Y155.324 E13.13629
G1 X123.89 Y155.74 E13.30463
G1 X123.674 Y155.776 E13.3217
G1 X121.949 Y156.015 E13.45745
G1 X121.736 Y156.039 E13.47416
G1 X119.71 Y156.207 E13.63264
G1 X119.491 Y156.219 E13.64974
G1 X117.606 Y156.269 E13.79673
G1 X117.401 Y156.269 E13.81271
G1 X115.521 Y156.22 E13.95931
G1 X115.302 Y156.208 E13.97641
G1 X113.27 Y156.04 E14.13535
G1 X113.049 Y156.015 E14.15269
G1 X111.288 Y155.768 E14.29131
G1 X111.085 Y155.734 E14.30735
G1 X108.999 Y155.328 E14.47302
G1 X108.783 Y155.28 E14.49027
G1 X107.209 Y154.88 E14.61686
G1 X107.003 Y154.821 E14.63357
G1 X104.815 Y154.135 E14.81232
G1 X104.618 Y154.068 E14.82854
G1 X103.231 Y153.55 E14.94395
G1 X103.025 Y153.466 E14.9613
G1 X100.779 Y152.478 E15.15257
G1 X100.591 Y152.389 E15.16878
G1 X99.403 Y151.789 E15.27253
G1 X99.204 Y151.682 E15.29015
G1 X96.973 Y150.388 E15.4912
G1 X96.799 Y150.28 E15.50716
G1 X95.803 Y149.63 E15.59987
G1 X95.622 Y149.505 E15.61702
G1 X93.437 Y147.897 E15.8285
G1 X93.265 Y147.762 E15.84555
G1 X92.436 Y147.077 E15.92938
G1 X92.277 Y146.939 E15.94579
G1 X90.196 Y145.021 E16.1664
G1 X89.931 Y144.752 E16.19584
G1 X87.326 Y141.837 E16.50059
G1 X87.053 Y141.495 E16.5347
G1 X84.798 Y138.317 E16.83847
G1 X84.567 Y137.948 E16.8724
G1 X82.668 Y134.516 E17.17816
G1 X82.477 Y134.12 E17.21244
G1 X80.982 Y130.509 E17.5171
G1 X80.838 Y130.098 E17.55105
G1 X79.758 Y126.356 E17.85465
G1 X79.66 Y125.928 E17.88888
G1 X79.002 Y122.051 E18.19543
G1 X78.953 Y121.615 E18.22963
G1 X78.735 Y117.709 E18.53459
G1 X78.735 Y117.279 E18.56811
G1 X78.941 Y113.504 E18.86282
G1 X78.986 Y113.088 E18.89544
G1 X79.592 Y109.381 E19.18825
G1 X79.683 Y108.966 E19.22137
G1 X80.697 Y105.318 E19.51652
G1 X80.832 Y104.919 E19.54936
G1 X82.226 Y101.418 E19.84311
G1 X82.432 Y100.999 E19.87951
G1 X82.426 Y100.996 E19.88003
G1 X84.179 Y97.687 E20.17194
G1 X84.398 Y97.323 E20.20506
G1 X86.515 Y94.203 E20.49897
G1 X86.769 Y93.868 E20.53175
G1 X89.216 Y90.987 E20.82641
G1 X89.51 Y90.678 E20.85965
G0 F3000 X89.922 Y91.114 E20.85965
G1 F600 X92.672 Y88.514 E21.15467
G1 X92.838 Y88.367 E21.17195
G1 X93.653 Y87.694 E21.25435
G1 X93.8 Y87.579 E21.2689
G1 X95.996 Y85.966 E21.4813
G1 X96.144 Y85.864 E21.49531
G1 X97.138 Y85.214 E21.58789
G1 X97.292 Y85.119 E21.602
G1 X99.52 Y83.831 E21.80261
G1 X99.682 Y83.744 E21.81695
G1 X100.885 Y83.135 E21.92206
G1 X101.047 Y83.058 E21.93604
G1 X103.275 Y82.079 E22.12575
G1 X103.454 Y82.007 E22.14079
G1 X104.859 Y81.485 E22.25763
G1 X105.021 Y81.429 E22.27099
G1 X107.178 Y80.753 E22.4472
G1 X107.356 Y80.703 E22.46161
G1 X108.933 Y80.304 E22.58842
G1 X109.106 Y80.265 E22.60224
G1 X111.225 Y79.849 E22.77058
G1 X111.408 Y79.818 E22.78505
G1 X113.133 Y79.579 E22.9208
G1 X113.313 Y79.559 E22.93492
G1 X115.339 Y79.391 E23.09339
G1 X115.522 Y79.381 E23.10768
G1 X117.397 Y79.33 E23.2539
G1 X117.577 Y79.33 E23.26793
G1 X119.474 Y79.382 E23.41586
G1 X119.654 Y79.392 E23.42991
G1 X121.679 Y79.558 E23.5883
G1 X121.867 Y79.579 E23.60305
G1 X123.628 Y79.826 E23.74167
G1 X123.8 Y79.855 E23.75526
G1 X125.886 Y80.261 E23.92093
G1 X126.069 Y80.302 E23.93554
G1 X127.643 Y80.702 E24.06214
G1 X127.817 Y80.751 E24.07624
G1 X130.005 Y81.437 E24.25498
G1 X130.173 Y81.495 E24.26884
G1 X131.56 Y82.013 E24.38425
G1 X131.734 Y82.083 E24.39887
G1 X133.98 Y83.071 E24.59015
G1 X134.138 Y83.146 E24.60378
G1 X135.325 Y83.745 E24.70743
G1 X135.494 Y83.837 E24.72243
G1 X137.726 Y85.132 E24.92358
G1 X137.874 Y85.222 E24.93709
G1 X138.87 Y85.872 E25.0298
G1 X139.022 Y85.978 E25.04425
G1 X141.206 Y87.585 E25.25562
G1 X141.352 Y87.699 E25.27006
G1 X142.182 Y88.385 E25.354
G1 X142.316 Y88.502 E25.36786
G1 X144.397 Y90.42 E25.58848
G1 X144.622 Y90.648 E25.61345
G1 X147.226 Y93.562 E25.91809
G1 X147.456 Y93.851 E25.94688
G1 X149.712 Y97.03 E26.25075
G1 X149.908 Y97.342 E26.27948
G1 X151.807 Y100.774 E26.58524
G1 X151.969 Y101.11 E26.61432
G1 X153.463 Y104.719 E26.9188
G1 X153.585 Y105.066 E26.94748
G1 X154.665 Y108.807 E27.25101
G1 X154.747 Y109.169 E27.27994
G1 X155.406 Y113.047 E27.58658
G1 X155.448 Y113.417 E27.61561
G1 X155.665 Y117.324 E27.92064
G1 X155.665 Y117.686 E27.94886
G1 X155.46 Y121.462 E28.24365
G1 X155.422 Y121.815 E28.27132
G1 X154.816 Y125.522 E28.56413
G1 X154.738 Y125.874 E28.59224
G1 X153.724 Y129.522 E28.88739
G1 X153.611 Y129.859 E28.9151
G1 X152.217 Y133.36 E29.20885
G1 X152.04 Y133.721 E29.2402
G1 X150.291 Y137.032 E29.5321
G1 X150.106 Y137.34 E29.5601
G1 X147.989 Y140.46 E29.85402
G1 X147.773 Y140.743 E29.88177
G1 X145.326 Y143.624 E30.17643
G1 X145.078 Y143.886 E30.20456
G1 X142.328 Y146.486 E30.49957
G1 X142.162 Y146.633 E30.51686
G1 X141.347 Y147.306 E30.59925
G1 X141.2 Y147.421 E30.6138
G1 X139.004 Y149.034 E30.8262
G1 X138.856 Y149.136 E30.84021
G1 X137.862 Y149.786 E30.9328
G1 X137.708 Y149.881 E30.9469
G1 X135.48 Y151.169 E31.14751
G1 X135.318 Y151.256 E31.16185
G1 X134.115 Y151.865 E31.26696
G1 X133.953 Y151.942 E31.28094
G1 X131.726 Y152.921 E31.47058
G1 X131.546 Y152.994 E31.48572
G1 X130.139 Y153.516 E31.6027
G1 X129.978 Y153.571 E31.61597
G1 X127.822 Y154.247 E31.7921
G1 X127.644 Y154.297 E31.80652
G1 X126.067 Y154.696 E31.93332
G1 X125.894 Y154.735 E31.94715
G1 X123.775 Y155.151 E32.11548
G1 X123.592 Y155.182 E32.12995
G1 X121.867 Y155.421 E32.26571
G1 X121.687 Y155.441 E32.27982
G1 X119.661 Y155.609 E32.4383
G1 X119.476 Y155.619 E32.45274
G1 X117.591 Y155.669 E32.59974
G1 X117.417 Y155.669 E32.6133
G1 X115.537 Y155.62 E32.7599
G1 X115.351 Y155.61 E32.77442
G1 X113.319 Y155.442 E32.93336
G1 X113.133 Y155.421 E32.94796
G1 X111.372 Y155.174 E33.08658
G1 X111.2 Y155.145 E33.10017
G1 X109.114 Y154.739 E33.26583
G1 X108.931 Y154.698 E33.28045
G1 X107.357 Y154.298 E33.40705
G1 X107.183 Y154.249 E33.42114
G1 X104.995 Y153.563 E33.59989
G1 X104.827 Y153.505 E33.61375
G1 X103.44 Y152.987 E33.72916
G1 X103.266 Y152.917 E33.74378
G1 X101.02 Y151.929 E33.93506
G1 X100.861 Y151.854 E33.94876
G1 X99.673 Y151.254 E34.05251
G1 X99.505 Y151.163 E34.06741
G1 X97.274 Y149.869 E34.26846
G1 X97.126 Y149.778 E34.282
G1 X96.13 Y149.128 E34.37471
G1 X95.978 Y149.022 E34.38916
G1 X93.793 Y147.414 E34.60064
G1 X93.647 Y147.3 E34.61508
G1 X92.818 Y146.615 E34.69891
G1 X92.684 Y146.498 E34.71278
G1 X90.603 Y144.58 E34.93339
G1 X90.378 Y144.352 E34.95836
G1 X87.773 Y141.437 E35.26311
G1 X87.543 Y141.148 E35.2919
G1 X85.288 Y137.97 E35.59567
G1 X85.092 Y137.658 E35.62439
G1 X83.193 Y134.226 E35.93015
G1 X83.031 Y133.89 E35.95923
G1 X81.536 Y130.279 E36.26389
G1 X81.414 Y129.932 E36.29256
G1 X80.334 Y126.19 E36.59617
G1 X80.252 Y125.827 E36.62518
G1 X79.594 Y121.95 E36.93173
G1 X79.552 Y121.582 E36.9606
G1 X79.334 Y117.676 E37.26556
G1 X79.334 Y117.312 E37.29394
G1 X79.54 Y113.537 E37.58865
G1 X79.578 Y113.185 E37.61625
G1 X80.184 Y109.478 E37.90906
G1 X80.262 Y109.126 E37.93716
G1 X81.276 Y105.478 E38.23232
G1 X81.389 Y105.141 E38.26002
G1 X82.783 Y101.64 E38.55378
G1 X82.96 Y101.279 E38.58512
G1 X84.709 Y97.968 E38.87702
G1 X84.894 Y97.66 E38.90503
G1 X87.011 Y94.54 E39.19895
G1 X87.227 Y94.257 E39.2267
G1 X89.674 Y91.376 E39.52136
G1 X89.922 Y91.114 E39.54948
G0 F3000 X90.334 Y91.55 E39.54948
G1 F600 X93.084 Y88.95 E39.8445
G1 X93.22 Y88.83 E39.85864
G1 X94.035 Y88.157 E39.94103
G1 X94.156 Y88.063 E39.95297
G1 X96.352 Y86.45 E40.16538
G1 X96.472 Y86.366 E40.17679
G1 X97.466 Y85.716 E40.26938
G1 X97.593 Y85.638 E40.28099
G1 X99.821 Y84.35 E40.48161
G1 X99.953 Y84.279 E40.49329
G1 X101.156 Y83.67 E40.5984
G1 X101.289 Y83.607 E40.60987
G1 X103.517 Y82.628 E40.79958
G1 X103.663 Y82.569 E40.81186
G1 X105.068 Y82.047 E40.9287
G1 X105.201 Y82.002 E40.93964
G1 X107.358 Y81.326 E41.11585
G1 X107.503 Y81.284 E41.12762
G1 X109.08 Y80.885 E41.25442
G1 X109.222 Y80.854 E41.26576
G1 X111.341 Y80.438 E41.43409
G1 X111.49 Y80.413 E41.44587
G1 X113.215 Y80.174 E41.58162
G1 X113.363 Y80.157 E41.59324
G1 X115.389 Y79.989 E41.75171
G1 X115.539 Y79.981 E41.76342
G1 X117.414 Y79.93 E41.90964
G1 X117.561 Y79.93 E41.9211
G1 X119.458 Y79.982 E42.06903
G1 X119.605 Y79.99 E42.08051
G1 X121.63 Y80.156 E42.23889
G1 X121.784 Y80.173 E42.25097
G1 X123.545 Y80.42 E42.38959
G1 X123.686 Y80.444 E42.40074
G1 X125.772 Y80.85 E42.5664
G1 X125.921 Y80.883 E42.5783
G1 X127.495 Y81.283 E42.7049
G1 X127.638 Y81.324 E42.71649
G1 X129.826 Y82.01 E42.89524
G1 X129.963 Y82.057 E42.90653
G1 X131.35 Y82.575 E43.02195
G1 X131.492 Y82.633 E43.03391
G1 X133.738 Y83.621 E43.22518
G1 X133.867 Y83.682 E43.2363
G1 X135.054 Y84.281 E43.33995
G1 X135.193 Y84.356 E43.35226
G1 X137.425 Y85.651 E43.55342
G1 X137.546 Y85.725 E43.56447
G1 X138.542 Y86.375 E43.65719
G1 X138.666 Y86.461 E43.66895
G1 X140.85 Y88.068 E43.88032
G1 X140.97 Y88.162 E43.8922
G1 X141.8 Y88.848 E43.97614
G1 X141.91 Y88.944 E43.98753
G1 X143.991 Y90.862 E44.20814
G1 X144.174 Y91.048 E44.22848
G1 X146.778 Y93.962 E44.53312
G1 X146.967 Y94.198 E44.55669
G1 X149.223 Y97.377 E44.86056
G1 X149.383 Y97.633 E44.8841
G1 X151.282 Y101.065 E45.18986
G1 X151.415 Y101.339 E45.2136
G1 X152.909 Y104.948 E45.51809
G1 X153.008 Y105.232 E45.54153
G1 X154.088 Y108.973 E45.84506
G1 X154.156 Y109.27 E45.86882
G1 X154.815 Y113.148 E46.17545
G1 X154.849 Y113.45 E46.19914
G1 X155.066 Y117.357 E46.50418
G1 X155.066 Y117.653 E46.52725
G1 X154.861 Y121.429 E46.82204
G1 X154.83 Y121.719 E46.84477
G1 X154.224 Y125.426 E47.13758
G1 X154.16 Y125.713 E47.1605
G1 X153.146 Y129.361 E47.45566
G1 X153.053 Y129.637 E47.47836
G1 X151.659 Y133.138 E47.77212
G1 X151.511 Y133.441 E47.7984
G1 X149.761 Y136.751 E48.09027
G1 X149.609 Y137.003 E48.11321
G1 X147.492 Y140.123 E48.40713
G1 X147.316 Y140.355 E48.42983
G1 X144.869 Y143.236 E48.72449
G1 X144.666 Y143.45 E48.74748
G1 X141.916 Y146.05 E49.0425
G1 X141.78 Y146.17 E49.05664
G1 X140.965 Y146.843 E49.13903
G1 X140.844 Y146.937 E49.15098
G1 X138.648 Y148.55 E49.36338
G1 X138.528 Y148.634 E49.3748
G1 X137.534 Y149.284 E49.46738
G1 X137.407 Y149.362 E49.479
G1 X135.179 Y150.65 E49.67961
G1 X135.047 Y150.721 E49.6913
G1 X133.844 Y151.33 E49.7964
G1 X133.712 Y151.393 E49.80781
G1 X131.485 Y152.372 E49.99744
G1 X131.337 Y152.431 E50.00986
G1 X129.93 Y152.953 E50.12685
G1 X129.799 Y152.998 E50.13765
G1 X127.643 Y153.674 E50.31378
G1 X127.497 Y153.716 E50.32562
G1 X125.92 Y154.115 E50.45243
G1 X125.778 Y154.146 E50.46376
G1 X123.659 Y154.562 E50.6321
G1 X123.51 Y154.587 E50.64387
G1 X121.785 Y154.826 E50.77963
G1 X121.637 Y154.843 E50.79124
G1 X119.611 Y155.011 E50.94972
G1 X119.46 Y155.019 E50.9615
G1 X117.575 Y155.069 E51.1085
G1 X117.433 Y155.069 E51.11957
G1 X115.553 Y155.02 E51.26617
G1 X115.401 Y155.012 E51.27804
G1 X113.369 Y154.844 E51.43698
G1 X113.216 Y154.827 E51.44898
G1 X111.455 Y154.58 E51.5876
G1 X111.314 Y154.556 E51.59875
G1 X109.228 Y154.15 E51.76441
G1 X109.079 Y154.117 E51.77631
G1 X107.505 Y153.717 E51.9029
G1 X107.362 Y153.676 E51.9145
G1 X105.174 Y152.99 E52.09325
G1 X105.037 Y152.943 E52.10454
G1 X103.65 Y152.425 E52.21996
G1 X103.508 Y152.367 E52.23191
G1 X101.262 Y151.379 E52.42319
G1 X101.132 Y151.318 E52.43438
G1 X99.944 Y150.718 E52.53813
G1 X99.806 Y150.644 E52.55034
G1 X97.575 Y149.35 E52.75139
G1 X97.454 Y149.275 E52.76249
G1 X96.458 Y148.625 E52.8552
G1 X96.334 Y148.539 E52.86696
G1 X94.149 Y146.931 E53.07844
G1 X94.029 Y146.837 E53.09033
G1 X93.2 Y146.152 E53.17416
G1 X93.09 Y146.056 E53.18554
G1 X91.009 Y144.138 E53.40615
G1 X90.826 Y143.952 E53.42649
G1 X88.221 Y141.037 E53.73124
G1 X88.032 Y140.8 E53.75487
G1 X85.777 Y137.622 E54.05864
G1 X85.617 Y137.367 E54.0821
G1 X83.718 Y133.935 E54.38786
G1 X83.585 Y133.661 E54.41161
G1 X82.09 Y130.05 E54.71627
G1 X81.991 Y129.766 E54.73971
G1 X80.911 Y126.024 E55.04332
G1 X80.843 Y125.727 E55.06707
G1 X80.185 Y121.85 E55.37362
G1 X80.151 Y121.548 E55.39731
G1 X79.933 Y117.642 E55.70227
G1 X79.933 Y117.345 E55.72542
G1 X80.139 Y113.57 E56.02013
G1 X80.17 Y113.281 E56.04279
G1 X80.776 Y109.574 E56.3356
G1 X80.84 Y109.287 E56.35852
G1 X81.854 Y105.639 E56.65368
G1 X81.947 Y105.363 E56.67638
G1 X83.341 Y101.862 E56.97014
G1 X83.489 Y101.559 E56.99642
G1 X85.239 Y98.249 E57.28829
G1 X85.391 Y97.997 E57.31123
G1 X87.508 Y94.877 E57.60515
G1 X87.684 Y94.645 E57.62785
G1 X90.131 Y91.764 E57.92251
G1 X90.334 Y91.55 E57.9455
G0 F3000 X90.746 Y91.986 E57.9455
G1 F600 X93.496 Y89.386 E58.24052
G1 X93.602 Y89.293 E58.25151
G1 X94.417 Y88.62 E58.33391
G1 X94.511 Y88.547 E58.34318
G1 X96.707 Y86.934 E58.55559
G1 X96.801 Y86.868 E58.56454
G1 X97.795 Y86.218 E58.65712
