;FLAVOR:Marlin
;TIME:2129
;Filament used: 1.77694m
;Layer height: 0.16
;MINX:81.006
;MINY:81.022
;MINZ:0.2
;MAXX:153.987
;MAXY:153.953
;MAXZ:4.88
;Generated with Cura_SteamEngine 4.8.0
M140 S75
M105
M190 S75
M104 S240
M105
M109 S240
M82 ;absolute extrusion mode
; Ender 3 Custom Start G-code
G92 E0 ; Reset Extruder
G28 ; Home all axes
G1 Z2.0 F3000 ; Move Z Axis up little to prevent scratching of Heat Bed
G1 X5 Y20 Z0.3 F5000.0 ; Move over to prevent blob squish
G92 E0
G92 E0
G1 F2400 E-6
;LAYER_COUNT:29
;LAYER:0
M107
G0 F3000 X91.095 Y92.314 Z0.2
;TYPE:SKIRT
G1 F2400 E0
;FLOW_RATE_COMPENSATED_OFFSET = 1.875000
G1 F600 X92.695 Y90.738 E2.05007
G1 X92.85 Y90.593 E2.06662
G1 X93.825 Y89.732 E2.16801
G1 X93.987 Y89.596 E2.1845
G1 X95.772 Y88.184 E2.36192
G1 X95.943 Y88.057 E2.37853
G1 X96.967 Y87.334 E2.47624
G1 X97.147 Y87.214 E2.49311
G1 X99.143 Y85.965 E2.67665
G1 X99.326 Y85.857 E2.69322
G1 X100.347 Y85.293 E2.78414
G1 X100.537 Y85.195 E2.80081
G1 X102.689 Y84.154 E2.98716
G1 X102.9 Y84.058 E3.00523
G1 X103.939 Y83.624 E3.09301
G1 X104.136 Y83.548 E3.10947
G1 X106.465 Y82.72 E3.30215
G1 X106.671 Y82.653 E3.31904
G1 X107.688 Y82.354 E3.40167
G1 X107.891 Y82.301 E3.41803
G1 X110.362 Y81.717 E3.61596
G1 X110.577 Y81.672 E3.63308
G1 X111.54 Y81.501 E3.70932
G1 X111.744 Y81.47 E3.72541
G1 X114.343 Y81.149 E3.92955
G1 X114.556 Y81.129 E3.94623
G1 X115.468 Y81.067 E4.01748
G1 X115.68 Y81.058 E4.03403
G1 X118.352 Y81.022 E4.24234
G1 X118.729 Y81.035 E4.27174
G1 X122.314 Y81.334 E4.55218
G1 X122.738 Y81.393 E4.58555
G1 X126.257 Y82.081 E4.86506
G1 X126.674 Y82.187 E4.8986
G1 X130.098 Y83.259 E5.17829
G1 X130.5 Y83.41 E5.21176
G1 X133.794 Y84.855 E5.49216
G1 X134.178 Y85.049 E5.5257
G1 X137.283 Y86.843 E5.80524
G1 X137.644 Y87.079 E5.83886
G1 X140.541 Y89.211 E6.11926
G1 X140.871 Y89.483 E6.15259
G1 X143.513 Y91.916 E6.43257
G1 X143.812 Y92.224 E6.46603
G1 X146.166 Y94.927 E6.74545
G1 X146.431 Y95.267 E6.77905
G1 X148.479 Y98.223 E7.05938
G1 X148.703 Y98.589 E7.09283
G1 X150.411 Y101.747 E7.37271
G1 X150.595 Y102.135 E7.40618
G1 X151.947 Y105.465 E7.68635
G1 X152.086 Y105.872 E7.71987
G1 X153.062 Y109.328 E7.99982
G1 X153.156 Y109.748 E8.03337
G1 X153.744 Y113.282 E8.31264
G1 X153.791 Y113.709 E8.34613
G1 X153.987 Y117.299 E8.6264
G1 X153.987 Y117.723 E8.65945
G1 X153.796 Y121.254 E8.93511
G1 X153.751 Y121.672 E8.96788
G1 X153.185 Y125.135 E9.24141
G1 X153.094 Y125.55 E9.27453
G1 X152.146 Y128.961 E9.55051
G1 X152.011 Y129.361 E9.58342
G1 X150.702 Y132.644 E9.85893
G1 X150.524 Y133.027 E9.89186
G1 X148.868 Y136.149 E10.16735
G1 X148.65 Y136.513 E10.20042
G1 X146.673 Y139.425 E10.47479
G1 X146.419 Y139.758 E10.50744
G1 X144.132 Y142.452 E10.78292
G1 X143.839 Y142.761 E10.81611
G1 X141.274 Y145.188 E11.09138
G1 X140.953 Y145.461 E11.12423
G1 X138.575 Y147.266 E11.35696
G1 X138.16 Y147.584 E11.39771
G1 X137.797 Y147.831 E11.43194
G1 X134.766 Y149.652 E11.70758
G1 X134.396 Y149.849 E11.74026
G1 X131.197 Y151.329 E12.01502
G1 X130.802 Y151.486 E12.04816
G1 X127.458 Y152.61 E12.32317
G1 X127.054 Y152.722 E12.35585
G1 X123.619 Y153.479 E12.63004
G1 X123.202 Y153.547 E12.66298
G1 X119.68 Y153.93 E12.93915
G1 X119.258 Y153.953 E12.97209
G1 X115.726 Y153.953 E13.24743
G1 X115.454 Y153.943 E13.26864
G1 X114.54 Y153.879 E13.34007
G1 X114.335 Y153.86 E13.35612
G1 X111.738 Y153.54 E13.56009
G1 X111.533 Y153.509 E13.57625
G1 X110.57 Y153.338 E13.6525
G1 X110.354 Y153.293 E13.6697
G1 X107.882 Y152.708 E13.86772
G1 X107.673 Y152.653 E13.88457
G1 X106.656 Y152.352 E13.96725
G1 X106.459 Y152.288 E13.98339
G1 X104.13 Y151.462 E14.17603
G1 X103.925 Y151.382 E14.19318
G1 X102.891 Y150.948 E14.2806
G1 X102.702 Y150.863 E14.29675
G1 X100.523 Y149.809 E14.48544
G1 X100.331 Y149.709 E14.50232
G1 X99.313 Y149.145 E14.59304
G1 X99.134 Y149.04 E14.60921
G1 X97.138 Y147.791 E14.79276
G1 X96.955 Y147.669 E14.80991
G1 X95.941 Y146.952 E14.90672
G1 X95.774 Y146.827 E14.92298
G1 X93.981 Y145.409 E15.10117
G1 X93.818 Y145.273 E15.11772
G1 X92.84 Y144.409 E15.21945
G1 X92.684 Y144.264 E15.23605
G1 X91.088 Y142.691 E15.41074
G1 X90.933 Y142.529 E15.42822
G1 X90.042 Y141.545 E15.5317
G1 X89.889 Y141.369 E15.54987
G1 X88.522 Y139.687 E15.71883
G1 X88.395 Y139.521 E15.73513
G1 X87.557 Y138.369 E15.84618
G1 X87.434 Y138.19 E15.86311
G1 X86.296 Y136.427 E16.02668
G1 X86.187 Y136.248 E16.04302
G1 X85.441 Y134.943 E16.1602
G1 X85.341 Y134.755 E16.1768
G1 X84.425 Y132.928 E16.33612
G1 X84.33 Y132.725 E16.35359
G1 X83.838 Y131.584 E16.45045
G1 X83.744 Y131.375 E16.46831
G1 X83.645 Y131.132 E16.48877
G1 X82.954 Y129.27 E16.64359
G1 X82.884 Y129.065 E16.66048
G1 X82.408 Y127.525 E16.78613
G1 X82.351 Y127.32 E16.80271
G1 X81.955 Y125.738 E16.92984
G1 X81.893 Y125.5 E16.94901
G1 X81.838 Y125.256 E16.96851
G1 X81.518 Y123.596 E17.1003
G1 X81.483 Y123.389 E17.11666
G1 X81.232 Y121.561 E17.2605
G1 X81.209 Y121.349 E17.27712
G1 X81.067 Y119.617 E17.41259
G1 X81.055 Y119.405 E17.42914
G1 X81.006 Y117.617 E17.56858
G1 X81.006 Y117.402 E17.58534
G1 X81.056 Y115.589 E17.72672
G1 X81.068 Y115.378 E17.74319
G1 X81.21 Y113.65 E17.87835
G1 X81.234 Y113.435 E17.89522
G1 X81.486 Y111.611 E18.03875
G1 X81.519 Y111.409 E18.05471
G1 X81.838 Y109.749 E18.18648
G1 X81.886 Y109.532 E18.2038
G1 X82.351 Y107.687 E18.35213
G1 X82.407 Y107.487 E18.36832
G1 X82.888 Y105.933 E18.49513
G1 X82.959 Y105.727 E18.51211
G1 X83.65 Y103.869 E18.66664
G1 X83.727 Y103.676 E18.68284
G1 X84.337 Y102.27 E18.80231
G1 X84.428 Y102.075 E18.81909
G1 X85.343 Y100.249 E18.9783
G1 X85.445 Y100.059 E18.99511
G1 X86.192 Y98.754 E19.11233
G1 X86.303 Y98.572 E19.12895
G1 X87.447 Y96.804 E19.2931
G1 X87.567 Y96.629 E19.30964
G1 X88.4 Y95.484 E19.42002
G1 X88.527 Y95.319 E19.43625
G1 X89.889 Y93.642 E19.60466
G1 X90.028 Y93.48 E19.6213
G1 X90.944 Y92.471 E19.72754
G1 X91.095 Y92.314 E19.74452
G0 F3000 X91.516 Y92.741 E19.74452
G1 F600 X93.116 Y91.165 E19.91959
G1 X93.248 Y91.042 E19.93365
G1 X94.223 Y90.181 E20.03505
G1 X94.36 Y90.067 E20.04894
G1 X96.145 Y88.655 E20.22636
G1 X96.289 Y88.547 E20.24039
G1 X97.313 Y87.824 E20.33811
G1 X97.465 Y87.723 E20.35234
G1 X99.461 Y86.474 E20.53588
G1 X99.616 Y86.382 E20.54993
G1 X100.637 Y85.818 E20.64086
G1 X100.798 Y85.735 E20.65498
G1 X102.953 Y84.693 E20.84158
G1 X103.131 Y84.612 E20.85682
G1 X104.17 Y84.178 E20.9446
G1 X104.337 Y84.114 E20.95854
G1 X106.666 Y83.286 E21.15123
G1 X106.84 Y83.229 E21.1655
G1 X107.857 Y82.93 E21.24813
G1 X108.029 Y82.884 E21.26201
G1 X110.5 Y82.3 E21.45994
G1 X110.682 Y82.263 E21.47442
G1 X111.645 Y82.092 E21.55066
G1 X111.817 Y82.066 E21.56422
G1 X114.416 Y81.745 E21.76836
G1 X114.597 Y81.728 E21.78254
G1 X115.509 Y81.666 E21.85379
G1 X115.689 Y81.658 E21.86784
G1 X118.361 Y81.622 E22.07615
G1 X118.679 Y81.633 E22.10095
G1 X122.264 Y81.932 E22.38139
G1 X122.623 Y81.982 E22.40964
G1 X126.142 Y82.67 E22.68915
G1 X126.495 Y82.76 E22.71755
G1 X129.919 Y83.832 E22.99724
G1 X130.259 Y83.959 E23.02553
G1 X133.553 Y85.404 E23.30593
G1 X133.878 Y85.569 E23.33434
G1 X136.983 Y87.363 E23.61389
G1 X137.288 Y87.562 E23.64228
G1 X140.185 Y89.694 E23.92267
G1 X140.464 Y89.925 E23.95091
G1 X143.106 Y92.358 E24.23088
G1 X143.36 Y92.618 E24.25922
G1 X145.714 Y95.321 E24.53863
G1 X145.938 Y95.609 E24.56707
G1 X147.986 Y98.565 E24.8474
G1 X148.176 Y98.874 E24.87568
G1 X149.884 Y102.032 E25.15556
G1 X150.039 Y102.361 E25.18391
G1 X151.391 Y105.691 E25.46407
G1 X151.509 Y106.035 E25.49242
G1 X152.485 Y109.491 E25.77237
G1 X152.564 Y109.846 E25.80072
G1 X153.152 Y113.38 E26.07999
G1 X153.192 Y113.742 E26.10838
G1 X153.388 Y117.332 E26.38865
G1 X153.388 Y117.69 E26.41656
G1 X153.197 Y121.221 E26.69221
G1 X153.159 Y121.575 E26.71997
G1 X152.593 Y125.038 E26.9935
G1 X152.515 Y125.39 E27.02161
G1 X151.567 Y128.801 E27.29759
G1 X151.453 Y129.139 E27.32539
G1 X150.144 Y132.422 E27.60091
G1 X149.994 Y132.746 E27.62874
G1 X148.338 Y135.868 E27.90423
G1 X148.153 Y136.176 E27.93224
G1 X146.176 Y139.088 E28.20661
G1 X145.962 Y139.37 E28.2342
G1 X143.675 Y142.064 E28.50968
G1 X143.427 Y142.325 E28.53774
G1 X140.862 Y144.752 E28.81302
G1 X140.59 Y144.983 E28.84083
G1 X138.212 Y146.789 E29.07361
G1 X137.795 Y147.108 E29.11453
G1 X137.488 Y147.317 E29.14349
G1 X134.457 Y149.138 E29.41913
G1 X134.144 Y149.304 E29.44674
G1 X130.945 Y150.784 E29.72151
G1 X130.61 Y150.917 E29.74961
G1 X127.266 Y152.041 E30.02462
G1 X126.925 Y152.136 E30.05221
G1 X123.49 Y152.893 E30.32641
G1 X123.137 Y152.951 E30.35429
G1 X119.615 Y153.334 E30.63046
G1 X119.258 Y153.353 E30.65833
G1 X115.726 Y153.353 E30.93366
G1 X115.495 Y153.345 E30.95168
G1 X114.581 Y153.281 E31.02311
G1 X114.408 Y153.264 E31.03666
G1 X111.811 Y152.944 E31.24063
G1 X111.638 Y152.918 E31.25427
G1 X110.675 Y152.747 E31.33051
G1 X110.492 Y152.709 E31.34508
G1 X108.02 Y152.124 E31.54311
G1 X107.843 Y152.077 E31.55738
G1 X106.826 Y151.776 E31.64006
G1 X106.66 Y151.722 E31.65367
G1 X104.331 Y150.896 E31.8463
G1 X104.157 Y150.829 E31.86084
G1 X103.123 Y150.395 E31.94825
G1 X102.963 Y150.323 E31.96193
G1 X100.784 Y149.269 E32.15062
G1 X100.622 Y149.185 E32.16484
G1 X99.604 Y148.621 E32.25557
G1 X99.452 Y148.531 E32.26934
G1 X97.456 Y147.282 E32.45288
G1 X97.302 Y147.179 E32.46733
G1 X96.288 Y146.462 E32.56414
G1 X96.146 Y146.356 E32.57795
G1 X94.353 Y144.938 E32.75615
G1 X94.215 Y144.823 E32.77015
G1 X93.237 Y143.959 E32.87188
G1 X93.106 Y143.836 E32.88589
G1 X91.51 Y142.263 E33.06057
G1 X91.378 Y142.126 E33.0754
G1 X90.484 Y141.14 E33.17915
G1 X90.355 Y140.99 E33.19457
G1 X88.988 Y139.308 E33.36353
G1 X88.88 Y139.168 E33.37732
G1 X88.042 Y138.016 E33.48837
G1 X87.938 Y137.865 E33.50266
G1 X86.8 Y136.102 E33.66624
G1 X86.708 Y135.95 E33.68009
G1 X85.962 Y134.645 E33.79726
G1 X85.877 Y134.486 E33.81132
G1 X84.961 Y132.659 E33.97064
G1 X84.881 Y132.487 E33.98542
G1 X84.385 Y131.338 E34.08298
G1 X84.207 Y130.923 E34.11818
G1 X83.516 Y129.061 E34.273
G1 X83.457 Y128.888 E34.28725
G1 X82.981 Y127.348 E34.41291
G1 X82.933 Y127.174 E34.42698
G1 X82.544 Y125.622 E34.5517
G1 X82.473 Y125.349 E34.57369
G1 X82.427 Y125.143 E34.59014
G1 X82.107 Y123.483 E34.72193
G1 X82.078 Y123.307 E34.73583
G1 X81.827 Y121.479 E34.87967
G1 X81.807 Y121.3 E34.89371
G1 X81.665 Y119.568 E35.02918
G1 X81.655 Y119.388 E35.04323
G1 X81.606 Y117.6 E35.18267
G1 X81.606 Y117.419 E35.19678
G1 X81.656 Y115.606 E35.33816
G1 X81.666 Y115.427 E35.35213
G1 X81.808 Y113.699 E35.48729
G1 X81.828 Y113.517 E35.50156
G1 X82.08 Y111.693 E35.6451
G1 X82.108 Y111.522 E35.65861
G1 X82.427 Y109.862 E35.79038
G1 X82.468 Y109.679 E35.805
G1 X82.933 Y107.834 E35.95332
G1 X82.981 Y107.664 E35.96709
G1 X83.462 Y106.11 E36.0939
G1 X83.521 Y105.936 E36.10822
G1 X84.212 Y104.078 E36.26275
G1 X84.278 Y103.915 E36.27646
G1 X84.888 Y102.509 E36.39594
G1 X84.965 Y102.344 E36.41013
G1 X85.88 Y100.518 E36.56934
G1 X85.966 Y100.357 E36.58357
G1 X86.713 Y99.052 E36.70079
G1 X86.806 Y98.898 E36.71481
G1 X87.95 Y97.13 E36.87897
G1 X88.052 Y96.982 E36.89298
G1 X88.885 Y95.837 E37.00336
G1 X88.992 Y95.698 E37.01703
G1 X90.354 Y94.021 E37.18545
G1 X90.473 Y93.883 E37.19965
G1 X91.389 Y92.874 E37.30588
G1 X91.516 Y92.741 E37.32022
G0 F3000 X91.937 Y93.168 E37.32022
G1 F600 X93.537 Y91.592 E37.49529
G1 X93.645 Y91.492 E37.50676
G1 X94.62 Y90.631 E37.60816
G1 X94.732 Y90.537 E37.61956
G1 X96.517 Y89.125 E37.79698
G1 X96.635 Y89.037 E37.80845
G1 X97.659 Y88.314 E37.90617
G1 X97.784 Y88.231 E37.91786
G1 X99.78 Y86.982 E38.10141
G1 X99.906 Y86.908 E38.1128
G1 X100.927 Y86.344 E38.20373
G1 X101.059 Y86.276 E38.2153
G1 X103.217 Y85.232 E38.40218
G1 X103.362 Y85.166 E38.4146
G1 X104.401 Y84.732 E38.50237
G1 X104.538 Y84.679 E38.51382
G1 X106.867 Y83.851 E38.70651
G1 X107.009 Y83.805 E38.71815
G1 X108.026 Y83.506 E38.80078
G1 X108.167 Y83.468 E38.81216
G1 X110.638 Y82.884 E39.01009
G1 X110.787 Y82.854 E39.02194
G1 X111.75 Y82.683 E39.09819
G1 X111.891 Y82.661 E39.10931
G1 X114.49 Y82.34 E39.31345
G1 X114.638 Y82.326 E39.32504
G1 X115.55 Y82.264 E39.3963
G1 X115.697 Y82.258 E39.40776
G1 X118.369 Y82.222 E39.61608
G1 X118.629 Y82.231 E39.63636
G1 X122.214 Y82.53 E39.91679
G1 X122.508 Y82.571 E39.93993
G1 X126.027 Y83.259 E40.21944
G1 X126.316 Y83.332 E40.24268
G1 X129.74 Y84.404 E40.52237
G1 X130.018 Y84.508 E40.5455
G1 X133.312 Y85.953 E40.8259
G1 X133.578 Y86.088 E40.84916
G1 X136.683 Y87.882 E41.1287
G1 X136.932 Y88.045 E41.1519
G1 X139.829 Y90.177 E41.43229
G1 X140.058 Y90.366 E41.45544
G1 X142.7 Y92.799 E41.73542
G1 X142.907 Y93.012 E41.75857
G1 X145.261 Y95.715 E42.03798
G1 X145.444 Y95.95 E42.0612
G1 X147.492 Y98.906 E42.34153
G1 X147.648 Y99.16 E42.36477
G1 X149.356 Y102.318 E42.64464
G1 X149.483 Y102.586 E42.66776
G1 X150.835 Y105.916 E42.94793
G1 X150.931 Y106.198 E42.97115
G1 X151.907 Y109.654 E43.25109
G1 X151.972 Y109.945 E43.27434
G1 X152.56 Y113.479 E43.55361
G1 X152.593 Y113.775 E43.57683
G1 X152.789 Y117.365 E43.8571
G1 X152.789 Y117.658 E43.87994
G1 X152.598 Y121.189 E44.15559
G1 X152.567 Y121.479 E44.17833
G1 X152.001 Y124.942 E44.45186
G1 X151.937 Y125.229 E44.47479
G1 X150.989 Y128.64 E44.75076
G1 X150.896 Y128.917 E44.77354
G1 X149.587 Y132.2 E45.04905
G1 X149.464 Y132.465 E45.07183
G1 X147.808 Y135.587 E45.34732
G1 X147.657 Y135.839 E45.37022
G1 X145.68 Y138.751 E45.64459
G1 X145.504 Y138.981 E45.66717
G1 X143.217 Y141.675 E45.94264
G1 X143.015 Y141.889 E45.96558
G1 X140.45 Y144.316 E46.24085
G1 X140.227 Y144.505 E46.26364
G1 X137.858 Y146.305 E46.49557
G1 X137.431 Y146.632 E46.5375
G1 X137.179 Y146.802 E46.56119
G1 X134.148 Y148.623 E46.83683
G1 X133.892 Y148.759 E46.85943
G1 X130.693 Y150.239 E47.1342
G1 X130.419 Y150.348 E47.15719
G1 X127.075 Y151.472 E47.43219
G1 X126.796 Y151.55 E47.45478
G1 X123.361 Y152.307 E47.72897
G1 X123.072 Y152.354 E47.7518
G1 X119.55 Y152.737 E48.02797
G1 X119.258 Y152.753 E48.05076
G1 X115.726 Y152.753 E48.3261
G1 X115.537 Y152.746 E48.34084
G1 X114.623 Y152.682 E48.41226
G1 X114.482 Y152.669 E48.4233
G1 X111.885 Y152.349 E48.62728
G1 X111.743 Y152.327 E48.63848
G1 X110.78 Y152.156 E48.71472
G1 X110.63 Y152.125 E48.72666
G1 X108.158 Y151.54 E48.92469
G1 X108.014 Y151.502 E48.9363
G1 X106.997 Y151.201 E49.01897
G1 X106.861 Y151.157 E49.03012
G1 X104.532 Y150.331 E49.22275
G1 X104.389 Y150.276 E49.23469
G1 X103.355 Y149.842 E49.32211
G1 X103.224 Y149.783 E49.33331
G1 X101.045 Y148.729 E49.522
G1 X100.913 Y148.66 E49.53361
G1 X99.895 Y148.096 E49.62433
G1 X99.771 Y148.023 E49.63555
G1 X97.775 Y146.774 E49.81909
G1 X97.648 Y146.69 E49.83096
G1 X96.634 Y145.973 E49.92777
G1 X96.518 Y145.886 E49.93908
G1 X94.725 Y144.468 E50.11727
G1 X94.612 Y144.373 E50.12878
G1 X93.634 Y143.509 E50.23051
G1 X93.527 Y143.409 E50.24193
G1 X91.931 Y141.836 E50.41661
G1 X91.823 Y141.724 E50.42874
G1 X90.926 Y140.734 E50.53288
G1 X90.821 Y140.612 E50.54543
G1 X89.454 Y138.93 E50.71439
G1 X89.366 Y138.815 E50.72568
G1 X88.528 Y137.663 E50.83672
G1 X88.443 Y137.539 E50.84844
G1 X87.305 Y135.776 E51.01202
G1 X87.229 Y135.652 E51.02336
G1 X86.483 Y134.347 E51.14054
G1 X86.413 Y134.217 E51.15204
G1 X85.497 Y132.39 E51.31136
G1 X85.432 Y132.25 E51.3234
G1 X84.916 Y131.054 E51.42494
G1 X84.77 Y130.714 E51.45378
G1 X84.079 Y128.852 E51.6086
G1 X84.03 Y128.71 E51.62031
G1 X83.554 Y127.17 E51.74596
G1 X83.515 Y127.029 E51.75737
G1 X83.119 Y125.447 E51.88449
G1 X83.054 Y125.198 E51.90456
G1 X83.016 Y125.029 E51.91806
G1 X82.696 Y123.369 E52.04984
G1 X82.672 Y123.225 E52.06122
G1 X82.421 Y121.397 E52.20506
G1 X82.405 Y121.251 E52.21651
G1 X82.263 Y119.519 E52.35198
G1 X82.255 Y119.372 E52.36345
G1 X82.206 Y117.584 E52.50289
G1 X82.206 Y117.436 E52.51442
G1 X82.256 Y115.623 E52.65581
G1 X82.264 Y115.476 E52.66728
G1 X82.406 Y113.748 E52.80244
G1 X82.422 Y113.599 E52.81412
G1 X82.674 Y111.775 E52.95766
G1 X82.698 Y111.635 E52.96873
G1 X83.017 Y109.975 E53.1005
G1 X83.05 Y109.825 E53.11248
G1 X83.515 Y107.98 E53.2608
G1 X83.554 Y107.842 E53.27198
G1 X84.035 Y106.288 E53.39879
G1 X84.083 Y106.145 E53.41055
G1 X84.774 Y104.287 E53.56508
G1 X84.828 Y104.153 E53.57634
G1 X85.438 Y102.747 E53.69581
G1 X85.501 Y102.612 E53.70742
G1 X86.416 Y100.786 E53.86664
G1 X86.487 Y100.655 E53.87825
