;FLAVOR:Marlin
;TIME:2377
;Filament used: 1.61988m
;Layer height: 0.16
;MINX:86.5
;MINY:101.27
;MINZ:0.2
;MAXX:148.5
;MAXY:133.73
;MAXZ:19.8
;Generated with Cura_SteamEngine 4.8.0
M140 S70
M105
M190 S70
M104 S210
M105
M109 S210
M82 ;absolute extrusion mode
; Ender 3 Custom Start G-code
G92 E0 ; Reset Extruder
G28 ; Home all axes
G1 Z2.0 F3000 ; Move Z Axis up little to prevent scratching of Heat Bed
G1 X0.1 Y20 Z0.3 F5000.0 ; Move to start position
G1 X0.1 Y200.0 Z0.3 F1500.0 E15 ; Draw the first line
G1 X0.4 Y200.0 Z0.3 F5000.0 ; Move to side a little
G1 X0.4 Y20 Z0.3 F1500.0 E30 ; Draw the second line
G92 E0 ; Reset Extruder
G1 Z2.0 F3000 ; Move Z Axis up little to prevent scratching of Heat Bed
G1 X5 Y20 Z0.3 F5000.0 ; Move over to prevent blob squish
G92 E0
G92 E0
G1 F2700 E-5
;LAYER_COUNT:101
;LAYER:0
M107
G0 F3000 X90.385 Y103.897 Z0.2
;TYPE:SKIRT
G1 F2700 E0
G1 F1200 X91.125 Y103.321 E0.03743
G1 X91.912 Y102.81 E0.07488
G1 X92.738 Y102.367 E0.11229
G1 X93.6 Y101.997 E0.14973
G1 X94.49 Y101.701 E0.18716
G1 X95.402 Y101.483 E0.22459
G1 X96.33 Y101.342 E0.26205
G1 X97.201 Y101.283 E0.2969
G1 X97.522 Y101.274 E0.30971
G1 X97.83 Y101.27 E0.32201
G1 X136.952 Y101.272 E1.88345
G1 X137.649 Y101.282 E1.91127
G1 X138.585 Y101.336 E1.94869
G1 X139.514 Y101.469 E1.98615
G1 X140.427 Y101.68 E2.02355
G1 X141.32 Y101.969 E2.06101
G1 X142.184 Y102.332 E2.09841
G1 X143.014 Y102.768 E2.13583
G1 X143.805 Y103.273 E2.17329
G1 X144.549 Y103.844 E2.21072
G1 X145.242 Y104.476 E2.24815
G1 X145.879 Y105.165 E2.28561
G1 X146.455 Y105.905 E2.32303
G1 X146.965 Y106.692 E2.36046
G1 X147.407 Y107.519 E2.39789
G1 X147.776 Y108.381 E2.43531
G1 X148.071 Y109.271 E2.47274
G1 X148.289 Y110.183 E2.51016
G1 X148.429 Y111.111 E2.54762
G1 X148.487 Y111.972 E2.58206
G1 X148.496 Y112.292 E2.59484
G1 X148.5 Y112.601 E2.60717
G1 X148.499 Y122.13 E2.98749
G1 X148.49 Y122.857 E3.01651
G1 X148.439 Y123.794 E3.05397
G1 X148.307 Y124.722 E3.09138
G1 X148.098 Y125.636 E3.1288
G1 X147.811 Y126.529 E3.16624
G1 X147.449 Y127.395 E3.2037
G1 X147.015 Y128.226 E3.24112
G1 X146.511 Y129.017 E3.27855
G1 X145.942 Y129.762 E3.31597
G1 X145.311 Y130.457 E3.35343
G1 X144.624 Y131.095 E3.39085
G1 X143.885 Y131.672 E3.42827
G1 X143.099 Y132.184 E3.46571
G1 X142.273 Y132.627 E3.50312
G1 X141.411 Y132.999 E3.54059
G1 X140.522 Y133.295 E3.57799
G1 X139.61 Y133.515 E3.61543
G1 X138.683 Y133.656 E3.65286
G1 X137.799 Y133.717 E3.68822
G1 X137.478 Y133.726 E3.70104
G1 X137.17 Y133.73 E3.71333
G1 X98.065 Y133.729 E5.2741
G1 X97.367 Y133.72 E5.30196
G1 X96.431 Y133.668 E5.33938
G1 X95.502 Y133.536 E5.37683
G1 X94.588 Y133.326 E5.41426
G1 X93.695 Y133.039 E5.45169
G1 X92.83 Y132.676 E5.48914
G1 X91.999 Y132.242 E5.52655
G1 X91.208 Y131.738 E5.56399
G1 X90.463 Y131.168 E5.60143
G1 X89.769 Y130.537 E5.63886
G1 X89.132 Y129.85 E5.67626
G1 X88.555 Y129.11 E5.71371
G1 X88.043 Y128.324 E5.75115
G1 X87.6 Y127.497 E5.78859
G1 X87.229 Y126.636 E5.82601
G1 X86.933 Y125.746 E5.86345
G1 X86.714 Y124.834 E5.90088
G1 X86.573 Y123.907 E5.93831
G1 X86.513 Y123.018 E5.97387
G1 X86.504 Y122.685 E5.98716
G1 X86.5 Y122.388 E5.99902
G1 X86.501 Y112.798 E6.38178
G1 X86.51 Y112.131 E6.4084
G1 X86.563 Y111.194 E6.44586
G1 X86.695 Y110.266 E6.48327
G1 X86.906 Y109.352 E6.52071
G1 X87.194 Y108.459 E6.55816
G1 X87.556 Y107.594 E6.59558
G1 X87.992 Y106.764 E6.633
G1 X88.496 Y105.973 E6.67044
G1 X89.066 Y105.228 E6.70788
G1 X89.697 Y104.535 E6.74528
G1 X90.385 Y103.897 E6.78273
G0 F3000 X90.774 Y104.094
G1 F1200 X91.51 Y103.54 E6.8195
G1 X92.291 Y103.052 E6.85626
G1 X93.111 Y102.634 E6.89299
G1 X93.964 Y102.289 E6.92971
G1 X94.845 Y102.019 E6.96649
G1 X95.745 Y101.827 E7.00322
G1 X96.659 Y101.713 E7.03998
G1 X97.212 Y101.683 E7.06209
G1 X97.533 Y101.674 E7.0749
G1 X97.83 Y101.67 E7.08676
G1 X136.946 Y101.672 E8.64796
G1 X137.643 Y101.682 E8.67578
G1 X138.562 Y101.735 E8.71252
G1 X139.473 Y101.868 E8.74927
G1 X140.369 Y102.079 E8.78601
G1 X141.244 Y102.367 E8.82278
G1 X142.09 Y102.731 E8.85953
G1 X142.901 Y103.166 E8.89627
G1 X143.672 Y103.669 E8.93301
G1 X144.396 Y104.238 E8.96976
G1 X145.067 Y104.868 E9.0065
G1 X145.682 Y105.553 E9.04324
G1 X146.235 Y106.289 E9.07998
G1 X146.722 Y107.071 E9.11675
G1 X147.139 Y107.891 E9.15347
G1 X147.484 Y108.745 E9.19023
G1 X147.753 Y109.625 E9.22695
G1 X147.945 Y110.526 E9.26372
G1 X148.058 Y111.44 E9.30048
G1 X148.087 Y111.983 E9.32218
G1 X148.096 Y112.303 E9.33496
G1 X148.1 Y112.601 E9.34686
G1 X148.099 Y122.125 E9.72698
G1 X148.09 Y122.852 E9.756
G1 X148.039 Y123.771 E9.79273
G1 X147.908 Y124.683 E9.82951
G1 X147.698 Y125.579 E9.86624
G1 X147.412 Y126.454 E9.90298
G1 X147.051 Y127.301 E9.93973
G1 X146.617 Y128.113 E9.97647
G1 X146.115 Y128.885 E10.01323
G1 X145.547 Y129.61 E10.04999
G1 X144.919 Y130.283 E10.08673
G1 X144.235 Y130.899 E10.12346
G1 X143.5 Y131.453 E10.1602
G1 X142.72 Y131.942 E10.19694
G1 X141.9 Y132.361 E10.2337
G1 X141.047 Y132.707 E10.27044
G1 X140.167 Y132.978 E10.30719
G1 X139.267 Y133.171 E10.34392
G1 X138.353 Y133.286 E10.38069
G1 X137.788 Y133.317 E10.40327
G1 X137.467 Y133.326 E10.41609
G1 X137.17 Y133.33 E10.42795
G1 X98.07 Y133.329 E11.98851
G1 X97.372 Y133.32 E12.01637
G1 X96.453 Y133.268 E12.05311
G1 X95.542 Y133.137 E12.08985
G1 X94.646 Y132.927 E12.12658
G1 X93.771 Y132.64 E12.16333
G1 X92.924 Y132.278 E12.20009
G1 X92.112 Y131.844 E12.23684
G1 X91.341 Y131.342 E12.27356
G1 X90.616 Y130.774 E12.31032
G1 X89.943 Y130.145 E12.34709
G1 X89.328 Y129.461 E12.3838
G1 X88.774 Y128.726 E12.42053
G1 X88.286 Y127.945 E12.45729
G1 X87.867 Y127.125 E12.49404
G1 X87.521 Y126.272 E12.53078
G1 X87.251 Y125.392 E12.56752
G1 X87.058 Y124.491 E12.6043
G1 X86.944 Y123.578 E12.64102
G1 X86.913 Y123.007 E12.66384
G1 X86.904 Y122.674 E12.67714
G1 X86.9 Y122.388 E12.68856
G1 X86.901 Y112.803 E13.07111
G1 X86.91 Y112.136 E13.09774
G1 X86.962 Y111.217 E13.13447
G1 X87.094 Y110.306 E13.17121
G1 X87.305 Y109.409 E13.20799
G1 X87.592 Y108.535 E13.24471
G1 X87.955 Y107.688 E13.28149
G1 X88.389 Y106.877 E13.3182
G1 X88.892 Y106.106 E13.35494
G1 X89.46 Y105.381 E13.3917
G1 X90.089 Y104.709 E13.42844
G1 X90.774 Y104.094 E13.46518
G0 F3000 X91.162 Y104.294
G1 F1200 X91.893 Y103.764 E13.50122
G1 X92.668 Y103.301 E13.53725
G1 X93.481 Y102.908 E13.57329
G1 X94.326 Y102.588 E13.60935
G1 X95.196 Y102.345 E13.64541
G1 X96.084 Y102.179 E13.68146
G1 X97.223 Y102.083 E13.72708
G1 X97.544 Y102.074 E13.7399
G1 X97.83 Y102.07 E13.75132
G1 X136.94 Y102.072 E15.31228
G1 X137.637 Y102.082 E15.3401
G1 X138.539 Y102.135 E15.37617
G1 X139.432 Y102.267 E15.41219
G1 X140.31 Y102.478 E15.44823
G1 X141.166 Y102.766 E15.48428
G1 X141.994 Y103.129 E15.52037
G1 X142.785 Y103.563 E15.55638
G1 X143.536 Y104.065 E15.59243
G1 X144.239 Y104.632 E15.62848
G1 X144.889 Y105.259 E15.66452
G1 X145.481 Y105.941 E15.70057
G1 X146.011 Y106.672 E15.7366
G1 X146.473 Y107.448 E15.77265
G1 X146.866 Y108.261 E15.80869
G1 X147.184 Y109.106 E15.84473
G1 X147.427 Y109.976 E15.88078
G1 X147.592 Y110.864 E15.91683
G1 X147.687 Y111.994 E15.96209
G1 X147.696 Y112.314 E15.97486
G1 X147.7 Y112.601 E15.98632
G1 X147.699 Y122.12 E16.36624
G1 X147.69 Y122.847 E16.39526
G1 X147.639 Y123.749 E16.43132
G1 X147.508 Y124.643 E16.46738
G1 X147.299 Y125.521 E16.5034
G1 X147.013 Y126.378 E16.53946
G1 X146.652 Y127.206 E16.57551
G1 X146.22 Y127.998 E16.61152
G1 X145.719 Y128.75 E16.64759
G1 X145.153 Y129.454 E16.68364
G1 X144.528 Y130.105 E16.71966
G1 X143.847 Y130.699 E16.75573
G1 X143.116 Y131.23 E16.79179
G1 X142.342 Y131.694 E16.8278
G1 X141.529 Y132.088 E16.86386
G1 X140.685 Y132.408 E16.89989
G1 X139.815 Y132.653 E16.93596
G1 X138.928 Y132.819 E16.97198
G1 X137.777 Y132.917 E17.01808
G1 X137.456 Y132.926 E17.0309
G1 X137.17 Y132.93 E17.04232
G1 X98.075 Y132.929 E18.60268
G1 X97.377 Y132.92 E18.63054
G1 X96.476 Y132.869 E18.66656
G1 X95.582 Y132.737 E18.70263
G1 X94.704 Y132.528 E18.73865
G1 X93.847 Y132.241 E18.77472
G1 X93.02 Y131.88 E18.81074
G1 X92.227 Y131.447 E18.8468
G1 X91.476 Y130.946 E18.88283
G1 X90.772 Y130.38 E18.91889
G1 X90.121 Y129.754 E18.95493
G1 X89.528 Y129.073 E18.99097
G1 X88.998 Y128.342 E19.02701
G1 X88.534 Y127.567 E19.06306
G1 X88.14 Y126.754 E19.09912
G1 X87.82 Y125.91 E19.13515
G1 X87.576 Y125.04 E19.17121
G1 X87.41 Y124.152 E19.20727
G1 X87.313 Y122.997 E19.25353
G1 X87.304 Y122.664 E19.26682
G1 X87.3 Y122.388 E19.27784
G1 X87.301 Y112.808 E19.6602
G1 X87.31 Y112.141 E19.68682
G1 X87.362 Y111.24 E19.72284
G1 X87.494 Y110.346 E19.75891
G1 X87.704 Y109.468 E19.79494
G1 X87.991 Y108.612 E19.83098
G1 X88.353 Y107.784 E19.86704
G1 X88.786 Y106.992 E19.90307
G1 X89.288 Y106.241 E19.93912
G1 X89.854 Y105.538 E19.97515
G1 X90.481 Y104.887 E20.01122
G1 X91.162 Y104.294 E20.04726
G1 F2700 E15.04726
;MESH:LiPoConn.stl
G0 F3000 X129.305 Y111.605
G0 X129.305 Y117.313
G0 X129.501 Y120.51
;TYPE:WALL-INNER
G1 F2700 E20.04726
G1 F1200 X133.503 Y120.51 E20.20699
G1 X133.503 Y117.509 E20.32677
G1 X129.501 Y117.509 E20.48649
G1 X129.501 Y120.51 E20.60627
G0 F3000 X129.901 Y120.11
G1 F1200 X133.103 Y120.11 E20.73407
G1 X133.103 Y117.909 E20.82192
G1 X129.901 Y117.909 E20.94971
G1 X129.901 Y120.11 E21.03756
G0 F3000 X130.301 Y119.71
;TYPE:WALL-OUTER
G1 F1200 X132.703 Y119.71 E21.13343
G1 X132.703 Y118.309 E21.18935
G1 X130.301 Y118.309 E21.28522
G1 X130.301 Y119.71 E21.34113
G1 F2700 E16.34113
G0 F3000 X130.001 Y119.71
G0 X129.311 Y120.51
G0 X127.689 Y120.51
G0 X123.498 Y120.51
;TYPE:WALL-INNER
G1 F2700 E21.34113
G1 F1200 X127.499 Y120.51 E21.50082
G1 X127.499 Y117.509 E21.6206
G1 X123.498 Y117.509 E21.78029
G1 X123.498 Y120.51 E21.90006
G0 F3000 X123.898 Y120.11
G1 F1200 X127.099 Y120.11 E22.02782
G1 X127.099 Y117.909 E22.11567
G1 X123.898 Y117.909 E22.24343
G1 X123.898 Y120.11 E22.33127
G0 F3000 X124.298 Y119.71
;TYPE:WALL-OUTER
G1 F1200 X126.699 Y119.71 E22.4271
G1 X126.699 Y118.309 E22.48302
G1 X124.298 Y118.309 E22.57885
G1 X124.298 Y119.71 E22.63477
G1 F2700 E17.63477
G0 F3000 X123.998 Y119.71
G0 X127.695 Y120.706
G0 X127.695 Y121.52
G0 X136.5 Y121.73
;TYPE:WALL-INNER
G1 F2700 E22.63477
G1 F1200 X98.5 Y121.73 E24.15143
G1 X98.5 Y113.469 E24.48114
G1 X98.5 Y113.27 E24.48909
G1 X98.699 Y113.27 E24.49422
G1 X136.5 Y113.271 E26.00294
G1 X136.5 Y121.73 E26.34056
G0 F3000 X136.9 Y122.13
G1 F1200 X98.1 Y122.13 E27.88915
G1 X98.1 Y113.069 E28.2508
G1 X98.1 Y112.87 E28.25874
G1 X98.299 Y112.87 E28.26388
G1 X136.9 Y112.871 E29.80453
G1 X136.9 Y122.13 E30.17407
G0 F3000 X137.3 Y122.53
;TYPE:WALL-OUTER
G1 F1200 X97.7 Y122.53 E31.7546
G1 X97.7 Y112.47 E32.15611
G1 X137.3 Y112.471 E33.73663
G1 X137.3 Y122.53 E34.13811
G0 F3000 X137.03 Y122.26
G0 X136.39 Y121.34
G0 X136.11 Y121.34
;TYPE:SKIN
G1 F1200 X98.89 Y121.34 E35.62364
G1 X98.89 Y113.66 E35.93017
G1 X136.11 Y113.661 E37.4157
G1 X136.11 Y121.34 E37.72218
G1 F2700 E32.72218
G0 F3000 X136.39 Y121.34
G0 X133.613 Y121.52
G0 X133.613 Y120.7
G0 X133.893 Y120.9
G1 F2700 E37.72218
G1 F1200 X133.893 Y117.119 E37.87309
G1 X129.111 Y117.119 E38.06395
G1 X129.111 Y120.9 E38.21486
G1 X133.893 Y120.9 E38.40572
G1 F2700 E33.40572
G0 F3000 X133.613 Y120.65
G0 X129.311 Y120.65
G0 X127.689 Y120.65
G0 X127.889 Y120.9
G1 F2700 E38.40572
G1 F1200 X127.889 Y117.119 E38.55663
G1 X123.108 Y117.119 E38.74745
G1 X123.108 Y120.9 E38.89835
G1 X127.889 Y120.9 E39.08917
G1 F2700 E34.08917
G0 F3000 X127.609 Y120.65
G0 X127.695 Y117.313
G0 X127.695 Y111.605
G0 X138.153 Y111.618
G0 X138.165 Y117.313
G0 X136.29 Y117.313
G0 X136.39 Y113.887
G0 X135.949 Y113.887
G1 F2700 E39.08917
G1 F1200 X135.882 Y113.82 E39.09296
G0 F3000 X135.316 Y113.82
G1 F1200 X135.949 Y114.453 E39.12868
G0 F3000 X135.949 Y115.018
G1 F1200 X134.751 Y113.82 E39.19631
G0 F3000 X134.185 Y113.82
G1 F1200 X135.949 Y115.584 E39.29587
G0 F3000 X135.949 Y116.15
G1 F1200 X133.619 Y113.82 E39.42739
G0 F3000 X133.054 Y113.82
G1 F1200 X135.949 Y116.715 E39.59079
G0 F3000 X135.949 Y117.281
G1 F1200 X132.488 Y113.82 E39.78615
G0 F3000 X131.922 Y113.82
G1 F1200 X135.949 Y117.847 E40.01345
G0 F3000 X135.949 Y118.412
G1 F1200 X131.357 Y113.82 E40.27264
G0 F3000 X130.791 Y113.82
G1 F1200 X133.929 Y116.958 E40.44976
G0 F3000 X134.052 Y117.082
G1 F1200 X135.949 Y118.978 E40.55681
G0 F3000 X135.949 Y119.544
G1 F1200 X134.052 Y117.647 E40.66389
G0 F3000 X134.052 Y118.213
G1 F1200 X135.949 Y120.109 E40.77093
G0 F3000 X135.949 Y120.675
G1 F1200 X134.052 Y118.779 E40.87798
G0 F3000 X134.052 Y119.344
G1 F1200 X135.887 Y121.179 E40.98155
G0 F3000 X135.321 Y121.179
G1 F1200 X134.052 Y119.91 E41.05318
G0 F3000 X134.052 Y120.476
G1 F1200 X134.756 Y121.179 E41.09289
G0 F3000 X134.19 Y121.179
G1 F1200 X134.052 Y121.041 E41.10068
G0 F3000 X133.624 Y121.179
G1 F1200 X133.505 Y121.06 E41.1074
G0 F3000 X133.059 Y121.179
G1 F1200 X132.939 Y121.06 E41.11414
G0 F3000 X132.493 Y121.179
G1 F1200 X132.373 Y121.06 E41.12089
G0 F3000 X131.927 Y121.179
G1 F1200 X131.808 Y121.06 E41.1276
G0 F3000 X131.362 Y121.179
G1 F1200 X131.242 Y121.06 E41.13435
G0 F3000 X130.796 Y121.179
G1 F1200 X130.676 Y121.06 E41.14109
G0 F3000 X130.23 Y121.179
G1 F1200 X130.111 Y121.06 E41.14781
G0 F3000 X129.664 Y121.179
G1 F1200 X129.545 Y121.06 E41.15453
G0 F3000 X129.099 Y121.179
G1 F1200 X128.979 Y121.06 E41.16127
G0 F3000 X128.95 Y121.03
G1 F1200 X128.047 Y120.128 E41.21221
G0 F3000 X128.047 Y120.693
G1 F1200 X128.533 Y121.179 E41.23965
G0 F3000 X127.967 Y121.179
G1 F1200 X127.848 Y121.06 E41.24636
G0 F3000 X127.402 Y121.179
G1 F1200 X127.282 Y121.06 E41.25311
G0 F3000 X126.836 Y121.179
G1 F1200 X126.717 Y121.06 E41.25983
G0 F3000 X126.27 Y121.179
G1 F1200 X126.151 Y121.06 E41.26654
G0 F3000 X125.705 Y121.179
G1 F1200 X125.585 Y121.06 E41.27329
G0 F3000 X125.139 Y121.179
G1 F1200 X125.02 Y121.06 E41.28
G0 F3000 X124.573 Y121.179
G1 F1200 X124.454 Y121.06 E41.28672
G0 F3000 X124.008 Y121.179
G1 F1200 X123.888 Y121.06 E41.29347
G0 F3000 X123.442 Y121.179
G1 F1200 X123.322 Y121.06 E41.30021
G0 F3000 X122.876 Y121.179
G1 F1200 X115.517 Y113.82 E41.71558
G0 F3000 X116.082 Y113.82
G1 F1200 X122.947 Y120.684 E42.10305
G0 F3000 X122.947 Y120.119
G1 F1200 X116.648 Y113.82 E42.45859
G0 F3000 X117.214 Y113.82
G1 F1200 X122.947 Y119.553 E42.78219
G0 F3000 X122.947 Y118.987
G1 F1200 X117.779 Y113.82 E43.07386
G0 F3000 X118.345 Y113.82
G1 F1200 X122.947 Y118.422 E43.33362
G0 F3000 X122.947 Y117.856
G1 F1200 X118.911 Y113.82 E43.56143
G0 F3000 X119.477 Y113.82
G1 F1200 X122.947 Y117.29 E43.75729
G0 F3000 X123.181 Y116.958
G1 F1200 X120.042 Y113.82 E43.93444
G0 F3000 X120.608 Y113.82
G1 F1200 X123.747 Y116.958 E44.11159
G0 F3000 X124.312 Y116.958
G1 F1200 X121.174 Y113.82 E44.28871
G0 F3000 X121.739 Y113.82
G1 F1200 X124.878 Y116.958 E44.46586
G0 F3000 X125.444 Y116.958
G1 F1200 X122.305 Y113.82 E44.64301
G0 F3000 X122.871 Y113.82
G1 F1200 X126.009 Y116.958 E44.82014
G0 F3000 X126.575 Y116.958
G1 F1200 X123.436 Y113.82 E44.99729
G0 F3000 X124.003 Y113.82
G1 F1200 X127.141 Y116.958 E45.17441
G0 F3000 X127.707 Y116.958
G1 F1200 X124.568 Y113.82 E45.35156
G0 F3000 X125.134 Y113.82
G1 F1200 X128.95 Y117.636 E45.56695
G0 F3000 X128.95 Y117.07
G1 F1200 X125.7 Y113.82 E45.75039
G0 F3000 X126.265 Y113.82
G1 F1200 X129.404 Y116.958 E45.92754
G0 F3000 X129.969 Y116.958
G1 F1200 X126.831 Y113.82 E46.10467
G0 F3000 X127.397 Y113.82
G1 F1200 X130.535 Y116.958 E46.28179
G0 F3000 X131.101 Y116.958
G1 F1200 X127.962 Y113.82 E46.45894
G0 F3000 X128.528 Y113.82
G1 F1200 X131.666 Y116.958 E46.63606
G0 F3000 X132.232 Y116.958
G1 F1200 X129.094 Y113.82 E46.81318
G0 F3000 X129.66 Y113.82
G1 F1200 X132.798 Y116.958 E46.99031
G0 F3000 X133.363 Y116.958
G1 F1200 X130.225 Y113.82 E47.16743
G1 F2700 E42.16743
G0 F3000 X130.226 Y113.381
G0 X127.641 Y113.461
G0 X127.641 Y117.319
G0 X128.047 Y117.299
G1 F2700 E47.16743
G1 F1200 X128.95 Y118.202 E47.2184
G0 F3000 X128.95 Y118.767
G1 F1200 X128.047 Y117.865 E47.26934
G0 F3000 X128.047 Y118.431
G1 F1200 X128.95 Y119.333 E47.32028
G0 F3000 X128.95 Y119.899
G1 F1200 X128.047 Y118.996 E47.37125
G0 F3000 X128.047 Y119.562
G1 F1200 X128.95 Y120.464 E47.42219
G1 F2700 E42.42219
G0 F3000 X129.391 Y120.464
G0 X129.305 Y120.706
G0 X129.305 Y121.52
G0 X122.311 Y121.62
