;FLAVOR:Marlin
;TIME:762
;Filament used: 0.346291m
;Layer height: 0.16
;MINX:86.5
;MINY:104.5
;MINZ:0.2
;MAXX:148.5
;MAXY:130.5
;MAXZ:19.84
;Generated with Cura_SteamEngine 4.8.0
M140 S70
M105
M190 S70
M104 S210
M105
M109 S210
M82 ;absolute extrusion mode
; Ender 3 Custom Start G-code
G92 E0 ; Reset Extruder
G28 ; Home all axes
G1 Z2.0 F3000 ; Move Z Axis up little to prevent scratching of Heat Bed
G1 X0.1 Y20 Z0.3 F5000.0 ; Move to start position
G1 X0.1 Y200.0 Z0.3 F1500.0 E15 ; Draw the first line
G1 X0.4 Y200.0 Z0.3 F5000.0 ; Move to side a little
G1 X0.4 Y20 Z0.3 F1500.0 E30 ; Draw the second line
G92 E0 ; Reset Extruder
G1 Z2.0 F3000 ; Move Z Axis up little to prevent scratching of Heat Bed
G1 X5 Y20 Z0.3 F5000.0 ; Move over to prevent blob squish
G92 E0
G92 E0
G1 F2700 E-5
;LAYER_COUNT:102
;LAYER:0
M107
G0 F3000 X90.386 Y107.127 Z0.2
;TYPE:SKIRT
G1 F2700 E0
G1 F1200 X91.126 Y106.551 E0.03743
G1 X91.912 Y106.039 E0.07487
G1 X92.739 Y105.597 E0.11229
G1 X93.601 Y105.227 E0.14973
G1 X94.491 Y104.931 E0.18717
G1 X95.403 Y104.713 E0.22459
G1 X96.33 Y104.572 E0.26202
G1 X97.201 Y104.513 E0.29686
G1 X97.522 Y104.504 E0.30968
G1 X97.83 Y104.5 E0.32197
G1 X136.793 Y104.5 E1.87707
G1 X137.649 Y104.511 E1.91124
G1 X138.585 Y104.565 E1.94866
G1 X139.513 Y104.697 E1.98607
G1 X140.427 Y104.909 E2.02352
G1 X141.319 Y105.198 E2.06094
G1 X142.184 Y105.561 E2.09838
G1 X143.014 Y105.997 E2.1358
G1 X143.805 Y106.502 E2.17326
G1 X144.549 Y107.073 E2.21069
G1 X145.242 Y107.705 E2.24812
G1 X145.879 Y108.393 E2.28554
G1 X146.454 Y109.134 E2.32298
G1 X146.965 Y109.92 E2.3604
G1 X147.407 Y110.748 E2.39786
G1 X147.776 Y111.61 E2.43528
G1 X148.071 Y112.5 E2.4727
G1 X148.289 Y113.412 E2.51013
G1 X148.429 Y114.34 E2.54759
G1 X148.487 Y115.201 E2.58203
G1 X148.496 Y115.521 E2.59481
G1 X148.5 Y115.83 E2.60714
G1 X148.499 Y118.9 E2.72967
G1 X148.49 Y119.627 E2.75869
G1 X148.439 Y120.564 E2.79614
G1 X148.307 Y121.492 E2.83355
G1 X148.098 Y122.406 E2.87097
G1 X147.811 Y123.299 E2.90841
G1 X147.449 Y124.165 E2.94587
G1 X147.015 Y124.996 E2.98329
G1 X146.511 Y125.787 E3.02073
G1 X145.942 Y126.532 E3.05814
G1 X145.311 Y127.227 E3.09561
G1 X144.624 Y127.865 E3.13303
G1 X143.885 Y128.442 E3.17045
G1 X143.099 Y128.954 E3.20789
G1 X142.273 Y129.397 E3.2453
G1 X141.411 Y129.769 E3.28277
G1 X140.522 Y130.065 E3.32016
G1 X139.61 Y130.285 E3.35761
G1 X138.683 Y130.426 E3.39503
G1 X137.799 Y130.487 E3.4304
G1 X137.478 Y130.496 E3.44322
G1 X137.17 Y130.5 E3.45551
G1 X98.065 Y130.499 E5.01628
G1 X97.367 Y130.49 E5.04414
G1 X96.431 Y130.438 E5.08155
G1 X95.502 Y130.306 E5.119
G1 X94.588 Y130.096 E5.15643
G1 X93.695 Y129.809 E5.19387
G1 X92.83 Y129.446 E5.23131
G1 X91.999 Y129.012 E5.26873
G1 X91.208 Y128.508 E5.30616
G1 X90.463 Y127.938 E5.3436
G1 X89.769 Y127.307 E5.38104
G1 X89.132 Y126.62 E5.41843
G1 X88.555 Y125.88 E5.45588
G1 X88.043 Y125.094 E5.49332
G1 X87.6 Y124.267 E5.53077
G1 X87.229 Y123.406 E5.56819
G1 X86.933 Y122.516 E5.60562
G1 X86.714 Y121.604 E5.64306
G1 X86.573 Y120.677 E5.68048
G1 X86.513 Y119.788 E5.71604
G1 X86.504 Y119.455 E5.72934
G1 X86.5 Y119.158 E5.74119
G1 X86.501 Y116.025 E5.86624
G1 X86.51 Y115.36 E5.89278
G1 X86.563 Y114.424 E5.9302
G1 X86.695 Y113.495 E5.96765
G1 X86.906 Y112.581 E6.00509
G1 X87.194 Y111.689 E6.0425
G1 X87.557 Y110.824 E6.07994
G1 X87.992 Y109.993 E6.11738
G1 X88.496 Y109.203 E6.15478
G1 X89.066 Y108.458 E6.19222
G1 X89.698 Y107.764 E6.22968
G1 X90.386 Y107.127 E6.2671
G0 F3000 X90.774 Y107.323
G1 F1200 X91.51 Y106.77 E6.30385
G1 X92.291 Y106.282 E6.3406
G1 X93.111 Y105.864 E6.37734
G1 X93.965 Y105.519 E6.4141
G1 X94.845 Y105.249 E6.45084
G1 X95.745 Y105.057 E6.48757
G1 X96.659 Y104.943 E6.52433
G1 X97.212 Y104.913 E6.54643
G1 X97.533 Y104.904 E6.55925
G1 X97.83 Y104.9 E6.57111
G1 X136.793 Y104.9 E8.1262
G1 X137.643 Y104.911 E8.16013
G1 X138.562 Y104.964 E8.19687
G1 X139.473 Y105.097 E8.23362
G1 X140.369 Y105.308 E8.27036
G1 X141.243 Y105.596 E8.30709
G1 X142.09 Y105.959 E8.34386
G1 X142.901 Y106.394 E8.3806
G1 X143.671 Y106.898 E8.41733
G1 X144.395 Y107.467 E8.45408
G1 X145.067 Y108.097 E8.49084
G1 X145.682 Y108.782 E8.52758
G1 X146.235 Y109.518 E8.56433
G1 X146.722 Y110.299 E8.60106
G1 X147.139 Y111.12 E8.63782
G1 X147.484 Y111.974 E8.67458
G1 X147.753 Y112.854 E8.7113
G1 X147.945 Y113.755 E8.74807
G1 X148.058 Y114.668 E8.78479
G1 X148.087 Y115.212 E8.80653
G1 X148.096 Y115.532 E8.81931
G1 X148.1 Y115.83 E8.8312
G1 X148.099 Y118.895 E8.95354
G1 X148.09 Y119.622 E8.98255
G1 X148.039 Y120.541 E9.01929
G1 X147.908 Y121.453 E9.05606
G1 X147.698 Y122.349 E9.09279
G1 X147.412 Y123.224 E9.12953
G1 X147.051 Y124.071 E9.16628
G1 X146.617 Y124.883 E9.20303
G1 X146.115 Y125.655 E9.23978
G1 X145.547 Y126.38 E9.27654
G1 X144.919 Y127.053 E9.31328
G1 X144.235 Y127.669 E9.35002
G1 X143.5 Y128.223 E9.38676
G1 X142.72 Y128.712 E9.4235
G1 X141.9 Y129.131 E9.46025
G1 X141.047 Y129.477 E9.49699
G1 X140.167 Y129.748 E9.53374
G1 X139.267 Y129.941 E9.57048
G1 X138.353 Y130.056 E9.60725
G1 X137.788 Y130.087 E9.62983
G1 X137.467 Y130.096 E9.64265
G1 X137.17 Y130.1 E9.6545
G1 X98.07 Y130.099 E11.21507
G1 X97.372 Y130.09 E11.24293
G1 X96.453 Y130.038 E11.27967
G1 X95.542 Y129.907 E11.3164
G1 X94.646 Y129.697 E11.35313
G1 X93.771 Y129.41 E11.38989
G1 X92.924 Y129.048 E11.42665
G1 X92.112 Y128.614 E11.4634
G1 X91.341 Y128.112 E11.50012
G1 X90.616 Y127.544 E11.53688
G1 X89.943 Y126.915 E11.57364
G1 X89.328 Y126.231 E11.61036
G1 X88.774 Y125.496 E11.64709
G1 X88.286 Y124.715 E11.68385
G1 X87.867 Y123.895 E11.7206
G1 X87.521 Y123.042 E11.75734
G1 X87.251 Y122.162 E11.79408
G1 X87.058 Y121.261 E11.83085
G1 X86.944 Y120.348 E11.86758
G1 X86.913 Y119.777 E11.8904
G1 X86.904 Y119.444 E11.9037
G1 X86.9 Y119.158 E11.91511
G1 X86.901 Y116.031 E12.03992
G1 X86.91 Y115.366 E12.06646
G1 X86.962 Y114.446 E12.10324
G1 X87.094 Y113.535 E12.13998
G1 X87.305 Y112.639 E12.17672
G1 X87.592 Y111.764 E12.21347
G1 X87.955 Y110.918 E12.25021
G1 X88.389 Y110.106 E12.28696
G1 X88.892 Y109.335 E12.3237
G1 X89.461 Y108.611 E12.36046
G1 X90.089 Y107.939 E12.39717
G1 X90.774 Y107.323 E12.43393
G0 F3000 X91.162 Y107.524
G1 F1200 X91.894 Y106.994 E12.47
G1 X92.669 Y106.531 E12.50604
G1 X93.482 Y106.138 E12.54208
G1 X94.327 Y105.818 E12.57814
G1 X95.196 Y105.575 E12.61415
G1 X96.084 Y105.409 E12.65021
G1 X97.223 Y105.313 E12.69583
G1 X97.544 Y105.304 E12.70865
G1 X97.83 Y105.3 E12.72006
G1 X136.793 Y105.3 E14.27516
G1 X137.637 Y105.311 E14.30885
G1 X138.539 Y105.364 E14.34491
G1 X139.432 Y105.496 E14.38094
G1 X140.31 Y105.707 E14.41698
G1 X141.166 Y105.995 E14.45303
G1 X141.993 Y106.357 E14.48906
G1 X142.785 Y106.792 E14.52513
G1 X143.536 Y107.294 E14.56118
G1 X144.239 Y107.861 E14.59723
G1 X144.889 Y108.488 E14.63327
G1 X145.481 Y109.17 E14.66932
G1 X146.011 Y109.901 E14.70535
G1 X146.473 Y110.677 E14.7414
G1 X146.866 Y111.49 E14.77744
G1 X147.184 Y112.335 E14.81347
G1 X147.427 Y113.205 E14.84953
G1 X147.592 Y114.093 E14.88558
G1 X147.687 Y115.223 E14.93084
G1 X147.696 Y115.543 E14.94361
G1 X147.7 Y115.83 E14.95507
G1 X147.699 Y118.89 E15.0772
G1 X147.69 Y119.617 E15.10622
G1 X147.639 Y120.519 E15.14228
G1 X147.508 Y121.413 E15.17834
G1 X147.299 Y122.291 E15.21436
G1 X147.013 Y123.148 E15.25042
G1 X146.652 Y123.976 E15.28647
G1 X146.22 Y124.768 E15.32248
G1 X145.719 Y125.52 E15.35854
G1 X145.153 Y126.224 E15.3946
G1 X144.528 Y126.875 E15.43062
G1 X143.847 Y127.469 E15.46668
G1 X143.116 Y128 E15.50274
G1 X142.342 Y128.464 E15.53876
G1 X141.529 Y128.858 E15.57482
G1 X140.685 Y129.178 E15.61085
G1 X139.815 Y129.423 E15.64692
G1 X138.928 Y129.589 E15.68294
G1 X137.777 Y129.687 E15.72904
G1 X137.456 Y129.696 E15.74186
G1 X137.17 Y129.7 E15.75327
G1 X98.075 Y129.699 E17.31364
G1 X97.377 Y129.69 E17.3415
G1 X96.476 Y129.639 E17.37752
G1 X95.582 Y129.507 E17.41359
G1 X94.704 Y129.298 E17.44961
G1 X93.847 Y129.011 E17.48568
G1 X93.02 Y128.65 E17.5217
G1 X92.227 Y128.217 E17.55776
G1 X91.476 Y127.716 E17.59379
G1 X90.772 Y127.15 E17.62984
G1 X90.121 Y126.524 E17.66589
G1 X89.528 Y125.843 E17.70193
G1 X88.998 Y125.112 E17.73797
G1 X88.534 Y124.337 E17.77402
G1 X88.14 Y123.524 E17.81008
G1 X87.82 Y122.68 E17.8461
G1 X87.576 Y121.81 E17.88217
G1 X87.41 Y120.922 E17.91822
G1 X87.313 Y119.767 E17.96448
G1 X87.304 Y119.434 E17.97778
G1 X87.3 Y119.158 E17.9888
G1 X87.301 Y116.036 E18.1134
G1 X87.31 Y115.371 E18.13995
G1 X87.362 Y114.469 E18.17601
G1 X87.494 Y113.576 E18.21204
G1 X87.704 Y112.698 E18.24807
G1 X87.991 Y111.841 E18.28414
G1 X88.353 Y111.014 E18.32017
G1 X88.786 Y110.222 E18.3562
G1 X89.288 Y109.471 E18.39225
G1 X89.855 Y108.767 E18.42833
G1 X90.481 Y108.117 E18.46435
G1 X91.162 Y107.524 E18.50039
G1 F2700 E13.50039
;MESH:LiPoConn.stl
G0 F3000 X97.914 Y114.835
G0 X97.914 Y115.914
G0 X136.318 Y116.682
G0 X136.5 Y118.5
;TYPE:WALL-INNER
G1 F2700 E18.50039
G1 F1200 X98.5 Y118.5 E20.01705
G1 X98.5 Y116.5 E20.09687
G1 X136.5 Y116.5 E21.61354
G1 X136.5 Y118.5 E21.69336
G0 F3000 X136.9 Y118.9
G1 F1200 X98.1 Y118.9 E23.24195
G1 X98.1 Y116.1 E23.35371
G1 X136.9 Y116.1 E24.9023
G1 X136.9 Y118.9 E25.01405
G0 F3000 X137.3 Y119.3
;TYPE:WALL-OUTER
G1 F1200 X97.7 Y119.3 E26.59457
G1 X97.7 Y115.7 E26.73826
G1 X137.3 Y115.7 E28.31878
G1 X137.3 Y119.3 E28.46246
G0 F3000 X137.03 Y119.03
G0 X136.39 Y118.11
G0 X136.11 Y118.11
;TYPE:SKIN
G1 F1200 X98.89 Y118.11 E29.94799
G1 X98.89 Y116.89 E29.99669
G1 X136.11 Y116.89 E31.48222
G1 X136.11 Y118.11 E31.53091
G0 F3000 X135.949 Y117.282
G1 F1200 X135.717 Y117.05 E31.544
G0 F3000 X135.152 Y117.05
G1 F1200 X135.949 Y117.847 E31.58899
G0 F3000 X135.485 Y117.949
G1 F1200 X134.586 Y117.05 E31.63973
G0 F3000 X134.02 Y117.05
G1 F1200 X134.92 Y117.949 E31.69051
G0 F3000 X134.354 Y117.949
G1 F1200 X133.455 Y117.05 E31.74125
G0 F3000 X132.889 Y117.05
G1 F1200 X133.788 Y117.949 E31.79199
G0 F3000 X133.223 Y117.949
G1 F1200 X132.323 Y117.05 E31.84276
G0 F3000 X131.758 Y117.05
G1 F1200 X132.657 Y117.949 E31.89351
G0 F3000 X132.091 Y117.949
G1 F1200 X131.192 Y117.05 E31.94425
G0 F3000 X130.626 Y117.05
G1 F1200 X131.526 Y117.949 E31.99502
G0 F3000 X130.96 Y117.949
G1 F1200 X130.06 Y117.05 E32.04579
G0 F3000 X129.495 Y117.05
G1 F1200 X130.394 Y117.949 E32.09654
G0 F3000 X129.829 Y117.949
G1 F1200 X128.929 Y117.05 E32.14731
G0 F3000 X128.363 Y117.05
G1 F1200 X129.263 Y117.949 E32.19808
G0 F3000 X128.697 Y117.949
G1 F1200 X127.798 Y117.05 E32.24882
G0 F3000 X127.232 Y117.05
G1 F1200 X128.131 Y117.949 E32.29957
G0 F3000 X127.566 Y117.949
G1 F1200 X126.666 Y117.05 E32.35034
G0 F3000 X126.101 Y117.05
G1 F1200 X127 Y117.949 E32.40108
G0 F3000 X126.434 Y117.949
G1 F1200 X125.535 Y117.05 E32.45183
G0 F3000 X124.969 Y117.05
G1 F1200 X125.869 Y117.949 E32.5026
G0 F3000 X125.303 Y117.949
G1 F1200 X124.404 Y117.05 E32.55334
G0 F3000 X123.838 Y117.05
G1 F1200 X124.737 Y117.949 E32.60409
G0 F3000 X124.172 Y117.949
G1 F1200 X123.272 Y117.05 E32.65486
G0 F3000 X122.707 Y117.05
G1 F1200 X123.606 Y117.949 E32.7056
G0 F3000 X123.04 Y117.949
G1 F1200 X122.141 Y117.05 E32.75634
G0 F3000 X121.575 Y117.05
G1 F1200 X122.475 Y117.949 E32.80712
G0 F3000 X121.909 Y117.949
G1 F1200 X121.01 Y117.05 E32.85786
G0 F3000 X120.444 Y117.05
G1 F1200 X121.343 Y117.949 E32.9086
G0 F3000 X120.778 Y117.949
G1 F1200 X119.878 Y117.05 E32.95937
G0 F3000 X119.312 Y117.05
G1 F1200 X120.212 Y117.949 E33.01015
G0 F3000 X119.646 Y117.949
G1 F1200 X118.747 Y117.05 E33.06089
G0 F3000 X118.181 Y117.05
G1 F1200 X119.081 Y117.949 E33.11166
G0 F3000 X118.515 Y117.949
G1 F1200 X117.615 Y117.05 E33.16243
G0 F3000 X117.049 Y117.049
G1 F1200 X117.949 Y117.949 E33.21323
G0 F3000 X117.383 Y117.949
G1 F1200 X116.483 Y117.049 E33.26403
G0 F3000 X115.918 Y117.049
G1 F1200 X116.818 Y117.949 E33.31483
G0 F3000 X116.252 Y117.949
G1 F1200 X115.352 Y117.049 E33.36563
G0 F3000 X114.786 Y117.049
G1 F1200 X115.686 Y117.949 E33.41643
G0 F3000 X115.121 Y117.949
G1 F1200 X114.221 Y117.049 E33.46723
G0 F3000 X113.655 Y117.049
G1 F1200 X114.555 Y117.949 E33.51803
G0 F3000 X113.989 Y117.949
G1 F1200 X113.089 Y117.049 E33.56883
G0 F3000 X112.524 Y117.049
G1 F1200 X113.424 Y117.949 E33.61963
G0 F3000 X112.858 Y117.949
G1 F1200 X111.958 Y117.049 E33.67043
G0 F3000 X111.392 Y117.049
G1 F1200 X112.292 Y117.949 E33.72123
G0 F3000 X111.727 Y117.949
G1 F1200 X110.826 Y117.049 E33.77206
G0 F3000 X110.261 Y117.049
G1 F1200 X111.161 Y117.949 E33.82286
G0 F3000 X110.595 Y117.949
G1 F1200 X109.695 Y117.049 E33.87366
G0 F3000 X109.129 Y117.049
G1 F1200 X110.03 Y117.949 E33.92449
G0 F3000 X109.464 Y117.949
G1 F1200 X108.564 Y117.049 E33.97529
G0 F3000 X107.998 Y117.049
G1 F1200 X108.898 Y117.949 E34.02609
G0 F3000 X108.333 Y117.949
G1 F1200 X107.432 Y117.049 E34.07692
G0 F3000 X106.867 Y117.049
G1 F1200 X107.767 Y117.949 E34.12772
G0 F3000 X107.201 Y117.949
G1 F1200 X106.301 Y117.049 E34.17851
G0 F3000 X105.735 Y117.049
G1 F1200 X106.635 Y117.949 E34.22931
M104 S205
G0 F3000 X106.07 Y117.949
G1 F1200 X105.17 Y117.049 E34.28011
G0 F3000 X104.604 Y117.049
G1 F1200 X105.504 Y117.949 E34.33091
G0 F3000 X104.938 Y117.949
G1 F1200 X104.038 Y117.049 E34.38171
G0 F3000 X103.473 Y117.049
G1 F1200 X104.373 Y117.949 E34.43251
G0 F3000 X103.807 Y117.949
G1 F1200 X102.907 Y117.049 E34.48331
G0 F3000 X102.341 Y117.049
G1 F1200 X103.241 Y117.949 E34.53411
G0 F3000 X102.676 Y117.949
G1 F1200 X101.776 Y117.049 E34.58491
G0 F3000 X101.21 Y117.049
G1 F1200 X102.11 Y117.949 E34.63571
G0 F3000 X101.544 Y117.949
G1 F1200 X100.644 Y117.049 E34.68651
G0 F3000 X100.078 Y117.049
G1 F1200 X100.979 Y117.949 E34.73734
G0 F3000 X100.413 Y117.949
G1 F1200 X99.513 Y117.049 E34.78814
G0 F3000 X99.05 Y117.152
G1 F1200 X99.847 Y117.949 E34.83313
G0 F3000 X99.282 Y117.949
G1 F1200 X99.05 Y117.717 E34.84622
G0 F3000 X98.31 Y117.717
G1 F2700 E29.84622
;MESH:NONMESH
G0 F300 X98.31 Y117.717 Z0.4
G0 F3000 X98.682 Y118.318
G0 X136.5 Y118.5
;TIME_ELAPSED:56.543595
;LAYER:1
M140 S50
M106 S85
;TYPE:WALL-INNER
;MESH:LiPoConn.stl
G1 F2700 E34.84622
G1 F1350 X98.5 Y118.5 E36.11011
G1 X98.5 Y116.5 E36.17663
G1 X136.5 Y116.5 E37.44051
G1 X136.5 Y118.5 E37.50703
G0 F6000 X136.9 Y118.9
G1 F1350 X98.1 Y118.9 E38.79753
G1 X98.1 Y116.1 E38.89066
G1 X136.9 Y116.1 E40.18115
G1 X136.9 Y118.9 E40.27428
G0 F6000 X137.3 Y119.3
;TYPE:WALL-OUTER
G1 F1350 X97.7 Y119.3 E41.59138
G1 X97.7 Y115.7 E41.71111
G1 X137.3 Y115.7 E43.02822
G1 X137.3 Y119.3 E43.14795
G0 F6000 X137.03 Y119.03
G0 X136.39 Y118.11
G0 X136.11 Y118.11
;TYPE:SKIN
G1 F1350 X98.89 Y118.11 E44.38589
G1 X98.89 Y116.89 E44.42647
G1 X136.11 Y116.89 E45.66441
G1 X136.11 Y118.11 E45.70499
G0 F6000 X135.949 Y117.478
G1 F1350 X135.476 Y117.95 E45.72722
G0 F6000 X134.911 Y117.95
G1 F1350 X135.811 Y117.049 E45.76957
G0 F6000 X135.246 Y117.049
G1 F1350 X134.345 Y117.95 E45.81195
G0 F6000 X133.779 Y117.95
G1 F1350 X134.68 Y117.049 E45.85433
G0 F6000 X134.114 Y117.049
G1 F1350 X133.213 Y117.95 E45.89671
G0 F6000 X132.648 Y117.95
G1 F1350 X133.549 Y117.049 E45.93909
G0 F6000 X132.983 Y117.049
G1 F1350 X132.082 Y117.95 E45.98148
G0 F6000 X131.516 Y117.95
G1 F1350 X132.417 Y117.049 E46.02386
G0 F6000 X131.852 Y117.049
G1 F1350 X130.951 Y117.95 E46.06624
G0 F6000 X130.385 Y117.95
G1 F1350 X131.286 Y117.049 E46.10862
G0 F6000 X130.72 Y117.049
G1 F1350 X129.819 Y117.95 E46.151
G0 F6000 X129.254 Y117.95
G1 F1350 X130.155 Y117.049 E46.19338
G0 F6000 X129.589 Y117.049
G1 F1350 X128.688 Y117.95 E46.23576
G0 F6000 X128.122 Y117.95
G1 F1350 X129.023 Y117.049 E46.27814
G0 F6000 X128.457 Y117.049
G1 F1350 X127.557 Y117.95 E46.32049
G0 F6000 X126.991 Y117.95
G1 F1350 X127.892 Y117.049 E46.36287
G0 F6000 X127.326 Y117.049
G1 F1350 X126.425 Y117.95 E46.40525
G0 F6000 X125.86 Y117.95
G1 F1350 X126.76 Y117.049 E46.44761
G0 F6000 X126.195 Y117.049
G1 F1350 X125.294 Y117.95 E46.48999
G0 F6000 X124.728 Y117.95
G1 F1350 X125.629 Y117.049 E46.53237
G0 F6000 X125.063 Y117.049
G1 F1350 X124.163 Y117.95 E46.57473
G0 F6000 X123.597 Y117.95
G1 F1350 X124.498 Y117.049 E46.61711
G0 F6000 X123.932 Y117.049
G1 F1350 X123.031 Y117.95 E46.65949
G0 F6000 X122.465 Y117.95
G1 F1350 X123.366 Y117.049 E46.70187
G0 F6000 X122.801 Y117.049
G1 F1350 X121.9 Y117.95 E46.74425
