;FLAVOR:Marlin
;TIME:5826
;Filament used: 5.06268m
;Layer height: 0.24
;MINX:38.6
;MINY:38.6
;MINZ:0.26
;MAXX:196.4
;MAXY:196.4
;MAXZ:44.68
;Generated with Cura_SteamEngine 4.8.0
M140 S100
M105
M190 S100
M104 S240
M105
M109 S240
M82 ;absolute extrusion mode
; Ender 3 Custom Start G-code
G92 E0 ; Reset Extruder
G28 ; Home all axes
G1 Z2.0 F3000 ; Move Z Axis up little to prevent scratching of Heat Bed
G1 X0.1 Y20 Z0.3 F5000.0 ; Move to start position
G1 X0.1 Y200.0 Z0.3 F1500.0 E15 ; Draw the first line
G1 X0.4 Y200.0 Z0.3 F5000.0 ; Move to side a little
G1 X0.4 Y20 Z0.3 F1500.0 E30 ; Draw the second line
G92 E0 ; Reset Extruder
G1 Z2.0 F3000 ; Move Z Axis up little to prevent scratching of Heat Bed
G1 X5 Y20 Z0.3 F5000.0 ; Move over to prevent blob squish
G92 E0
G92 E0
G1 F2700 E-5
;LAYER_COUNT:141
;LAYER:0
M107
G0 F1200 X98.455 Y40.992 Z0.26
;TYPE:SKIRT
G1 F2700 E0
G1 F1200 X98.723 Y40.503 E0.05216
G1 X99.242 Y39.859 E0.12953
G1 X99.359 Y39.742 E0.14501
G1 X99.781 Y39.377 E0.1972
G1 X100.251 Y39.075 E0.24946
G1 X100.759 Y38.844 E0.30167
G1 X101.295 Y38.688 E0.35389
G1 X102.117 Y38.6 E0.43122
G1 X102.383 Y38.6 E0.4561
G1 X102.94 Y38.64 E0.50834
G1 X103.485 Y38.759 E0.56052
G1 X104.008 Y38.955 E0.61277
G1 X104.497 Y39.223 E0.66493
G1 X105.141 Y39.742 E0.7423
G1 X105.258 Y39.859 E0.75778
G1 X105.623 Y40.281 E0.80997
G1 X105.925 Y40.751 E0.86223
G1 X106.156 Y41.259 E0.91444
G1 X106.312 Y41.795 E0.96666
G1 X106.4 Y42.617 E1.04399
G1 X106.4 Y83.544 E4.87247
G1 X143.1 Y83.544 E8.30554
G1 X143.1 Y43.117 E12.08725
G1 X143.14 Y42.56 E12.13949
G1 X143.259 Y42.015 E12.19167
G1 X143.455 Y41.492 E12.24391
G1 X143.723 Y41.003 E12.29608
G1 X144.242 Y40.359 E12.37345
G1 X144.359 Y40.242 E12.38893
G1 X144.781 Y39.877 E12.44112
G1 X145.251 Y39.575 E12.49338
G1 X145.759 Y39.344 E12.54558
G1 X146.295 Y39.188 E12.5978
G1 X147.117 Y39.1 E12.67513
G1 X147.383 Y39.1 E12.70002
G1 X147.94 Y39.14 E12.75225
G1 X148.485 Y39.259 E12.80444
G1 X149.008 Y39.455 E12.85668
G1 X149.497 Y39.723 E12.90885
G1 X150.141 Y40.242 E12.98622
G1 X150.258 Y40.359 E13.00169
G1 X150.623 Y40.781 E13.05389
G1 X150.925 Y41.251 E13.10615
G1 X151.156 Y41.759 E13.15835
G1 X151.312 Y42.295 E13.21057
G1 X151.4 Y43.117 E13.2879
G1 X151.4 Y83.544 E17.06961
G1 X191.883 Y83.544 E20.85656
G1 X192.44 Y83.584 E20.9088
G1 X192.985 Y83.703 E20.96098
G1 X193.508 Y83.899 E21.01323
G1 X193.997 Y84.167 E21.06539
G1 X194.641 Y84.686 E21.14276
G1 X194.758 Y84.803 E21.15824
G1 X195.123 Y85.225 E21.21043
G1 X195.425 Y85.695 E21.26269
G1 X195.656 Y86.203 E21.31489
G1 X195.812 Y86.739 E21.36711
G1 X195.9 Y87.561 E21.44444
G1 X195.9 Y87.883 E21.47457
G1 X195.86 Y88.44 E21.5268
G1 X195.741 Y88.985 E21.57899
G1 X195.545 Y89.508 E21.63123
G1 X195.277 Y89.997 E21.6834
G1 X194.758 Y90.641 E21.76077
G1 X194.641 Y90.758 E21.77624
G1 X194.219 Y91.123 E21.82844
G1 X193.749 Y91.425 E21.8807
G1 X193.241 Y91.656 E21.9329
G1 X192.705 Y91.812 E21.98512
G1 X191.883 Y91.9 E22.06245
G1 X151.4 Y91.9 E25.8494
G1 X151.4 Y128.6 E29.28247
G1 X192.383 Y128.6 E33.11619
G1 X192.94 Y128.64 E33.16843
G1 X193.485 Y128.759 E33.22061
G1 X194.008 Y128.955 E33.27286
G1 X194.497 Y129.223 E33.32502
G1 X195.141 Y129.742 E33.40239
G1 X195.258 Y129.859 E33.41787
G1 X195.623 Y130.281 E33.47006
G1 X195.925 Y130.751 E33.52232
G1 X196.156 Y131.259 E33.57452
G1 X196.312 Y131.795 E33.62674
G1 X196.4 Y132.617 E33.70407
G1 X196.4 Y132.883 E33.72896
G1 X196.36 Y133.44 E33.7812
G1 X196.241 Y133.985 E33.83338
G1 X196.045 Y134.508 E33.88562
G1 X195.777 Y134.997 E33.93779
G1 X195.258 Y135.641 E34.01516
G1 X195.141 Y135.758 E34.03064
G1 X194.719 Y136.123 E34.08283
G1 X194.249 Y136.425 E34.13509
G1 X193.741 Y136.656 E34.18729
G1 X193.205 Y136.812 E34.23951
G1 X192.383 Y136.9 E34.31684
G1 X106.4 Y136.9 E42.36005
G1 X106.4 Y192.383 E47.55016
G1 X106.36 Y192.94 E47.6024
G1 X106.241 Y193.485 E47.65458
G1 X106.045 Y194.008 E47.70682
G1 X105.777 Y194.497 E47.75899
G1 X105.258 Y195.141 E47.83636
G1 X105.141 Y195.258 E47.85184
G1 X104.719 Y195.623 E47.90403
G1 X104.249 Y195.925 E47.95629
G1 X103.741 Y196.156 E48.00849
G1 X103.205 Y196.312 E48.06071
G1 X102.383 Y196.4 E48.13804
G1 X102.117 Y196.4 E48.16293
G1 X101.56 Y196.36 E48.21516
G1 X101.015 Y196.241 E48.26735
G1 X100.492 Y196.045 E48.31959
G1 X100.003 Y195.777 E48.37176
G1 X99.359 Y195.258 E48.44913
G1 X99.242 Y195.141 E48.46461
G1 X98.877 Y194.719 E48.5168
G1 X98.575 Y194.249 E48.56906
G1 X98.344 Y193.741 E48.62126
G1 X98.188 Y193.205 E48.67348
G1 X98.1 Y192.383 E48.75081
G1 X98.1 Y136.9 E53.94092
G1 X42.617 Y136.9 E59.13103
G1 X42.06 Y136.86 E59.18327
G1 X41.515 Y136.741 E59.23545
G1 X40.992 Y136.545 E59.2877
G1 X40.503 Y136.277 E59.33986
G1 X39.859 Y135.758 E59.41723
G1 X39.742 Y135.641 E59.43271
G1 X39.377 Y135.219 E59.4849
G1 X39.075 Y134.749 E59.53716
G1 X38.844 Y134.241 E59.58936
G1 X38.688 Y133.705 E59.64158
G1 X38.6 Y132.883 E59.71892
G1 X38.6 Y132.617 E59.7438
G1 X38.64 Y132.06 E59.79604
G1 X38.759 Y131.515 E59.84822
G1 X38.955 Y130.992 E59.90047
G1 X39.223 Y130.503 E59.95263
G1 X39.742 Y129.859 E60.03
G1 X39.859 Y129.742 E60.04548
G1 X40.281 Y129.377 E60.09767
G1 X40.751 Y129.075 E60.14993
G1 X41.259 Y128.844 E60.20213
G1 X41.795 Y128.688 E60.25435
G1 X42.617 Y128.6 E60.33169
G1 X98.1 Y128.6 E65.5218
G1 X98.1 Y42.617 E73.565
G1 X98.14 Y42.06 E73.61724
G1 X98.259 Y41.515 E73.66942
G1 X98.455 Y40.992 E73.72167
G0 X99.054 Y41.131
G1 X99.32 Y40.692 E73.76968
G1 X99.667 Y40.284 E73.81979
G1 X99.784 Y40.167 E73.83526
G1 X100.174 Y39.833 E73.8833
G1 X100.611 Y39.564 E73.9313
G1 X101.085 Y39.366 E73.97935
G1 X101.583 Y39.243 E74.02734
G1 X102.117 Y39.2 E74.07745
G1 X102.383 Y39.2 E74.10233
G1 X102.895 Y39.24 E74.15038
G1 X103.394 Y39.359 E74.19836
G1 X103.869 Y39.554 E74.24639
G1 X104.308 Y39.82 E74.29441
G1 X104.716 Y40.167 E74.34451
G1 X104.833 Y40.284 E74.35999
G1 X105.167 Y40.674 E74.40802
G1 X105.436 Y41.111 E74.45603
G1 X105.634 Y41.585 E74.50408
G1 X105.757 Y42.083 E74.55207
G1 X105.8 Y42.617 E74.60218
G1 X105.8 Y84.144 E78.48679
G1 X143.7 Y84.144 E82.03211
G1 X143.7 Y43.117 E85.86994
G1 X143.74 Y42.605 E85.91798
G1 X143.859 Y42.106 E85.96597
G1 X144.054 Y41.631 E86.014
G1 X144.32 Y41.192 E86.06202
G1 X144.667 Y40.784 E86.11212
G1 X144.784 Y40.667 E86.1276
G1 X145.174 Y40.333 E86.17563
G1 X145.611 Y40.064 E86.22364
G1 X146.085 Y39.866 E86.27169
G1 X146.583 Y39.743 E86.31967
G1 X147.117 Y39.7 E86.36979
G1 X147.383 Y39.7 E86.39467
G1 X147.895 Y39.74 E86.44271
G1 X148.394 Y39.859 E86.4907
G1 X148.869 Y40.054 E86.53873
G1 X149.308 Y40.32 E86.58675
G1 X149.716 Y40.667 E86.63685
G1 X149.833 Y40.784 E86.65233
G1 X150.167 Y41.174 E86.70036
G1 X150.436 Y41.611 E86.74836
G1 X150.634 Y42.085 E86.79642
G1 X150.757 Y42.583 E86.8444
G1 X150.8 Y43.117 E86.89452
G1 X150.8 Y84.144 E90.73235
G1 X191.883 Y84.144 E94.57542
G1 X192.395 Y84.184 E94.62346
G1 X192.894 Y84.303 E94.67145
G1 X193.369 Y84.498 E94.71948
G1 X193.808 Y84.764 E94.7675
G1 X194.216 Y85.111 E94.8176
G1 X194.333 Y85.228 E94.83308
G1 X194.667 Y85.618 E94.88111
G1 X194.936 Y86.055 E94.92912
G1 X195.134 Y86.529 E94.97717
G1 X195.257 Y87.027 E95.02515
G1 X195.3 Y87.561 E95.07527
G1 X195.3 Y87.883 E95.10539
G1 X195.26 Y88.395 E95.15343
G1 X195.141 Y88.894 E95.20142
G1 X194.946 Y89.369 E95.24945
G1 X194.68 Y89.808 E95.29747
G1 X194.333 Y90.216 E95.34757
G1 X194.216 Y90.333 E95.36305
G1 X193.826 Y90.667 E95.41108
G1 X193.389 Y90.936 E95.45908
G1 X192.915 Y91.134 E95.50713
G1 X192.417 Y91.257 E95.55512
G1 X191.883 Y91.3 E95.60523
G1 X150.8 Y91.3 E99.44831
G1 X150.8 Y129.2 E102.99363
G1 X192.383 Y129.2 E106.88348
G1 X192.895 Y129.24 E106.93152
G1 X193.394 Y129.359 E106.9795
G1 X193.869 Y129.554 E107.02754
G1 X194.308 Y129.82 E107.07555
G1 X194.716 Y130.167 E107.12565
G1 X194.833 Y130.284 E107.14113
G1 X195.167 Y130.674 E107.18917
G1 X195.436 Y131.111 E107.23717
G1 X195.634 Y131.585 E107.28522
G1 X195.757 Y132.083 E107.33321
G1 X195.8 Y132.617 E107.38332
G1 X195.8 Y132.883 E107.4082
G1 X195.76 Y133.395 E107.45624
G1 X195.641 Y133.894 E107.50423
G1 X195.446 Y134.369 E107.55226
G1 X195.18 Y134.808 E107.60028
G1 X194.833 Y135.216 E107.65038
G1 X194.716 Y135.333 E107.66586
G1 X194.326 Y135.667 E107.71389
G1 X193.889 Y135.936 E107.7619
G1 X193.415 Y136.134 E107.80995
G1 X192.917 Y136.257 E107.85793
G1 X192.383 Y136.3 E107.90805
G1 X105.8 Y136.3 E116.00738
G1 X105.8 Y192.383 E121.25361
G1 X105.76 Y192.895 E121.30165
G1 X105.641 Y193.394 E121.34964
G1 X105.446 Y193.869 E121.39767
G1 X105.18 Y194.308 E121.44569
G1 X104.833 Y194.716 E121.49579
G1 X104.716 Y194.833 E121.51127
G1 X104.326 Y195.167 E121.5593
G1 X103.889 Y195.436 E121.60731
G1 X103.415 Y195.634 E121.65536
G1 X102.917 Y195.757 E121.70334
G1 X102.383 Y195.8 E121.75346
G1 X102.117 Y195.8 E121.77834
G1 X101.605 Y195.76 E121.82638
G1 X101.106 Y195.641 E121.87437
G1 X100.631 Y195.446 E121.9224
G1 X100.192 Y195.18 E121.97042
G1 X99.784 Y194.833 E122.02052
G1 X99.667 Y194.716 E122.036
G1 X99.333 Y194.326 E122.08403
G1 X99.064 Y193.889 E122.13203
G1 X98.866 Y193.415 E122.18009
G1 X98.743 Y192.917 E122.22807
G1 X98.7 Y192.383 E122.27819
G1 X98.7 Y136.3 E127.52442
G1 X42.617 Y136.3 E132.77066
G1 X42.105 Y136.26 E132.8187
G1 X41.606 Y136.141 E132.86668
G1 X41.131 Y135.946 E132.91472
G1 X40.692 Y135.68 E132.96273
G1 X40.284 Y135.333 E133.01284
G1 X40.167 Y135.216 E133.02831
G1 X39.833 Y134.826 E133.07635
G1 X39.564 Y134.389 E133.12435
G1 X39.366 Y133.915 E133.1724
G1 X39.243 Y133.417 E133.22039
G1 X39.2 Y132.883 E133.2705
G1 X39.2 Y132.617 E133.29538
G1 X39.24 Y132.105 E133.34342
G1 X39.359 Y131.606 E133.39141
G1 X39.554 Y131.131 E133.43944
G1 X39.82 Y130.692 E133.48746
G1 X40.167 Y130.284 E133.53756
G1 X40.284 Y130.167 E133.55304
G1 X40.674 Y129.833 E133.60107
G1 X41.111 Y129.564 E133.64908
G1 X41.585 Y129.366 E133.69713
G1 X42.083 Y129.243 E133.74511
G1 X42.617 Y129.2 E133.79523
G1 X98.7 Y129.2 E139.04146
G1 X98.7 Y42.617 E147.14079
G1 X98.74 Y42.105 E147.18884
G1 X98.859 Y41.606 E147.23682
G1 X99.054 Y41.131 E147.28485
G0 X99.459 Y41.705
G1 X99.652 Y41.283 E147.32826
G1 X99.915 Y40.901 E147.37165
G1 X100.091 Y40.708 E147.39608
G1 X100.208 Y40.591 E147.41156
G1 X100.563 Y40.292 E147.45498
G1 X100.964 Y40.058 E147.49841
G1 X101.4 Y39.897 E147.54188
G1 X101.856 Y39.813 E147.58526
G1 X102.117 Y39.8 E147.6097
G1 X102.383 Y39.8 E147.63459
G1 X102.846 Y39.84 E147.67806
G1 X103.295 Y39.959 E147.72151
G1 X103.717 Y40.152 E147.76492
G1 X104.099 Y40.415 E147.8083
G1 X104.292 Y40.591 E147.83274
G1 X104.409 Y40.708 E147.84821
G1 X104.708 Y41.063 E147.89163
G1 X104.942 Y41.464 E147.93506
G1 X105.103 Y41.9 E147.97854
G1 X105.187 Y42.356 E148.02191
G1 X105.2 Y42.617 E148.04636
G1 X105.2 Y84.744 E151.98709
G1 X144.3 Y84.744 E155.64467
G1 X144.3 Y43.117 E159.53863
G1 X144.34 Y42.654 E159.5821
G1 X144.459 Y42.205 E159.62555
G1 X144.652 Y41.783 E159.66896
G1 X144.915 Y41.401 E159.71234
G1 X145.091 Y41.208 E159.73678
G1 X145.208 Y41.091 E159.75226
G1 X145.563 Y40.792 E159.79567
G1 X145.964 Y40.558 E159.8391
G1 X146.4 Y40.397 E159.88258
G1 X146.856 Y40.313 E159.92596
G1 X147.117 Y40.3 E159.9504
G1 X147.383 Y40.3 E159.97528
G1 X147.846 Y40.34 E160.01876
G1 X148.295 Y40.459 E160.06221
G1 X148.717 Y40.652 E160.10562
G1 X149.099 Y40.915 E160.149
G1 X149.292 Y41.091 E160.17343
G1 X149.409 Y41.208 E160.18891
G1 X149.708 Y41.563 E160.23233
G1 X149.942 Y41.964 E160.27576
G1 X150.103 Y42.4 E160.31924
G1 X150.187 Y42.856 E160.36261
G1 X150.2 Y43.117 E160.38706
G1 X150.2 Y84.744 E164.28102
G1 X191.883 Y84.744 E168.18022
G1 X192.346 Y84.784 E168.22369
G1 X192.795 Y84.903 E168.26714
G1 X193.217 Y85.096 E168.31055
G1 X193.599 Y85.359 E168.35393
G1 X193.792 Y85.535 E168.37837
G1 X193.909 Y85.652 E168.39384
G1 X194.208 Y86.007 E168.43726
G1 X194.442 Y86.408 E168.48069
G1 X194.603 Y86.844 E168.52417
G1 X194.687 Y87.3 E168.56754
G1 X194.7 Y87.561 E168.59199
G1 X194.7 Y87.883 E168.62211
G1 X194.66 Y88.346 E168.66558
G1 X194.541 Y88.795 E168.70903
G1 X194.348 Y89.217 E168.75244
G1 X194.085 Y89.599 E168.79583
G1 X193.909 Y89.792 E168.82026
G1 X193.792 Y89.909 E168.83574
G1 X193.437 Y90.208 E168.87916
G1 X193.036 Y90.442 E168.92259
G1 X192.6 Y90.603 E168.96606
G1 X192.144 Y90.687 E169.00944
G1 X191.883 Y90.7 E169.03388
G1 X150.2 Y90.7 E172.93308
G1 X150.2 Y129.8 E176.59066
G1 X192.383 Y129.8 E180.53663
G1 X192.846 Y129.84 E180.5801
G1 X193.295 Y129.959 E180.62355
G1 X193.717 Y130.152 E180.66696
G1 X194.099 Y130.415 E180.71035
G1 X194.292 Y130.591 E180.73478
G1 X194.409 Y130.708 E180.75026
G1 X194.708 Y131.063 E180.79368
G1 X194.942 Y131.464 E180.83711
G1 X195.103 Y131.9 E180.88058
G1 X195.187 Y132.356 E180.92396
G1 X195.2 Y132.617 E180.9484
G1 X195.2 Y132.883 E180.97329
G1 X195.16 Y133.346 E181.01676
G1 X195.041 Y133.795 E181.06021
G1 X194.848 Y134.217 E181.10362
G1 X194.585 Y134.599 E181.147
G1 X194.409 Y134.792 E181.17143
G1 X194.292 Y134.909 E181.18691
G1 X193.937 Y135.208 E181.23033
G1 X193.536 Y135.442 E181.27376
G1 X193.1 Y135.603 E181.31724
G1 X192.644 Y135.687 E181.36061
G1 X192.383 Y135.7 E181.38506
G1 X105.2 Y135.7 E189.54052
G1 X105.2 Y192.383 E194.84288
G1 X105.16 Y192.846 E194.88635
G1 X105.041 Y193.295 E194.9298
G1 X104.848 Y193.717 E194.97321
G1 X104.585 Y194.099 E195.01659
G1 X104.409 Y194.292 E195.04103
G1 X104.292 Y194.409 E195.0565
G1 X103.937 Y194.708 E195.09992
G1 X103.536 Y194.942 E195.14335
G1 X103.1 Y195.103 E195.18683
G1 X102.644 Y195.187 E195.2302
G1 X102.383 Y195.2 E195.25465
G1 X102.117 Y195.2 E195.27953
G1 X101.654 Y195.16 E195.323
G1 X101.205 Y195.041 E195.36646
G1 X100.783 Y194.848 E195.40986
G1 X100.401 Y194.585 E195.45325
G1 X100.208 Y194.409 E195.47768
G1 X100.091 Y194.292 E195.49316
G1 X99.792 Y193.937 E195.53658
G1 X99.558 Y193.536 E195.58001
G1 X99.397 Y193.1 E195.62349
G1 X99.313 Y192.644 E195.66686
G1 X99.3 Y192.383 E195.6913
G1 X99.3 Y135.7 E200.99367
G1 X42.617 Y135.7 E206.29603
G1 X42.154 Y135.66 E206.3395
G1 X41.705 Y135.541 E206.38295
G1 X41.283 Y135.348 E206.42636
G1 X40.901 Y135.085 E206.46974
G1 X40.708 Y134.909 E206.49418
G1 X40.591 Y134.792 E206.50966
G1 X40.292 Y134.437 E206.55307
G1 X40.058 Y134.036 E206.5965
G1 X39.897 Y133.6 E206.63998
G1 X39.813 Y133.144 E206.68336
G1 X39.8 Y132.883 E206.7078
G1 X39.8 Y132.617 E206.73268
G1 X39.84 Y132.154 E206.77616
G1 X39.959 Y131.705 E206.81961
G1 X40.152 Y131.283 E206.86302
G1 X40.415 Y130.901 E206.9064
G1 X40.591 Y130.708 E206.93083
G1 X40.708 Y130.591 E206.94631
G1 X41.063 Y130.292 E206.98973
G1 X41.464 Y130.058 E207.03316
G1 X41.9 Y129.897 E207.07664
G1 X42.356 Y129.813 E207.12001
G1 X42.617 Y129.8 E207.14446
G1 X99.3 Y129.8 E212.44682
G1 X99.3 Y42.617 E220.60228
G1 X99.34 Y42.154 E220.64575
G1 X99.459 Y41.705 E220.6892
G0 X100.058 Y41.818
G1 X100.25 Y41.456 E220.72753
G1 X100.515 Y41.132 E220.76668
G1 X100.632 Y41.015 E220.78216
G1 X100.948 Y40.755 E220.82044
G1 X101.309 Y40.562 E220.85874
G1 X101.701 Y40.442 E220.89708
G1 X102.117 Y40.4 E220.9362
G1 X102.383 Y40.4 E220.96108
G1 X102.79 Y40.44 E220.99933
G1 X103.182 Y40.558 E221.03763
G1 X103.544 Y40.75 E221.07596
G1 X103.868 Y41.015 E221.11512
G1 X103.985 Y41.132 E221.13059
G1 X104.245 Y41.448 E221.16887
G1 X104.438 Y41.809 E221.20717
G1 X104.558 Y42.201 E221.24551
G1 X104.6 Y42.617 E221.28463
G1 X104.6 Y85.344 E225.28149
G1 X144.9 Y85.344 E229.05132
G1 X144.9 Y43.117 E233.0014
G1 X144.94 Y42.71 E233.03966
G1 X145.058 Y42.318 E233.07795
G1 X145.25 Y41.956 E233.11629
G1 X145.515 Y41.632 E233.15544
G1 X145.632 Y41.515 E233.17092
G1 X145.948 Y41.255 E233.2092
G1 X146.309 Y41.062 E233.24749
G1 X146.701 Y40.942 E233.28584
G1 X147.117 Y40.9 E233.32495
G1 X147.383 Y40.9 E233.34983
G1 X147.79 Y40.94 E233.38809
G1 X148.182 Y41.058 E233.42638
G1 X148.544 Y41.25 E233.46472
G1 X148.868 Y41.515 E233.50387
G1 X148.985 Y41.632 E233.51935
G1 X149.245 Y41.948 E233.55763
G1 X149.438 Y42.309 E233.59592
G1 X149.558 Y42.701 E233.63427
G1 X149.6 Y43.117 E233.67338
G1 X149.6 Y85.344 E237.62347
G1 X191.883 Y85.344 E241.5788
G1 X192.29 Y85.384 E241.61705
G1 X192.682 Y85.502 E241.65535
G1 X193.044 Y85.694 E241.69368
G1 X193.368 Y85.959 E241.73283
G1 X193.485 Y86.076 E241.74831
