;FLAVOR:Marlin
;TIME:3277
;Filament used: 9.2457m
;Layer height: 0.4
;MINX:88.9
;MINY:53.9
;MINZ:0.4
;MAXX:186.1
;MAXY:181.1
;MAXZ:20
;Generated with Cura_SteamEngine 4.11.0
M140 S100
M105
M190 S100
M104 S240
M105
M109 S240
M82 ;absolute extrusion mode
; Ender 3 Custom Start G-code
G92 E0 ; Reset Extruder
G28 ; Home all axes
G1 Z2.0 F3000 ; Move Z Axis up little to prevent scratching of Heat Bed
G1 X0.1 Y20 Z0.3 F5000.0 ; Move to start position
G1 X0.1 Y200.0 Z0.3 F1500.0 E15 ; Draw the first line
G1 X0.4 Y200.0 Z0.3 F5000.0 ; Move to side a little
G1 X0.4 Y20 Z0.3 F1500.0 E30 ; Draw the second line
G92 E0 ; Reset Extruder
G1 Z2.0 F3000 ; Move Z Axis up little to prevent scratching of Heat Bed
G1 X5 Y20 Z0.3 F5000.0 ; Move over to prevent blob squish
G92 E0
G92 E0
G1 F2700 E-5
;LAYER_COUNT:50
;LAYER:0
M107
G0 F6000 X149.522 Y90.712 Z0.4
;TYPE:SKIRT
G1 F2700 E0
G1 F1200 X149.954 Y90.188 E0.10029
G1 X150.188 Y89.954 E0.14916
G1 X150.595 Y89.605 E0.22833
G1 X151.049 Y89.319 E0.30757
G1 X151.54 Y89.104 E0.38673
G1 X152.058 Y88.964 E0.46597
G1 X152.734 Y88.9 E0.56624
G1 X181.493 Y88.9 E4.81323
G1 X181.834 Y88.916 E4.86364
G1 X181.876 Y88.92 E4.86987
G1 X182.298 Y88.986 E4.93295
G1 X182.653 Y89.063 E4.98659
G1 X183.167 Y89.215 E5.06574
G1 X183.419 Y89.322 E5.10617
G1 X183.5 Y89.36 E5.11939
G1 X183.967 Y89.623 E5.19854
G1 X184.233 Y89.818 E5.24724
G1 X184.519 Y90.049 E5.30153
G1 X185.064 Y90.596 E5.41556
G1 X185.117 Y90.662 E5.42806
G1 X185.421 Y91.104 E5.50728
G1 X185.551 Y91.349 E5.54824
G1 X185.697 Y91.651 E5.59778
G1 X185.903 Y92.179 E5.68147
G1 X185.922 Y92.242 E5.69119
G1 X186.052 Y92.874 E5.78648
G1 X186.076 Y93.085 E5.81784
G1 X186.099 Y93.492 E5.87803
G1 X186.1 Y141.493 E12.96658
G1 X186.084 Y141.834 E13.017
G1 X186.08 Y141.876 E13.02323
G1 X186.014 Y142.298 E13.0863
G1 X185.937 Y142.653 E13.13995
G1 X185.785 Y143.167 E13.2191
G1 X185.678 Y143.419 E13.25953
G1 X185.64 Y143.5 E13.27274
G1 X185.377 Y143.967 E13.35189
G1 X185.18 Y144.234 E13.40089
G1 X184.952 Y144.516 E13.45444
G1 X184.431 Y145.041 E13.56367
G1 X184.36 Y145.099 E13.57721
G1 X183.92 Y145.406 E13.65644
G1 X183.653 Y145.55 E13.70124
G1 X183.352 Y145.696 E13.75064
G1 X182.77 Y145.918 E13.84263
G1 X182.707 Y145.936 E13.8523
G1 X182.125 Y146.052 E13.93994
G1 X181.914 Y146.076 E13.9713
G1 X181.507 Y146.099 E14.0315
G1 X152.734 Y146.1 E18.28055
G1 X152.199 Y146.06 E18.35978
G1 X151.676 Y145.941 E18.43899
G1 X151.177 Y145.746 E18.5181
G1 X150.712 Y145.479 E18.59729
G1 X150.188 Y145.046 E18.69767
G1 X149.954 Y144.812 E18.74654
G1 X149.605 Y144.405 E18.82572
G1 X149.319 Y143.951 E18.90495
G1 X149.104 Y143.46 E18.98411
G1 X148.964 Y142.942 E19.06335
G1 X148.9 Y142.266 E19.16362
G1 X148.9 Y92.734 E26.47826
G1 X148.94 Y92.199 E26.55749
G1 X149.059 Y91.676 E26.6367
G1 X149.254 Y91.177 E26.71581
G1 X149.522 Y90.712 E26.79507
G0 F6000 X150.316 Y90.981
G1 F1200 X150.52 Y90.754 E26.84014
G1 X150.754 Y90.52 E26.88901
G1 X151.116 Y90.215 E26.95891
G1 X151.523 Y89.975 E27.02869
G1 X151.965 Y89.808 E27.09846
G1 X152.429 Y89.717 E27.16829
G1 X152.734 Y89.7 E27.2134
G1 X181.493 Y89.7 E31.46039
G1 X181.758 Y89.713 E31.49957
G1 X181.8 Y89.717 E31.5058
G1 X182.129 Y89.768 E31.55496
G1 X182.484 Y89.845 E31.60861
G1 X183.079 Y90.046 E31.70135
G1 X183.16 Y90.084 E31.71457
G1 X183.73 Y90.441 E31.81389
G1 X184.016 Y90.672 E31.86818
G1 X184.44 Y91.097 E31.95683
G1 X184.493 Y91.163 E31.96933
G1 X184.831 Y91.697 E32.06266
G1 X184.977 Y91.999 E32.1122
G1 X185.137 Y92.41 E32.17733
G1 X185.156 Y92.473 E32.18704
G1 X185.257 Y92.965 E32.26122
G1 X185.281 Y93.176 E32.29258
G1 X185.299 Y93.492 E32.33932
G1 X185.3 Y141.493 E39.42787
G1 X185.287 Y141.758 E39.46705
G1 X185.283 Y141.8 E39.47328
G1 X185.232 Y142.129 E39.52244
G1 X185.155 Y142.484 E39.57609
G1 X184.954 Y143.079 E39.66883
G1 X184.916 Y143.16 E39.68204
G1 X184.558 Y143.731 E39.78157
G1 X184.33 Y144.013 E39.83512
G1 X183.924 Y144.421 E39.92012
G1 X183.853 Y144.479 E39.93366
G1 X183.304 Y144.83 E40.02989
G1 X183.003 Y144.976 E40.07929
G1 X182.55 Y145.149 E40.1509
G1 X182.487 Y145.167 E40.16057
G1 X182.034 Y145.257 E40.22878
G1 X181.823 Y145.281 E40.26014
G1 X181.507 Y145.299 E40.30688
G1 X152.734 Y145.3 E44.55593
G1 X152.263 Y145.26 E44.62574
G1 X151.805 Y145.141 E44.69562
G1 X151.374 Y144.947 E44.76542
G1 X150.981 Y144.684 E44.83525
G1 X150.754 Y144.48 E44.88032
G1 X150.52 Y144.246 E44.92919
G1 X150.215 Y143.884 E44.99909
G1 X149.975 Y143.477 E45.06887
G1 X149.808 Y143.035 E45.13864
G1 X149.717 Y142.571 E45.20847
G1 X149.7 Y142.266 E45.25358
G1 X149.7 Y92.734 E52.56822
G1 X149.74 Y92.263 E52.63803
G1 X149.859 Y91.805 E52.70791
G1 X150.053 Y91.374 E52.7777
G1 X150.316 Y90.981 E52.84754
G0 F6000 X150.85 Y91.604
G1 F1200 X151.086 Y91.32 E52.90207
G1 X151.32 Y91.086 E52.95094
G1 X151.629 Y90.833 E53.00991
G1 X151.982 Y90.647 E53.06884
G1 X152.366 Y90.534 E53.12795
G1 X152.734 Y90.5 E53.18252
G1 X181.493 Y90.5 E57.42951
G1 X181.959 Y90.549 E57.4987
G1 X182.314 Y90.626 E57.55235
G1 X182.739 Y90.77 E57.61862
G1 X182.82 Y90.808 E57.63183
G1 X183.228 Y91.063 E57.70288
G1 X183.514 Y91.294 E57.75717
G1 X183.816 Y91.598 E57.82045
G1 X183.869 Y91.664 E57.83295
G1 X184.111 Y92.046 E57.89973
G1 X184.257 Y92.348 E57.94927
G1 X184.371 Y92.641 E57.99569
G1 X184.39 Y92.704 E58.00541
G1 X184.462 Y93.055 E58.05832
G1 X184.499 Y93.492 E58.12309
G1 X184.5 Y141.493 E65.21164
G1 X184.451 Y141.959 E65.28083
G1 X184.374 Y142.314 E65.33448
G1 X184.23 Y142.739 E65.40074
G1 X184.192 Y142.82 E65.41396
G1 X183.936 Y143.228 E65.48509
G1 X183.708 Y143.51 E65.53864
G1 X183.418 Y143.802 E65.59941
G1 X183.347 Y143.86 E65.61295
G1 X182.955 Y144.11 E65.68161
G1 X182.654 Y144.256 E65.73101
G1 X182.33 Y144.38 E65.78224
G1 X182.267 Y144.398 E65.79192
G1 X181.944 Y144.462 E65.84055
G1 X181.507 Y144.499 E65.90531
G1 X152.734 Y144.5 E70.15436
G1 X152.337 Y144.46 E70.21329
G1 X151.955 Y144.342 E70.27233
G1 X151.604 Y144.15 E70.33141
G1 X151.32 Y143.914 E70.38594
G1 X151.086 Y143.68 E70.43481
G1 X150.833 Y143.371 E70.49379
G1 X150.647 Y143.018 E70.55271
G1 X150.534 Y142.634 E70.61182
G1 X150.5 Y142.266 E70.6664
G1 X150.5 Y92.734 E77.98104
G1 X150.54 Y92.336 E78.04011
G1 X150.658 Y91.955 E78.09901
G1 X150.85 Y91.604 E78.15809
G0 F6000 X151.457 Y92.141
G1 F1200 X151.651 Y91.885 E78.20552
G1 X151.885 Y91.651 E78.25439
G1 X152.13 Y91.463 E78.3
G1 X152.415 Y91.343 E78.34566
G1 X152.734 Y91.3 E78.3932
G1 X181.493 Y91.3 E82.64018
G1 X181.789 Y91.331 E82.68413
G1 X182.144 Y91.408 E82.73778
G1 X182.4 Y91.495 E82.77771
G1 X182.481 Y91.533 E82.79092
G1 X182.725 Y91.685 E82.83337
G1 X183.011 Y91.916 E82.88766
G1 X183.193 Y92.099 E82.92578
G1 X183.246 Y92.165 E82.93828
G1 X183.39 Y92.394 E82.97822
G1 X183.536 Y92.696 E83.02776
G1 X183.624 Y92.935 E83.06537
G1 X183.691 Y93.356 E83.12832
G1 X183.699 Y93.492 E83.14844
G1 X183.7 Y141.493 E90.23699
G1 X183.669 Y141.789 E90.28094
G1 X183.592 Y142.144 E90.33459
G1 X183.505 Y142.4 E90.37451
G1 X183.467 Y142.481 E90.38773
G1 X183.314 Y142.725 E90.43026
G1 X183.086 Y143.007 E90.48381
G1 X182.841 Y143.24 E90.53374
G1 X182.606 Y143.391 E90.57499
G1 X182.305 Y143.537 E90.62439
G1 X182.048 Y143.629 E90.6647
G1 X181.643 Y143.691 E90.72521
G1 X181.507 Y143.699 E90.74533
G1 X152.734 Y143.7 E94.99438
G1 X152.427 Y143.66 E95.0401
G1 X152.141 Y143.543 E95.08573
G1 X151.885 Y143.349 E95.13317
G1 X151.651 Y143.115 E95.18204
G1 X151.463 Y142.87 E95.22764
G1 X151.343 Y142.585 E95.27331
G1 X151.3 Y142.266 E95.32084
G1 X151.3 Y92.734 E102.63548
G1 X151.34 Y92.427 E102.6812
G1 X151.457 Y92.141 E102.72683
G0 F6000 X152.14 Y92.561
G1 F1200 X152.217 Y92.451 E102.74666
G1 X152.451 Y92.217 E102.79553
G1 X152.602 Y92.123 E102.8218
G1 X152.734 Y92.1 E102.84158
G1 X181.493 Y92.1 E107.08857
G1 X181.62 Y92.113 E107.10742
G1 X181.975 Y92.19 E107.16106
G1 X182.222 Y92.308 E107.20149
G1 X182.508 Y92.539 E107.25578
G1 X182.67 Y92.742 E107.29413
G1 X182.816 Y93.044 E107.34367
G1 X182.896 Y93.447 E107.40434
G1 X182.899 Y93.492 E107.411
G1 X182.9 Y141.493 E114.49955
G1 X182.887 Y141.62 E114.5184
G1 X182.81 Y141.975 E114.57205
G1 X182.692 Y142.222 E114.61247
G1 X182.464 Y142.504 E114.66602
G1 X182.257 Y142.671 E114.7053
G1 X181.956 Y142.817 E114.7547
G1 X181.552 Y142.896 E114.81549
G1 X181.507 Y142.899 E114.82215
G1 X152.734 Y142.9 E119.07121
G1 X152.561 Y142.861 E119.0974
G1 X152.451 Y142.783 E119.11731
G1 X152.217 Y142.549 E119.16618
G1 X152.123 Y142.398 E119.19245
G1 X152.1 Y142.266 E119.21223
G1 X152.1 Y92.734 E126.52687
G1 X152.14 Y92.561 E126.55309
G1 F2700 E121.55309
G0 F6000 X151.936 Y92.358
G0 X146.099 Y58.467
G1 F2700 E126.55309
G1 F1200 X146.099 Y176.562 E143.99277
G1 X146.062 Y177.079 E144.06932
G1 X146.053 Y177.141 E144.07857
G1 X145.929 Y177.688 E144.16139
G1 X145.821 Y178.037 E144.21534
G1 X145.625 Y178.536 E144.29452
G1 X145.482 Y178.803 E144.33924
G1 X145.433 Y178.886 E144.35348
G1 X145.127 Y179.326 E144.43262
G1 X144.883 Y179.597 E144.48647
G1 X144.612 Y179.869 E144.54318
G1 X144.207 Y180.22 E144.62232
G1 X143.942 Y180.398 E144.66946
G1 X143.862 Y180.447 E144.68332
G1 X143.385 Y180.692 E144.76251
G1 X143.098 Y180.799 E144.80774
G1 X142.77 Y180.906 E144.85869
G1 X142.041 Y181.063 E144.96881
G1 X141.893 Y181.079 E144.99079
G1 X141.506 Y181.1 E145.04803
G1 X93.438 Y181.099 E152.14647
G1 X92.937 Y181.064 E152.22064
G1 X92.873 Y181.055 E152.23018
G1 X92.285 Y180.921 E152.31924
G1 X91.932 Y180.809 E152.37393
G1 X91.435 Y180.61 E152.45299
G1 X91.174 Y180.468 E152.49687
G1 X91.092 Y180.419 E152.51097
G1 X90.654 Y180.111 E152.59005
G1 X90.398 Y179.879 E152.64107
G1 X90.13 Y179.612 E152.69693
G1 X89.78 Y179.207 E152.77598
G1 X89.605 Y178.949 E152.82202
G1 X89.557 Y178.871 E152.83554
G1 X89.311 Y178.394 E152.9148
G1 X89.204 Y178.11 E152.95962
G1 X89.098 Y177.788 E153.00968
G1 X88.945 Y177.112 E153.11203
G1 X88.929 Y176.985 E153.13093
G1 X88.901 Y176.535 E153.19752
G1 X88.9 Y58.454 E170.63513
G1 X88.929 Y57.999 E170.70246
G1 X88.936 Y57.944 E170.71064
G1 X89.027 Y57.477 E170.78091
G1 X89.112 Y57.156 E170.82994
G1 X89.287 Y56.65 E170.90901
G1 X89.411 Y56.392 E170.95128
G1 X89.455 Y56.309 E170.96515
G1 X89.901 Y55.655 E171.08205
G1 X90.132 Y55.385 E171.13453
G1 X90.51 Y55.004 E171.21378
G1 X90.738 Y54.822 E171.25687
G1 X90.813 Y54.767 E171.2706
G1 X91.461 Y54.389 E171.38139
G1 X91.76 Y54.254 E171.42983
G1 X92.263 Y54.07 E171.50893
G1 X92.689 Y53.978 E171.57329
G1 X92.908 Y53.944 E171.60601
G1 X93.46 Y53.901 E171.68778
G1 X141.512 Y53.9 E178.78386
G1 X141.928 Y53.924 E178.84539
G1 X141.971 Y53.929 E178.85179
G1 X142.318 Y53.987 E178.90374
G1 X142.65 Y54.059 E178.95391
G1 X143.164 Y54.211 E179.03306
G1 X143.452 Y54.335 E179.07937
G1 X143.539 Y54.377 E179.09363
G1 X144.003 Y54.645 E179.17276
G1 X144.264 Y54.841 E179.22096
G1 X144.56 Y55.085 E179.27761
G1 X145.118 Y55.661 E179.39604
G1 X145.176 Y55.736 E179.41004
G1 X145.471 Y56.183 E179.48913
G1 X145.6 Y56.436 E179.53107
G1 X145.735 Y56.73 E179.57885
G1 X145.921 Y57.232 E179.6579
G1 X146.021 Y57.687 E179.7267
G1 X146.057 Y57.922 E179.76181
G1 X146.099 Y58.467 E179.84253
G0 F6000 X145.299 Y58.467
G1 F1200 X145.299 Y176.562 E197.28221
G1 X145.27 Y176.964 E197.34173
G1 X145.261 Y177.026 E197.35098
G1 X145.165 Y177.452 E197.41547
G1 X145.057 Y177.801 E197.46942
G1 X144.793 Y178.396 E197.56554
G1 X144.744 Y178.479 E197.57978
G1 X144.317 Y179.032 E197.68295
G1 X144.046 Y179.304 E197.73966
G1 X143.524 Y179.716 E197.83786
G1 X143.444 Y179.765 E197.85171
G1 X142.85 Y180.039 E197.94831
G1 X142.522 Y180.146 E197.99926
G1 X141.955 Y180.268 E198.08491
G1 X141.807 Y180.284 E198.1069
G1 X141.506 Y180.3 E198.15141
G1 X93.438 Y180.299 E205.24985
G1 X93.048 Y180.272 E205.30758
G1 X92.984 Y180.263 E205.31713
G1 X92.527 Y180.159 E205.38634
G1 X92.174 Y180.047 E205.44103
G1 X91.585 Y179.782 E205.53641
G1 X91.503 Y179.733 E205.55051
G1 X90.963 Y179.313 E205.65154
G1 X90.695 Y179.046 E205.70741
G1 X90.286 Y178.529 E205.80476
G1 X90.238 Y178.451 E205.81828
G1 X89.963 Y177.86 E205.91454
G1 X89.857 Y177.538 E205.9646
G1 X89.739 Y177.012 E206.04421
G1 X89.723 Y176.885 E206.06311
G1 X89.701 Y176.535 E206.1149
G1 X89.7 Y58.454 E223.55251
G1 X89.722 Y58.1 E223.60489
G1 X89.729 Y58.045 E223.61308
G1 X89.8 Y57.682 E223.6677
G1 X89.885 Y57.361 E223.71674
G1 X90.118 Y56.767 E223.81097
G1 X90.162 Y56.684 E223.82484
G1 X90.508 Y56.175 E223.91573
G1 X90.739 Y55.905 E223.9682
G1 X91.211 Y55.467 E224.06329
G1 X91.286 Y55.412 E224.07703
G1 X91.79 Y55.118 E224.16319
G1 X92.089 Y54.983 E224.21164
G1 X92.535 Y54.826 E224.28146
G1 X92.811 Y54.768 E224.32311
G1 X93.03 Y54.734 E224.35584
G1 X93.46 Y54.701 E224.41953
G1 X141.512 Y54.7 E231.51561
G1 X141.835 Y54.719 E231.56339
G1 X141.878 Y54.724 E231.56978
G1 X142.148 Y54.769 E231.6102
G1 X142.48 Y54.841 E231.66037
G1 X143.104 Y55.055 E231.75779
G1 X143.191 Y55.097 E231.77205
G1 X143.755 Y55.458 E231.87094
G1 X144.051 Y55.702 E231.92759
G1 X144.485 Y56.15 E232.0197
G1 X144.543 Y56.225 E232.0337
G1 X144.873 Y56.77 E232.12779
G1 X145.008 Y57.064 E232.17557
G1 X145.168 Y57.508 E232.24526
G1 X145.231 Y57.808 E232.29053
G1 X145.267 Y58.043 E232.32564
G1 X145.299 Y58.467 E232.38843
G0 F6000 X144.499 Y58.467
G1 F1200 X144.499 Y176.562 E249.82811
G1 X144.478 Y176.849 E249.87061
G1 X144.469 Y176.911 E249.87986
G1 X144.401 Y177.215 E249.92586
G1 X144.293 Y177.564 E249.97981
G1 X144.104 Y177.99 E250.04863
G1 X144.055 Y178.073 E250.06287
G1 X143.75 Y178.468 E250.13656
G1 X143.479 Y178.74 E250.19327
G1 X143.107 Y179.034 E250.26329
G1 X143.027 Y179.083 E250.27714
G1 X142.602 Y179.278 E250.34619
G1 X142.274 Y179.385 E250.39714
G1 X141.869 Y179.472 E250.45831
G1 X141.506 Y179.5 E250.51208
G1 X93.438 Y179.499 E257.61052
G1 X93.159 Y179.48 E257.65182
G1 X93.095 Y179.471 E257.66136
G1 X92.769 Y179.396 E257.71076
G1 X92.416 Y179.284 E257.76545
G1 X91.995 Y179.095 E257.8336
G1 X91.913 Y179.046 E257.84771
G1 X91.527 Y178.746 E257.9199
G1 X91.259 Y178.479 E257.97577
G1 X90.968 Y178.11 E258.04517
G1 X90.92 Y178.032 E258.05869
G1 X90.723 Y177.609 E258.1276
G1 X90.617 Y177.287 E258.17766
G1 X90.533 Y176.912 E258.23441
G1 X90.517 Y176.785 E258.25332
G1 X90.501 Y176.535 E258.29031
G1 X90.5 Y58.454 E275.72792
G1 X90.516 Y58.201 E275.76536
G1 X90.523 Y58.146 E275.77355
G1 X90.574 Y57.887 E275.81253
G1 X90.659 Y57.566 E275.86156
G1 X90.825 Y57.141 E275.92894
G1 X90.869 Y57.058 E275.94282
G1 X91.116 Y56.695 E276.00766
G1 X91.347 Y56.425 E276.06013
G1 X91.684 Y56.112 E276.12805
G1 X91.759 Y56.057 E276.14178
G1 X92.119 Y55.847 E276.20333
G1 X92.418 Y55.712 E276.25178
G1 X92.934 Y55.559 E276.33126
G1 X93.153 Y55.525 E276.36399
G1 X93.46 Y55.501 E276.40946
G1 X141.512 Y55.5 E283.50554
G1 X141.786 Y55.518 E283.54609
G1 X141.979 Y55.55 E283.57498
G1 X142.311 Y55.622 E283.62515
G1 X142.756 Y55.776 E283.69469
G1 X142.843 Y55.818 E283.70895
G1 X143.246 Y56.076 E283.77962
G1 X143.542 Y56.32 E283.83627
G1 X143.852 Y56.64 E283.90206
G1 X143.91 Y56.715 E283.91606
G1 X144.146 Y57.103 E283.98313
G1 X144.281 Y57.397 E284.0309
G1 X144.44 Y57.929 E284.1129
G1 X144.476 Y58.164 E284.14801
G1 X144.499 Y58.467 E284.19288
G0 F6000 X143.699 Y58.467
G1 F1200 X143.699 Y176.562 E301.63256
G1 X143.636 Y176.979 E301.69484
G1 X143.528 Y177.328 E301.74879
G1 X143.415 Y177.583 E301.78998
G1 X143.366 Y177.666 E301.80421
G1 X143.183 Y177.903 E301.84843
G1 X142.912 Y178.175 E301.90513
G1 X142.689 Y178.351 E301.94708
G1 X142.609 Y178.4 E301.96094
G1 X142.354 Y178.518 E302.00243
G1 X142.026 Y178.625 E302.05338
G1 X141.635 Y178.693 E302.11199
G1 X141.506 Y178.7 E302.13107
G1 X93.438 Y178.699 E309.22951
G1 X93.011 Y178.634 E309.29329
G1 X92.658 Y178.522 E309.34798
G1 X92.405 Y178.408 E309.38896
G1 X92.323 Y178.359 E309.40307
G1 X92.092 Y178.179 E309.44632
G1 X91.824 Y177.912 E309.50218
G1 X91.649 Y177.691 E309.54381
G1 X91.601 Y177.613 E309.55734
G1 X91.483 Y177.359 E309.59869
G1 X91.377 Y177.037 E309.64876
G1 X91.31 Y176.685 E309.70167
G1 X91.301 Y176.535 E309.72386
G1 X91.3 Y58.454 E327.16147
G1 X91.347 Y58.092 E327.21538
G1 X91.432 Y57.771 E327.26442
G1 X91.532 Y57.516 E327.30487
G1 X91.576 Y57.433 E327.31874
G1 X91.724 Y57.215 E327.35765
G1 X91.955 Y56.945 E327.41013
