;FLAVOR:Marlin
;TIME:1008
;Filament used: 2.44858m
;Layer height: 0.4
;MINX:88.4
;MINY:68.4
;MINZ:0.4
;MAXX:146.6
;MAXY:166.6
;MAXZ:1.2
;Generated with Cura_SteamEngine 4.11.0
M140 S70
M105
M190 S70
M104 S240
M105
M109 S240
M82 ;absolute extrusion mode
; Ender 3 Custom Start G-code
G92 E0 ; Reset Extruder
G28 ; Home all axes
G1 Z2.0 F3000 ; Move Z Axis up little to prevent scratching of Heat Bed
G1 X0.1 Y20 Z0.3 F5000.0 ; Move to start position
G1 X0.1 Y200.0 Z0.3 F1500.0 E15 ; Draw the first line
G1 X0.4 Y200.0 Z0.3 F5000.0 ; Move to side a little
G1 X0.4 Y20 Z0.3 F1500.0 E30 ; Draw the second line
G92 E0 ; Reset Extruder
G1 Z2.0 F3000 ; Move Z Axis up little to prevent scratching of Heat Bed
G1 X5 Y20 Z0.3 F5000.0 ; Move over to prevent blob squish
G92 E0
G92 E0
G1 F2700 E-5
;LAYER_COUNT:3
;LAYER:0
M107
G0 F6000 X89.022 Y69.978 Z0.4
;TYPE:SKIRT
G1 F2700 E0
G1 F900 X89.355 Y69.558 E0.07131
G1 X89.747 Y69.192 E0.14266
G1 X90.189 Y68.889 E0.21395
G1 X90.672 Y68.654 E0.28541
G1 X91.183 Y68.494 E0.35665
G1 X91.713 Y68.411 E0.42802
G1 X92 Y68.4 E0.46623
G1 X143 Y68.4 E7.2513
G1 X143.535 Y68.44 E7.32268
G1 X144.058 Y68.559 E7.39404
G1 X144.557 Y68.754 E7.46531
G1 X145.022 Y69.022 E7.53671
G1 X145.442 Y69.355 E7.60802
G1 X145.808 Y69.747 E7.67937
G1 X146.111 Y70.189 E7.75067
G1 X146.346 Y70.672 E7.82213
G1 X146.506 Y71.183 E7.89337
G1 X146.589 Y71.713 E7.96474
G1 X146.6 Y72 E8.00295
G1 X146.6 Y161.527 E19.91367
G1 X146.579 Y161.914 E19.96523
G1 X146.546 Y162.219 E20.00605
G1 X146.449 Y162.747 E20.07747
G1 X146.363 Y163.027 E20.11644
G1 X146.25 Y163.348 E20.16171
G1 X145.901 Y164.071 E20.26852
G1 X145.721 Y164.357 E20.31348
G1 X145.402 Y164.788 E20.38481
G1 X145.22 Y164.985 E20.4205
G1 X144.985 Y165.22 E20.46471
G1 X144.578 Y165.569 E20.53604
G1 X144.357 Y165.721 E20.57173
G1 X144.071 Y165.901 E20.61668
G1 X143.597 Y166.152 E20.68804
G1 X143.346 Y166.251 E20.72394
G1 X143.027 Y166.363 E20.76892
G1 X142.509 Y166.502 E20.84027
G1 X142.23 Y166.544 E20.87781
G1 X141.923 Y166.578 E20.9189
G1 X141.527 Y166.6 E20.97166
G1 X93.473 Y166.6 E27.3648
G1 X93.077 Y166.578 E27.41756
G1 X92.77 Y166.544 E27.45865
G1 X92.243 Y166.446 E27.52997
G1 X91.973 Y166.363 E27.56755
G1 X91.654 Y166.251 E27.61253
G1 X91.163 Y166.036 E27.68384
G1 X90.929 Y165.901 E27.71978
G1 X90.643 Y165.721 E27.76474
G1 X90.212 Y165.402 E27.83608
G1 X90.015 Y165.22 E27.87176
G1 X89.78 Y164.985 E27.91597
G1 X89.431 Y164.578 E27.9873
G1 X89.279 Y164.357 E28.02299
G1 X89.099 Y164.071 E28.06794
G1 X88.75 Y163.348 E28.17475
G1 X88.637 Y163.027 E28.22003
G1 X88.497 Y162.51 E28.29129
G1 X88.454 Y162.222 E28.33003
G1 X88.421 Y161.919 E28.37058
G1 X88.4 Y161.529 E28.42254
G1 X88.4 Y72 E40.33352
G1 X88.44 Y71.465 E40.4049
G1 X88.559 Y70.942 E40.47626
G1 X88.754 Y70.443 E40.54753
G1 X89.022 Y69.978 E40.61894
G0 F6000 X89.816 Y70.247
G1 F900 X90.142 Y69.905 E40.6818
G1 X90.521 Y69.622 E40.74472
G1 X90.943 Y69.407 E40.80773
G1 X91.394 Y69.266 E40.8706
G1 X92 Y69.2 E40.9517
G1 X143 Y69.2 E47.73677
G1 X143.471 Y69.24 E47.79965
G1 X143.929 Y69.359 E47.86261
G1 X144.36 Y69.553 E47.92549
G1 X144.753 Y69.816 E47.9884
G1 X145.095 Y70.142 E48.05126
G1 X145.378 Y70.521 E48.11419
G1 X145.593 Y70.943 E48.1772
G1 X145.734 Y71.394 E48.24007
G1 X145.8 Y72 E48.32117
G1 X145.8 Y161.527 E60.23189
G1 X145.784 Y161.828 E60.27199
G1 X145.751 Y162.133 E60.3128
G1 X145.608 Y162.762 E60.39862
G1 X145.495 Y163.083 E60.4439
G1 X145.224 Y163.644 E60.52678
G1 X145.044 Y163.93 E60.57174
G1 X144.654 Y164.419 E60.65495
G1 X144.419 Y164.654 E60.69917
G1 X143.93 Y165.044 E60.78238
G1 X143.644 Y165.224 E60.82734
G1 X143.081 Y165.496 E60.91053
G1 X142.762 Y165.608 E60.95551
G1 X142.142 Y165.749 E61.0401
G1 X141.835 Y165.783 E61.08119
G1 X141.527 Y165.8 E61.12223
G1 X93.473 Y165.8 E67.51536
G1 X93.165 Y165.783 E67.5564
G1 X92.858 Y165.749 E67.59749
G1 X92.238 Y165.608 E67.68208
G1 X91.919 Y165.496 E67.72706
G1 X91.356 Y165.224 E67.81025
G1 X91.07 Y165.044 E67.85521
G1 X90.581 Y164.654 E67.93842
G1 X90.346 Y164.419 E67.98264
G1 X89.956 Y163.93 E68.06585
G1 X89.776 Y163.644 E68.11081
G1 X89.505 Y163.083 E68.19369
G1 X89.392 Y162.762 E68.23897
G1 X89.249 Y162.135 E68.32453
G1 X89.216 Y161.832 E68.36508
G1 X89.2 Y161.529 E68.40545
G1 X89.2 Y72 E80.31643
G1 X89.24 Y71.529 E80.37932
G1 X89.359 Y71.071 E80.44228
G1 X89.553 Y70.64 E80.50516
G1 X89.816 Y70.247 E80.56807
G0 F6000 X90.35 Y70.87
G1 F900 X90.607 Y70.565 E80.62113
G1 X90.92 Y70.317 E80.67426
G1 X91.276 Y70.136 E80.72739
G1 X91.661 Y70.029 E80.78055
G1 X92 Y70 E80.82582
G1 X143 Y70 E87.61089
G1 X143.398 Y70.04 E87.6641
G1 X143.779 Y70.158 E87.71717
G1 X144.13 Y70.35 E87.77039
G1 X144.435 Y70.607 E87.82346
G1 X144.683 Y70.92 E87.87659
G1 X144.864 Y71.276 E87.92972
G1 X144.971 Y71.661 E87.98288
G1 X145 Y72 E88.02815
G1 X145 Y161.527 E99.93887
G1 X144.988 Y161.742 E99.96751
G1 X144.955 Y162.047 E100.00833
G1 X144.854 Y162.496 E100.06956
G1 X144.741 Y162.817 E100.11483
G1 X144.547 Y163.218 E100.1741
G1 X144.367 Y163.504 E100.21905
G1 X144.088 Y163.853 E100.2785
G1 X143.853 Y164.088 E100.32271
G1 X143.504 Y164.367 E100.38216
G1 X143.218 Y164.547 E100.42712
G1 X142.816 Y164.741 E100.4865
G1 X142.497 Y164.853 E100.53148
G1 X142.054 Y164.954 E100.59193
G1 X141.747 Y164.988 E100.63302
G1 X141.527 Y165 E100.66233
G1 X93.473 Y165 E107.05546
G1 X93.253 Y164.988 E107.08478
G1 X92.946 Y164.954 E107.12587
G1 X92.503 Y164.853 E107.18632
G1 X92.184 Y164.741 E107.2313
G1 X91.782 Y164.547 E107.29068
G1 X91.496 Y164.367 E107.33564
G1 X91.147 Y164.088 E107.39509
G1 X90.912 Y163.853 E107.4393
G1 X90.633 Y163.504 E107.49874
G1 X90.453 Y163.218 E107.5437
G1 X90.259 Y162.817 E107.60297
G1 X90.146 Y162.496 E107.64824
G1 X90.045 Y162.049 E107.70921
G1 X90.012 Y161.746 E107.74976
G1 X90 Y161.529 E107.77867
G1 X90 Y72 E119.68966
G1 X90.04 Y71.602 E119.74288
G1 X90.158 Y71.221 E119.79594
G1 X90.35 Y70.87 E119.84917
G0 F6000 X90.957 Y71.407
G1 F900 X91.143 Y71.16 E119.8903
G1 X91.386 Y70.969 E119.93142
G1 X91.67 Y70.846 E119.9726
G1 X92 Y70.8 E120.01693
G1 X143 Y70.8 E126.802
G1 X143.307 Y70.84 E126.84318
G1 X143.593 Y70.957 E126.88429
G1 X143.84 Y71.143 E126.92543
G1 X144.031 Y71.386 E126.96655
G1 X144.154 Y71.67 E127.00773
G1 X144.2 Y72 E127.05205
G1 X144.2 Y161.527 E138.96277
G1 X144.193 Y161.656 E138.97996
G1 X144.16 Y161.961 E139.02078
G1 X144.099 Y162.23 E139.05747
G1 X143.986 Y162.551 E139.10275
G1 X143.87 Y162.792 E139.13833
G1 X143.69 Y163.078 E139.18329
G1 X143.523 Y163.288 E139.21898
G1 X143.288 Y163.523 E139.2632
G1 X143.078 Y163.69 E139.2989
G1 X142.792 Y163.87 E139.34385
G1 X142.551 Y163.986 E139.37944
G1 X142.232 Y164.098 E139.42442
G1 X141.966 Y164.159 E139.46072
G1 X141.659 Y164.193 E139.50182
G1 X141.527 Y164.2 E139.5194
G1 X93.473 Y164.2 E145.91253
G1 X93.341 Y164.193 E145.93012
G1 X93.034 Y164.159 E145.97121
G1 X92.768 Y164.098 E146.00752
G1 X92.449 Y163.986 E146.0525
G1 X92.208 Y163.87 E146.08808
G1 X91.922 Y163.69 E146.13304
G1 X91.712 Y163.523 E146.16874
G1 X91.477 Y163.288 E146.21295
G1 X91.31 Y163.078 E146.24865
G1 X91.13 Y162.792 E146.29361
G1 X91.014 Y162.551 E146.32919
G1 X90.901 Y162.23 E146.37446
G1 X90.84 Y161.962 E146.41103
G1 X90.807 Y161.659 E146.45158
G1 X90.8 Y161.529 E146.4689
G1 X90.8 Y72 E158.37989
G1 X90.84 Y71.693 E158.42108
G1 X90.957 Y71.407 E158.46219
G0 F6000 X91.64 Y71.827
G1 F900 X91.75 Y71.688 E158.48577
G1 X92 Y71.6 E158.52103
G1 X143 Y71.6 E165.3061
G1 X143.173 Y71.64 E165.32972
G1 X143.312 Y71.75 E165.3533
G1 X143.4 Y72 E165.38856
G1 X143.4 Y161.527 E177.29928
G1 X143.398 Y161.57 E177.30501
G1 X143.365 Y161.875 E177.34583
G1 X143.344 Y161.965 E177.35812
G1 X143.231 Y162.286 E177.4034
G1 X143.193 Y162.366 E177.41518
G1 X143.013 Y162.652 E177.46014
G1 X142.957 Y162.722 E177.47206
G1 X142.722 Y162.957 E177.51628
G1 X142.652 Y163.013 E177.5282
G1 X142.366 Y163.193 E177.57316
G1 X142.286 Y163.231 E177.58495
G1 X141.967 Y163.343 E177.62992
G1 X141.878 Y163.364 E177.64209
G1 X141.571 Y163.398 E177.68318
G1 X141.527 Y163.4 E177.68904
G1 X93.473 Y163.4 E184.08217
G1 X93.429 Y163.398 E184.08803
G1 X93.122 Y163.364 E184.12913
G1 X93.033 Y163.343 E184.14129
G1 X92.714 Y163.231 E184.18627
G1 X92.634 Y163.193 E184.19806
G1 X92.348 Y163.013 E184.24301
G1 X92.278 Y162.957 E184.25494
G1 X92.043 Y162.722 E184.29915
G1 X91.987 Y162.652 E184.31108
G1 X91.807 Y162.366 E184.35604
G1 X91.769 Y162.286 E184.36782
G1 X91.656 Y161.965 E184.4131
G1 X91.635 Y161.875 E184.42539
G1 X91.602 Y161.572 E184.46594
G1 X91.6 Y161.529 E184.47167
G1 X91.6 Y72 E196.38265
G1 X91.64 Y71.827 E196.40628
G1 F2700 E191.40628
;MESH:enclosure_vizor.stl
G0 F6000 X93.314 Y73.314
G0 X141.63 Y73.4
G1 F2700 E196.40628
G0 F6000 X142.1 Y72.9
;TYPE:WALL-OUTER
G1 F900 X142.1 Y161.473 E208.19008
G1 X142.039 Y161.759 E208.22898
G1 X141.87 Y161.97 E208.26495
G1 X141.638 Y162.081 E208.29917
G1 X141.473 Y162.1 E208.32126
G1 X93.527 Y162.1 E214.70002
G1 X93.241 Y162.039 E214.73893
G1 X93.03 Y161.869 E214.77498
G1 X92.919 Y161.638 E214.80907
G1 X92.9 Y161.473 E214.83117
G1 X92.9 Y72.9 E226.61497
G1 X142.1 Y72.9 E233.16057
G0 F6000 X141.63 Y73.37
G0 X141.3 Y73.7
;TYPE:WALL-INNER
G1 F900 X141.3 Y161.3 E244.81492
G1 X93.7 Y161.3 E251.14765
G1 X93.7 Y73.7 E262.802
G1 X141.3 Y73.7 E269.13473
G1 F2700 E264.13473
G0 F6000 X140.89 Y138.18
G0 X118.18 Y138.18
;TYPE:SKIN
G1 F2700 E269.13473
G1 F900 X116.82 Y138.18 E269.31566
G1 X116.82 Y96.82 E274.81822
G1 X118.18 Y96.82 E274.99915
G1 X118.18 Y138.18 E280.50171
G0 F6000 X118.98 Y138.98
G1 F900 X116.02 Y138.98 E280.89551
G1 X116.02 Y96.02 E286.61093
G1 X118.98 Y96.02 E287.00473
G1 X118.98 Y138.98 E292.72015
G0 F6000 X119.78 Y139.78
G1 F900 X115.22 Y139.78 E293.32682
G1 X115.22 Y95.22 E299.25511
G1 X119.78 Y95.22 E299.86177
G1 X119.78 Y139.78 E305.79006
G0 F6000 X120.58 Y140.58
G1 F900 X114.42 Y140.58 E306.60959
G1 X114.42 Y94.42 E312.75074
G1 X120.58 Y94.42 E313.57027
G1 X120.58 Y140.58 E319.71142
G0 F6000 X121.38 Y141.38
G1 F900 X113.62 Y141.38 E320.74381
G1 X113.62 Y93.62 E327.09783
G1 X121.38 Y93.62 E328.13023
G1 X121.38 Y141.38 E334.48424
G0 F6000 X122.18 Y142.18
G1 F900 X112.82 Y142.18 E335.7295
G1 X112.82 Y92.82 E342.29638
G1 X122.18 Y92.82 E343.54164
G1 X122.18 Y142.18 E350.10852
G0 F6000 X122.98 Y142.98
G1 F900 X112.02 Y142.98 E351.56665
G1 X112.02 Y92.02 E358.34639
G1 X122.98 Y92.02 E359.80452
G1 X122.98 Y142.98 E366.58426
G0 F6000 X123.78 Y143.78
G1 F900 X111.22 Y143.78 E368.25525
G1 X111.22 Y91.22 E375.24786
G1 X123.78 Y91.22 E376.91885
G1 X123.78 Y143.78 E383.91146
G0 F6000 X124.58 Y144.58
G1 F900 X110.42 Y144.58 E385.79532
G1 X110.42 Y90.42 E393.00079
G1 X124.58 Y90.42 E394.88465
G1 X124.58 Y144.58 E402.09012
G0 F6000 X125.38 Y145.38
G1 F900 X109.62 Y145.38 E404.18684
G1 X109.62 Y89.62 E411.60518
G1 X125.38 Y89.62 E413.7019
G1 X125.38 Y145.38 E421.12024
G0 F6000 X126.18 Y146.18
G1 F900 X108.82 Y146.18 E423.42982
G1 X108.82 Y88.82 E431.06103
G1 X126.18 Y88.82 E433.37061
G1 X126.18 Y146.18 E441.00182
G0 F6000 X126.98 Y146.98
G1 F900 X108.02 Y146.98 E443.52427
G1 X108.02 Y88.02 E451.36834
G1 X126.98 Y88.02 E453.89079
G1 X126.98 Y146.98 E461.73486
G0 F6000 X127.78 Y147.78
G1 F900 X107.22 Y147.78 E464.47017
G1 X107.22 Y87.22 E472.52711
G1 X127.78 Y87.22 E475.26242
G1 X127.78 Y147.78 E483.31935
G0 F6000 X128.58 Y148.58
G1 F900 X106.42 Y148.58 E486.26753
G1 X106.42 Y86.42 E494.53733
G1 X128.58 Y86.42 E497.48551
G1 X128.58 Y148.58 E505.75531
G0 F6000 X129.38 Y149.38
G1 F900 X105.62 Y149.38 E508.91635
G1 X105.62 Y85.62 E517.39902
G1 X129.38 Y85.62 E520.56006
G1 X129.38 Y149.38 E529.04273
G0 F6000 X130.18 Y150.18
G1 F900 X104.82 Y150.18 E532.41664
G1 X104.82 Y84.82 E541.11216
G1 X130.18 Y84.82 E544.48607
G1 X130.18 Y150.18 E553.1816
G0 F6000 X130.98 Y150.98
G1 F900 X104.02 Y150.98 E556.76838
G1 X104.02 Y84.02 E565.67677
G1 X130.98 Y84.02 E569.26354
G1 X130.98 Y150.98 E578.17194
G0 F6000 X131.78 Y151.78
G1 F900 X103.22 Y151.78 E581.97158
G1 X103.22 Y83.22 E591.09284
G1 X131.78 Y83.22 E594.89247
G1 X131.78 Y151.78 E604.01373
G0 F6000 X132.58 Y152.58
G1 F900 X102.42 Y152.58 E608.02624
G1 X102.42 Y82.42 E617.36036
G1 X132.58 Y82.42 E621.37286
G1 X132.58 Y152.58 E630.70699
G0 F6000 X133.38 Y153.38
G1 F900 X101.62 Y153.38 E634.93235
G1 X101.62 Y81.62 E644.47934
G1 X133.38 Y81.62 E648.70471
G1 X133.38 Y153.38 E658.2517
G0 F6000 X134.18 Y154.18
G1 F900 X100.82 Y154.18 E662.68993
G1 X100.82 Y80.82 E672.44979
G1 X134.18 Y80.82 E676.88802
G1 X134.18 Y154.18 E686.64787
G0 F6000 X134.98 Y154.98
G1 F900 X100.02 Y154.98 E691.29897
G1 X100.02 Y80.02 E701.27169
G1 X134.98 Y80.02 E705.92279
G1 X134.98 Y154.98 E715.89551
G0 F6000 X135.78 Y155.78
G1 F900 X99.22 Y155.78 E720.75947
G1 X99.22 Y79.22 E730.94505
G1 X135.78 Y79.22 E735.80901
G1 X135.78 Y155.78 E745.9946
G0 F6000 X136.58 Y156.58
G1 F900 X98.42 Y156.58 E751.07142
G1 X98.42 Y78.42 E761.46987
G1 X136.58 Y78.42 E766.5467
G1 X136.58 Y156.58 E776.94515
G0 F6000 X137.38 Y157.38
G1 F900 X97.62 Y157.38 E782.23484
G1 X97.62 Y77.62 E792.84615
G1 X137.38 Y77.62 E798.13585
G1 X137.38 Y157.38 E808.74716
G0 F6000 X137.38 Y160.89
G0 X138.18 Y160.99
G0 X138.18 Y158.18
G1 F900 X96.82 Y158.18 E814.24972
G1 X96.82 Y76.82 E825.07389
G1 X138.18 Y76.82 E830.57645
G1 X138.18 Y158.18 E841.40063
G0 F6000 X138.18 Y160.99
G0 X138.98 Y160.99
G0 X138.98 Y158.98
G1 F900 X96.02 Y158.98 E847.11605
G1 X96.02 Y76.02 E858.15309
G1 X138.98 Y76.02 E863.86852
G1 X138.98 Y158.98 E874.90556
G0 F6000 X138.98 Y160.99
G0 X140.918 Y160.918
G0 X140.99 Y159.78
G0 X139.78 Y159.78
G1 F900 X95.22 Y159.78 E880.83385
G1 X95.22 Y75.22 E892.08375
G1 X139.78 Y75.22 E898.01204
G1 X139.78 Y159.78 E909.26195
G0 F6000 X140.99 Y159.78
G0 X140.99 Y160.58
G0 X140.58 Y160.58
G1 F900 X94.42 Y160.58 E915.4031
G1 X94.42 Y74.42 E926.86587
G1 X140.58 Y74.42 E933.00702
G1 X140.58 Y160.58 E944.4698
G0 F6000 X140.58 Y160.9
G1 F2700 E939.4698
;MESH:NONMESH
G0 F300 X140.58 Y160.9 Z0.8
G0 F6000 X140.58 Y160.99
G0 X140.918 Y160.918
G0 X141.3 Y73.7
;TIME_ELAPSED:486.302084
;LAYER:1
;TYPE:WALL-INNER
;MESH:enclosure_vizor.stl
G1 F2700 E944.4698
G1 F1200 X141.3 Y161.3 E956.12415
G1 X93.7 Y161.3 E962.45688
G1 X93.7 Y73.7 E974.11123
G1 X141.3 Y73.7 E980.44396
G0 F7500 X141.63 Y73.37
G0 X142.1 Y72.9
;TYPE:WALL-OUTER
G1 F1200 X142.1 Y161.473 E992.22776
G1 X142.039 Y161.759 E992.26666
G1 X141.87 Y161.97 E992.30263
G1 X141.638 Y162.081 E992.33685
G1 X141.473 Y162.1 E992.35894
G1 X93.527 Y162.1 E998.7377
G1 X93.241 Y162.039 E998.77661
G1 X93.03 Y161.869 E998.81266
G1 X92.919 Y161.638 E998.84675
G1 X92.9 Y161.473 E998.86885
G1 X92.9 Y72.9 E1010.65265
G1 X142.1 Y72.9 E1017.19825
G0 F7500 X141.63 Y73.37
G0 X140.51 Y74.01
G0 X140.51 Y74.49
;TYPE:SKIN
G1 F1200 X140.51 Y160.51 E1028.64239
G1 X94.49 Y160.51 E1034.76492
G1 X94.49 Y74.49 E1046.20907
G1 X140.51 Y74.49 E1052.33159
G1 F2700 E1047.33159
G0 F7500 X140.51 Y74.01
G0 X95.209 Y74.01
G1 F2700 E1052.33159
G0 F7500 X95.209 Y75.209
G1 F1200 X95.21 Y75.626 E1052.38707
G1 X95.626 Y75.209 E1052.46543
G0 F7500 X95.21 Y75.626
G1 F1200 X95.21 Y76.757 E1052.6159
G1 X96.758 Y75.209 E1052.90716
G1 X97.889 Y75.209 E1053.05762
G1 X95.21 Y77.889 E1053.56177
G1 X95.21 Y79.02 E1053.71223
G1 X99.021 Y75.209 E1054.42927
G1 X100.152 Y75.209 E1054.57973
G1 X95.21 Y80.151 E1055.50956
G1 X95.21 Y81.283 E1055.66016
G1 X101.283 Y75.209 E1056.80288
G1 X102.415 Y75.209 E1056.95348
G1 X95.21 Y82.414 E1058.30908
G1 X95.21 Y83.546 E1058.45969
G1 X103.546 Y75.209 E1060.02818
G1 X104.677 Y75.209 E1060.17865
G1 X95.21 Y84.677 E1061.95994
G1 X95.21 Y85.808 E1062.11041
G1 X105.809 Y75.209 E1064.10458
G1 X106.94 Y75.209 E1064.25505
G1 X95.21 Y86.94 E1066.46212
G1 X95.21 Y88.071 E1066.61259
G1 X108.072 Y75.209 E1069.03254
G1 X109.203 Y75.209 E1069.18301
G1 X95.21 Y89.202 E1071.81576
G1 X95.21 Y90.334 E1071.96637
G1 X110.334 Y75.209 E1074.81201
G1 X111.466 Y75.209 E1074.96261
G1 X95.21 Y91.465 E1078.02114
G1 X95.21 Y92.597 E1078.17174
G1 X112.597 Y75.209 E1081.44316
G1 X113.728 Y75.209 E1081.59363
G1 X95.21 Y93.728 E1085.07784
G1 X95.21 Y94.859 E1085.22831
G1 X114.86 Y75.209 E1088.92541
G1 X115.991 Y75.209 E1089.07588
G1 X95.21 Y95.991 E1092.98587
