;FLAVOR:Marlin
;TIME:1061
;Filament used: 0.488536m
;Layer height: 0.16
;MINX:89.7
;MINY:76.2
;MINZ:0.2
;MAXX:153.8
;MAXY:98.8
;MAXZ:1.88
;Generated with Cura_SteamEngine 4.8.0
M140 S70
M105
M190 S70
M104 S210
M105
M109 S210
M82 ;absolute extrusion mode
; Ender 3 Custom Start G-code
G92 E0 ; Reset Extruder
G28 ; Home all axes
G1 Z2.0 F3000 ; Move Z Axis up little to prevent scratching of Heat Bed
G1 X0.1 Y20 Z0.3 F5000.0 ; Move to start position
G1 X0.1 Y200.0 Z0.3 F1500.0 E15 ; Draw the first line
G1 X0.4 Y200.0 Z0.3 F5000.0 ; Move to side a little
G1 X0.4 Y20 Z0.3 F1500.0 E30 ; Draw the second line
G92 E0 ; Reset Extruder
G1 Z2.0 F3000 ; Move Z Axis up little to prevent scratching of Heat Bed
G1 X5 Y20 Z0.3 F5000.0 ; Move over to prevent blob squish
G92 E0
G92 E0
G1 F2700 E-5
;LAYER_COUNT:11
;LAYER:0
M107
;MESH:EnclosureDCCap.stl
G0 F3000 X104.5 Y92.5 Z0.2
;TYPE:WALL-INNER
G1 F2700 E0
G1 F1200 X90.5 Y92.5 E0.55877
G1 X90.5 Y82.5 E0.95789
G1 X91.248 Y82.5 E0.98775
G1 X91.248 Y85.502 E1.10756
G1 X103.753 Y85.502 E1.60666
G1 X103.753 Y82.5 E1.72648
G1 X104.5 Y82.5 E1.75629
G1 X104.5 Y92.5 E2.15542
G0 F3000 X104.9 Y92.9
G1 F1200 X90.1 Y92.9 E2.74612
G1 X90.1 Y82.1 E3.17717
G1 X91.648 Y82.1 E3.23895
G1 X91.648 Y85.102 E3.35877
G1 X103.353 Y85.102 E3.82594
G1 X103.353 Y82.1 E3.94576
G1 X104.9 Y82.1 E4.0075
G1 X104.9 Y92.9 E4.43855
G0 F3000 X105.3 Y93.3
;TYPE:WALL-OUTER
G1 F1200 X89.7 Y93.3 E5.06118
G1 X89.7 Y81.7 E5.52416
G1 X92.048 Y81.7 E5.61788
G1 X92.048 Y84.702 E5.73769
G1 X102.953 Y84.702 E6.17293
G1 X102.953 Y81.7 E6.29275
G1 X105.3 Y81.7 E6.38642
G1 X105.3 Y93.3 E6.84941
G0 F3000 X105.03 Y93.03
G0 X104.39 Y92.11
G0 X104.11 Y92.11
;TYPE:SKIN
G1 F1200 X90.89 Y92.11 E7.37704
G1 X90.89 Y85.892 E7.62522
G1 X104.11 Y85.892 E8.15286
G1 X104.11 Y92.11 E8.40103
G0 F3000 X104.39 Y92.11
G0 X104.39 Y86.413
G0 X103.949 Y86.413
G1 F1200 X103.588 Y86.052 E8.42141
G0 F3000 X103.022 Y86.052
G1 F1200 X103.949 Y86.979 E8.47373
G0 F3000 X103.949 Y87.544
G1 F1200 X102.456 Y86.052 E8.55797
G0 F3000 X101.891 Y86.052
G1 F1200 X103.949 Y88.11 E8.67414
G0 F3000 X103.949 Y88.676
G1 F1200 X101.325 Y86.052 E8.82225
G0 F3000 X100.759 Y86.052
G1 F1200 X103.949 Y89.241 E9.00228
G0 F3000 X103.949 Y89.807
G1 F1200 X100.194 Y86.052 E9.21422
G0 F3000 X99.628 Y86.052
G1 F1200 X103.949 Y90.373 E9.45812
G0 F3000 X103.949 Y90.938
G1 F1200 X99.062 Y86.052 E9.73394
G0 F3000 X98.497 Y86.052
G1 F1200 X103.949 Y91.504 E10.04167
G0 F3000 X103.828 Y91.949
G1 F1200 X97.931 Y86.052 E10.37452
G0 F3000 X97.365 Y86.052
G1 F1200 X103.263 Y91.949 E10.7074
G0 F3000 X102.697 Y91.949
G1 F1200 X96.8 Y86.052 E11.04025
G0 F3000 X96.234 Y86.052
G1 F1200 X102.131 Y91.949 E11.37311
G0 F3000 X101.565 Y91.949
G1 F1200 X95.668 Y86.052 E11.70596
G0 F3000 X95.103 Y86.052
G1 F1200 X101 Y91.949 E12.03881
G0 F3000 X100.434 Y91.949
G1 F1200 X94.537 Y86.052 E12.37166
G0 F3000 X93.971 Y86.052
G1 F1200 X99.868 Y91.949 E12.70452
G0 F3000 X99.303 Y91.949
G1 F1200 X93.405 Y86.052 E13.0374
G0 F3000 X92.84 Y86.052
G1 F1200 X98.737 Y91.949 E13.37025
G0 F3000 X98.171 Y91.949
G1 F1200 X92.274 Y86.052 E13.7031
G0 F3000 X91.708 Y86.052
G1 F1200 X97.606 Y91.949 E14.03598
G0 F3000 X97.04 Y91.949
G1 F1200 X91.143 Y86.052 E14.36883
G0 F3000 X91.049 Y86.524
G1 F1200 X96.474 Y91.949 E14.67504
G0 F3000 X95.909 Y91.949
G1 F1200 X91.049 Y87.09 E14.94933
G0 F3000 X91.049 Y87.655
G1 F1200 X95.343 Y91.949 E15.19171
G0 F3000 X94.777 Y91.949
G1 F1200 X91.049 Y88.221 E15.40213
G0 F3000 X91.049 Y88.787
G1 F1200 X94.212 Y91.949 E15.58064
G0 F3000 X93.646 Y91.949
G1 F1200 X91.049 Y89.352 E15.72722
G0 F3000 X91.049 Y89.918
G1 F1200 X93.08 Y91.949 E15.84186
G0 F3000 X92.515 Y91.949
G1 F1200 X91.049 Y90.484 E15.92458
G0 F3000 X91.049 Y91.049
G1 F1200 X91.949 Y91.949 E15.97538
G0 F3000 X91.383 Y91.949
G1 F1200 X91.049 Y91.615 E15.99423
G0 F3000 X90.61 Y91.615
G0 X90.682 Y82.682
G0 X91.066 Y82.682
G0 X91.087 Y85.612
G0 X91.087 Y85.713
;TYPE:SKIN
G1 F1200 X90.658 Y85.284 E16.00634
G0 F3000 X90.658 Y85.002
G1 F1200 X91.087 Y85.43 E16.01843
G0 F3000 X91.087 Y85.147
G1 F1200 X90.658 Y84.719 E16.03053
G0 F3000 X90.658 Y84.436
G1 F1200 X91.087 Y84.864 E16.04262
G0 F3000 X91.087 Y84.581
G1 F1200 X90.658 Y84.153 E16.05471
G0 F3000 X90.658 Y83.87
G1 F1200 X91.087 Y84.299 E16.06682
G0 F3000 X91.087 Y84.016
G1 F1200 X90.658 Y83.587 E16.07893
G0 F3000 X90.658 Y83.304
G1 F1200 X91.087 Y83.733 E16.09103
G0 F3000 X91.087 Y83.45
G1 F1200 X90.658 Y83.022 E16.10313
G0 F3000 X90.658 Y82.739
G1 F1200 X91.087 Y83.167 E16.11522
G0 F3000 X91.087 Y82.884
G1 F1200 X90.862 Y82.66 E16.12156
G0 F3000 X90.862 Y82.61
G0 X90.61 Y85.567
G0 X90.658 Y85.567
G1 F1200 X90.808 Y85.716 E16.12578
G0 F3000 X90.61 Y85.716
G0 X90.682 Y82.682
G0 X91.066 Y82.682
G0 X91.074 Y85.132
G0 X103.863 Y85.527
G0 X103.912 Y85.527
G1 F1200 X104.101 Y85.716 E16.13111
G0 F3000 X104.339 Y85.671
G1 F1200 X103.912 Y85.244 E16.14316
G0 F3000 X103.912 Y84.961
G1 F1200 X104.339 Y85.388 E16.15521
G0 F3000 X104.339 Y85.105
G1 F1200 X103.912 Y84.678 E16.16726
G0 F3000 X103.912 Y84.396
G1 F1200 X104.339 Y84.823 E16.17931
G0 F3000 X104.339 Y84.54
G1 F1200 X103.912 Y84.113 E16.19136
G0 F3000 X103.912 Y83.83
G1 F1200 X104.339 Y84.257 E16.20341
G0 F3000 X104.339 Y83.974
G1 F1200 X103.912 Y83.547 E16.21547
G0 F3000 X103.912 Y83.264
G1 F1200 X104.339 Y83.691 E16.22752
G0 F3000 X104.339 Y83.408
G1 F1200 X103.912 Y82.981 E16.23957
G0 F3000 X103.912 Y82.698
G1 F1200 X104.339 Y83.126 E16.25163
G0 F3000 X104.339 Y82.843
G1 F1200 X104.156 Y82.66 E16.2568
G0 F3000 X104.156 Y82.31
G1 F2700 E11.2568
;MESH:EnclosureACCap.stl
G0 F3000 X105.086 Y81.914
G0 X106.165 Y81.914
G0 X120.335 Y81.914
G0 X121.42 Y81.914
G0 X122.191 Y81.484
G0 X127.773 Y84.007
G0 X137.5 Y78.989
G0 X142.365 Y81.296
;TYPE:WALL-INNER
G1 F2700 E16.2568
G1 F1200 X137.5 Y78.325 E16.48431
G1 X132.635 Y81.296 E16.71183
G1 X127.773 Y78.325 E16.93925
G1 X122.858 Y81.329 E17.16915
G1 X122.58 Y81.498 E17.18214
G1 X122.858 Y81.667 E17.18957
G1 X127.467 Y84.484 E17.40516
G1 X127.467 Y84.514 E17.40636
G1 X122.58 Y87.5 E17.63494
G1 X127.467 Y90.486 E17.86352
G1 X127.467 Y90.516 E17.86471
G1 X122.858 Y93.333 E18.08031
G1 X122.58 Y93.502 E18.09329
G1 X122.858 Y93.671 E18.10072
G1 X127.773 Y96.674 E18.33061
G1 X132.635 Y93.704 E18.558
G1 X137.5 Y96.674 E18.7855
G1 X142.365 Y93.704 E19.013
G1 X147.227 Y96.674 E19.24039
G1 X152.145 Y93.671 E19.47038
G1 X152.423 Y93.502 E19.48336
G1 X152.145 Y93.333 E19.49079
G1 X147.533 Y90.516 E19.70649
G1 X147.533 Y90.486 E19.70769
G1 X152.423 Y87.5 E19.93637
G1 X147.533 Y84.514 E20.16505
G1 X147.533 Y84.484 E20.16625
G1 X152.145 Y81.667 E20.38194
G1 X152.423 Y81.498 E20.39493
G1 X152.145 Y81.329 E20.40236
G1 X147.227 Y78.325 E20.63237
G1 X142.365 Y81.296 E20.85978
G0 F3000 X142.801 Y81.498
G1 F1200 X143.079 Y81.667 E20.87277
G1 X147.227 Y84.202 E21.06679
G1 X151.377 Y81.667 E21.26088
G1 X151.655 Y81.498 E21.27387
G1 X151.377 Y81.329 E21.2813
G1 X147.227 Y78.794 E21.47539
G1 X143.079 Y81.329 E21.66942
G1 X142.801 Y81.498 E21.67685
G0 F3000 X143.568 Y81.498
;TYPE:WALL-OUTER
G1 F1200 X147.227 Y83.733 E21.84798
G1 X150.887 Y81.498 E22.01914
G1 X147.227 Y79.263 E22.1903
G1 X143.568 Y81.498 E22.36143
G0 F3000 X143.411 Y81.753
G0 X139.66 Y82.68
G0 X137.5 Y84.007
G0 X133.416 Y81.498
G0 X133.35 Y81.329
;TYPE:WALL-INNER
G1 F1200 X133.072 Y81.498 E22.37441
G1 X133.35 Y81.667 E22.38184
G1 X137.5 Y84.202 E22.57594
G1 X141.65 Y81.667 E22.77003
G1 X141.928 Y81.498 E22.78301
G1 X141.65 Y81.329 E22.79044
G1 X137.5 Y78.794 E22.98454
G1 X133.35 Y81.329 E23.17863
G0 F3000 X133.84 Y81.498
;TYPE:WALL-OUTER
G1 F1200 X137.5 Y83.733 E23.34979
G1 X141.16 Y81.498 E23.52095
G1 X137.5 Y79.263 E23.69211
G1 X133.84 Y81.498 E23.86328
G0 F3000 X133.683 Y81.753
G0 X129.933 Y82.679
G0 X127.773 Y84.007
G0 X123.69 Y81.498
G0 X123.625 Y81.329
;TYPE:WALL-INNER
G1 F1200 X123.347 Y81.498 E23.87626
G1 X123.625 Y81.667 E23.88369
G1 X127.773 Y84.202 E24.07772
G1 X131.921 Y81.667 E24.27174
G1 X132.199 Y81.498 E24.28473
G1 X131.921 Y81.329 E24.29216
G1 X127.773 Y78.794 E24.48618
G1 X123.625 Y81.329 E24.68021
G0 F3000 X124.114 Y81.498
;TYPE:WALL-OUTER
G1 F1200 X127.773 Y83.733 E24.85133
G1 X131.432 Y81.498 E25.02246
G1 X127.773 Y79.263 E25.19359
G1 X124.114 Y81.498 E25.36472
G0 F3000 X123.957 Y81.753
G0 X127.13 Y84.499
G0 X123.625 Y87.331
;TYPE:WALL-INNER
G1 F1200 X123.347 Y87.5 E25.3777
G1 X123.625 Y87.669 E25.38513
G1 X127.773 Y90.204 E25.57916
G1 X131.921 Y87.669 E25.77318
G1 X132.199 Y87.5 E25.78617
G1 X131.921 Y87.331 E25.7936
G1 X127.773 Y84.796 E25.98762
G1 X123.625 Y87.331 E26.18165
G0 F3000 X124.114 Y87.5
;TYPE:WALL-OUTER
G1 F1200 X127.773 Y89.735 E26.35277
G1 X131.432 Y87.5 E26.5239
G1 X127.773 Y85.265 E26.69503
G1 X124.114 Y87.5 E26.86616
G0 F3000 X123.957 Y87.755
G0 X123.69 Y87.5
G0 X128.488 Y84.33
;TYPE:WALL-INNER
G1 F1200 X128.21 Y84.499 E26.87914
G1 X128.488 Y84.668 E26.88657
G1 X132.636 Y87.203 E27.0806
G1 X136.786 Y84.668 E27.27469
G1 X137.064 Y84.499 E27.28767
G1 X136.786 Y84.33 E27.29511
G1 X132.636 Y81.795 E27.4892
G1 X128.488 Y84.33 E27.68322
G0 F3000 X128.977 Y84.499
;TYPE:WALL-OUTER
G1 F1200 X132.636 Y86.734 E27.85435
G1 X136.296 Y84.499 E28.02551
G1 X132.636 Y82.264 E28.19667
G1 X128.977 Y84.499 E28.3678
G0 F3000 X128.82 Y84.754
G0 X132.254 Y86.782
G0 X133.35 Y87.331
;TYPE:WALL-INNER
G1 F1200 X133.072 Y87.5 E28.38079
G1 X133.35 Y87.669 E28.38822
G1 X137.5 Y90.204 E28.58231
G1 X141.65 Y87.669 E28.7764
G1 X141.928 Y87.5 E28.78939
G1 X141.65 Y87.331 E28.79682
G1 X137.5 Y84.796 E28.99091
G1 X133.35 Y87.331 E29.185
G0 F3000 X133.84 Y87.5
;TYPE:WALL-OUTER
G1 F1200 X137.5 Y89.735 E29.35617
G1 X141.16 Y87.5 E29.52733
G1 X137.5 Y85.265 E29.69849
G1 X133.84 Y87.5 E29.86965
G0 F3000 X133.683 Y87.755
G0 X133.416 Y87.5
G0 X138.214 Y84.33
;TYPE:WALL-INNER
G1 F1200 X137.936 Y84.499 E29.88263
G1 X138.214 Y84.668 E29.89007
G1 X142.364 Y87.203 E30.08416
G1 X146.512 Y84.668 E30.27818
G1 X146.79 Y84.499 E30.29117
G1 X146.512 Y84.33 E30.2986
G1 X142.364 Y81.795 E30.49262
G1 X138.214 Y84.33 E30.68672
G0 F3000 X138.704 Y84.499
;TYPE:WALL-OUTER
G1 F1200 X142.364 Y86.734 E30.85788
G1 X146.023 Y84.499 E31.02901
G1 X142.364 Y82.264 E31.20013
G1 X138.704 Y84.499 E31.37129
G0 F3000 X138.547 Y84.754
G0 X141.982 Y86.782
G0 X143.079 Y87.331
;TYPE:WALL-INNER
G1 F1200 X142.801 Y87.5 E31.38428
G1 X143.079 Y87.669 E31.39171
G1 X147.227 Y90.204 E31.58574
G1 X151.377 Y87.669 E31.77983
G1 X151.655 Y87.5 E31.79281
G1 X151.377 Y87.331 E31.80024
G1 X147.227 Y84.796 E31.99434
G1 X143.079 Y87.331 E32.18836
G0 F3000 X143.568 Y87.5
;TYPE:WALL-OUTER
G1 F1200 X147.227 Y89.735 E32.35949
G1 X150.887 Y87.5 E32.53065
G1 X147.227 Y85.265 E32.70181
G1 X143.568 Y87.5 E32.87294
G0 F3000 X143.411 Y87.755
G0 X146.447 Y90.501
G0 X143.079 Y93.333
;TYPE:WALL-INNER
G1 F1200 X142.801 Y93.502 E32.88592
G1 X143.079 Y93.671 E32.89336
G1 X147.227 Y96.205 E33.08736
G1 X151.377 Y93.671 E33.28143
G1 X151.655 Y93.502 E33.29442
G1 X151.377 Y93.333 E33.30185
G1 X147.227 Y90.798 E33.49594
G1 X143.079 Y93.333 E33.68996
G0 F3000 X143.568 Y93.502
;TYPE:WALL-OUTER
G1 F1200 X147.227 Y95.736 E33.86107
G1 X150.887 Y93.502 E34.03221
G1 X147.227 Y91.267 E34.20337
G1 X143.568 Y93.502 E34.3745
G0 F3000 X143.411 Y93.757
G0 X138.28 Y90.501
G0 X138.214 Y90.332
;TYPE:WALL-INNER
G1 F1200 X137.936 Y90.501 E34.38749
G1 X138.214 Y90.67 E34.39492
G1 X142.364 Y93.205 E34.58901
G1 X146.512 Y90.67 E34.78303
G1 X146.79 Y90.501 E34.79602
G1 X146.512 Y90.332 E34.80345
G1 X142.364 Y87.797 E34.99748
G1 X138.214 Y90.332 E35.19157
G0 F3000 X138.704 Y90.501
;TYPE:WALL-OUTER
G1 F1200 X142.364 Y92.736 E35.36273
G1 X146.023 Y90.501 E35.53386
G1 X142.364 Y88.266 E35.70498
G1 X138.704 Y90.501 E35.87615
G0 F3000 X138.547 Y90.756
G0 X137.605 Y90.969
G0 X133.35 Y93.333
;TYPE:WALL-INNER
G1 F1200 X133.072 Y93.502 E35.88913
G1 X133.35 Y93.671 E35.89656
G1 X137.5 Y96.205 E36.09063
G1 X141.65 Y93.671 E36.28471
G1 X141.928 Y93.502 E36.29769
G1 X141.65 Y93.333 E36.30512
G1 X137.5 Y90.798 E36.49921
G1 X133.35 Y93.333 E36.69331
G0 F3000 X133.84 Y93.502
;TYPE:WALL-OUTER
G1 F1200 X137.5 Y95.736 E36.86445
G1 X141.16 Y93.502 E37.03559
G1 X137.5 Y91.267 E37.20675
G1 X133.84 Y93.502 E37.37791
G0 F3000 X133.683 Y93.757
G0 X128.553 Y90.501
G0 X128.488 Y90.332
;TYPE:WALL-INNER
G1 F1200 X128.21 Y90.501 E37.3909
G1 X128.488 Y90.67 E37.39833
G1 X132.636 Y93.205 E37.59235
G1 X136.786 Y90.67 E37.78644
G1 X137.064 Y90.501 E37.79943
G1 X136.786 Y90.332 E37.80686
G1 X132.636 Y87.797 E38.00095
G1 X128.488 Y90.332 E38.19498
G0 F3000 X128.977 Y90.501
;TYPE:WALL-OUTER
G1 F1200 X132.636 Y92.736 E38.36611
G1 X136.296 Y90.501 E38.53727
G1 X132.636 Y88.266 E38.70843
G1 X128.977 Y90.501 E38.87956
G0 F3000 X128.82 Y90.756
G0 X127.878 Y90.969
G0 X123.625 Y93.333
;TYPE:WALL-INNER
G1 F1200 X123.347 Y93.502 E38.89254
G1 X123.625 Y93.671 E38.89997
G1 X127.773 Y96.205 E39.09398
G1 X131.921 Y93.671 E39.28798
G1 X132.199 Y93.502 E39.30096
G1 X131.921 Y93.333 E39.3084
G1 X127.773 Y90.798 E39.50242
G1 X123.625 Y93.333 E39.69645
G0 F3000 X124.114 Y93.502
;TYPE:WALL-OUTER
G1 F1200 X127.773 Y95.736 E39.86755
G1 X131.432 Y93.502 E40.03866
G1 X127.773 Y91.267 E40.20979
G1 X124.114 Y93.502 E40.38091
G0 F3000 X123.957 Y93.757
G0 X122.191 Y93.488
G0 X122 Y98
;TYPE:WALL-INNER
G1 F1200 X122 Y77 E41.21907
G1 X153 Y77 E42.45635
G1 X153 Y98 E43.2945
G1 X122 Y98 E44.53178
G0 F3000 X121.6 Y98.4
G1 F1200 X121.6 Y76.6 E45.40186
G1 X153.4 Y76.6 E46.67107
G1 X153.4 Y98.4 E47.54115
G1 X121.6 Y98.4 E48.81036
G0 F3000 X121.2 Y98.8
;TYPE:WALL-OUTER
G1 F1200 X121.2 Y76.2 E49.71238
G1 X153.8 Y76.2 E51.01351
G1 X153.8 Y98.8 E51.91553
G1 X121.2 Y98.8 E53.21666
G0 F3000 X121.47 Y98.53
G0 X122.11 Y97.61
G0 X122.39 Y97.61
;TYPE:SKIN
G1 F1200 X122.39 Y93.843 E53.36701
G1 X127.773 Y97.131 E53.61877
G1 X132.635 Y94.16 E53.84618
G1 X137.5 Y97.131 E54.0737
G1 X142.365 Y94.16 E54.30122
G1 X147.227 Y97.131 E54.52863
G1 X152.61 Y93.844 E54.78037
G1 X152.61 Y97.61 E54.93068
G1 X122.39 Y97.61 E56.13682
G0 F3000 X122.905 Y97.449
G1 F1200 X122.549 Y97.093 E56.15692
G0 F3000 X122.549 Y96.527
G1 F1200 X123.471 Y97.449 E56.20896
G0 F3000 X124.037 Y97.449
G1 F1200 X122.549 Y95.962 E56.29292
G0 F3000 X122.549 Y95.396
G1 F1200 X124.602 Y97.449 E56.4088
G0 F3000 X125.168 Y97.449
G1 F1200 X122.549 Y94.83 E56.55663
G0 F3000 X122.549 Y94.265
G1 F1200 X125.734 Y97.449 E56.73637
G0 F3000 X126.299 Y97.449
G1 F1200 X123.653 Y94.803 E56.88573
G0 F3000 X123.883 Y94.427
G0 X125.336 Y95.315
G0 X125.106 Y95.691
G1 F1200 X126.865 Y97.449 E56.98498
G0 F3000 X127.431 Y97.449
G1 F1200 X126.559 Y96.578 E57.03417
G0 F3000 X126.789 Y96.203
G0 X127.773 Y96.82
G0 X127.83 Y97.283
G1 F1200 X127.996 Y97.449 E57.04354
G0 F3000 X128.181 Y97.068
G1 F1200 X128.562 Y97.449 E57.06505
G0 F3000 X129.128 Y97.449
G1 F1200 X128.532 Y96.854 E57.09866
G0 F3000 X128.883 Y96.639
G1 F1200 X129.693 Y97.449 E57.14438
G0 F3000 X130.259 Y97.449
G1 F1200 X129.235 Y96.425 E57.20218
G0 F3000 X129.586 Y96.211
G1 F1200 X130.825 Y97.449 E57.27209
G0 F3000 X131.391 Y97.449
G1 F1200 X129.937 Y95.996 E57.35413
G0 F3000 X130.288 Y95.781
G1 F1200 X131.956 Y97.449 E57.44828
G0 F3000 X132.522 Y97.449
G1 F1200 X130.64 Y95.567 E57.55451
G0 F3000 X130.99 Y95.352
G1 F1200 X133.088 Y97.449 E57.6729
G0 F3000 X133.653 Y97.449
G1 F1200 X131.342 Y95.138 E57.80334
G0 F3000 X131.693 Y94.924
G1 F1200 X134.219 Y97.449 E57.94589
G0 F3000 X134.785 Y97.449
G1 F1200 X132.044 Y94.709 E58.10058
G0 F3000 X132.395 Y94.494
G1 F1200 X135.35 Y97.449 E58.26737
G0 F3000 X135.916 Y97.449
G1 F1200 X133.099 Y94.632 E58.42637
G0 F3000 X133.329 Y94.257
G0 X134.781 Y95.143
G0 X134.551 Y95.518
G1 F1200 X136.482 Y97.449 E58.53537
G0 F3000 X137.047 Y97.449
G1 F1200 X136.003 Y96.405 E58.5943
G0 F3000 X136.233 Y96.03
G0 X137.5 Y96.82
G0 X137.455 Y97.292
G1 F1200 X137.613 Y97.449 E58.60319
G0 F3000 X137.839 Y97.11
G1 F1200 X138.179 Y97.449 E58.62235
G0 F3000 X138.191 Y96.896
G1 F1200 X138.744 Y97.449 E58.65356
G0 F3000 X139.31 Y97.449
G1 F1200 X138.542 Y96.682 E58.69688
G0 F3000 X138.894 Y96.467
G1 F1200 X139.876 Y97.449 E58.75231
G0 F3000 X140.442 Y97.449
G1 F1200 X139.244 Y96.252 E58.8199
