;FLAVOR:Marlin
;TIME:5309
;Filament used: 2.50531m
;Layer height: 0.16
;MINX:87.173
;MINY:60.673
;MINZ:0.2
;MAXX:147.827
;MAXY:174.328
;MAXZ:2.92
;Generated with Cura_SteamEngine 4.8.0
M140 S70
M105
M190 S70
M104 S210
M105
M109 S210
M82 ;absolute extrusion mode
; Ender 3 Custom Start G-code
G92 E0 ; Reset Extruder
G28 ; Home all axes
G1 Z2.0 F3000 ; Move Z Axis up little to prevent scratching of Heat Bed
G1 X0.1 Y20 Z0.3 F5000.0 ; Move to start position
G1 X0.1 Y200.0 Z0.3 F1500.0 E15 ; Draw the first line
G1 X0.4 Y200.0 Z0.3 F5000.0 ; Move to side a little
G1 X0.4 Y20 Z0.3 F1500.0 E30 ; Draw the second line
G92 E0 ; Reset Extruder
G1 Z2.0 F3000 ; Move Z Axis up little to prevent scratching of Heat Bed
G1 X5 Y20 Z0.3 F5000.0 ; Move over to prevent blob squish
G92 E0
G92 E0
G1 F2700 E-5
;LAYER_COUNT:18
;LAYER:0
M107
G0 F3000 X89.935 Y66.232 Z0.2
;TYPE:SKIRT
G1 F2700 E0
G1 F1200 X90.084 Y66.035 E0.00986
G1 X90.914 Y65.061 E0.06093
G1 X91.097 Y64.87 E0.07149
G1 X91.853 Y64.152 E0.1131
G1 X92.072 Y63.963 E0.12465
G1 X93.112 Y63.169 E0.17687
G1 X93.48 Y62.921 E0.19458
G1 X94.279 Y62.431 E0.23199
G1 X94.727 Y62.195 E0.2522
G1 X94.93 Y62.094 E0.26125
G1 X95.949 Y61.649 E0.30563
G1 X96.315 Y61.511 E0.32124
G1 X97.594 Y61.116 E0.37467
G1 X97.898 Y61.042 E0.38716
G1 X99.187 Y60.809 E0.43944
G1 X99.528 Y60.768 E0.45315
G1 X100.662 Y60.69 E0.49851
G1 X101.643 Y60.674 E0.53767
G1 X133.293 Y60.673 E1.80089
G1 X134.178 Y60.684 E1.83622
G1 X134.739 Y60.706 E1.85863
G1 X135.017 Y60.724 E1.86974
G1 X136.093 Y60.847 E1.91297
G1 X136.342 Y60.888 E1.92304
G1 X137.506 Y61.145 E1.97062
G1 X137.919 Y61.26 E1.98773
G1 X139.235 Y61.718 E2.04334
G1 X139.456 Y61.811 E2.05291
G1 X140.558 Y62.349 E2.10186
G1 X140.921 Y62.552 E2.11846
G1 X141.654 Y63 E2.15275
G1 X141.72 Y63.044 E2.15591
G1 X142.277 Y63.442 E2.18323
G1 X142.49 Y63.604 E2.19392
G1 X143.425 Y64.401 E2.24295
G1 X143.6 Y64.568 E2.25261
G1 X144.3 Y65.3 E2.29303
G1 X144.503 Y65.533 E2.30536
G1 X145.339 Y66.623 E2.36019
G1 X145.587 Y66.992 E2.37793
G1 X146.076 Y67.792 E2.41536
G1 X146.296 Y68.209 E2.43417
G1 X146.397 Y68.411 E2.44319
G1 X146.849 Y69.446 E2.48827
G1 X146.986 Y69.809 E2.50375
G1 X147.374 Y71.053 E2.55576
G1 X147.44 Y71.32 E2.56674
G1 X147.529 Y71.712 E2.58278
G1 X147.729 Y72.998 E2.63473
G1 X147.752 Y73.239 E2.64439
G1 X147.779 Y73.576 E2.65788
G1 X147.809 Y74.083 E2.67815
G1 X147.821 Y74.494 E2.69456
G1 X147.827 Y75.035 E2.71616
G1 X147.826 Y159.908 E6.10362
G1 X147.816 Y160.669 E6.134
G1 X147.795 Y161.225 E6.1562
G1 X147.777 Y161.507 E6.16748
G1 X147.653 Y162.593 E6.21111
G1 X147.612 Y162.842 E6.22118
G1 X147.36 Y163.988 E6.26801
G1 X147.246 Y164.4 E6.28508
G1 X146.957 Y165.293 E6.32254
G1 X146.773 Y165.756 E6.34242
G1 X146.679 Y165.978 E6.35204
G1 X146.151 Y167.058 E6.40002
G1 X145.948 Y167.421 E6.41662
G1 X145.5 Y168.154 E6.45091
G1 X145.452 Y168.226 E6.45437
G1 X145.058 Y168.779 E6.48147
G1 X144.903 Y168.983 E6.49169
G1 X144.09 Y169.934 E6.54163
G1 X143.911 Y170.121 E6.55196
G1 X143.166 Y170.83 E6.59301
G1 X142.942 Y171.024 E6.60483
G1 X141.888 Y171.831 E6.65782
G1 X141.52 Y172.079 E6.67553
G1 X140.721 Y172.569 E6.71294
G1 X140.273 Y172.805 E6.73315
G1 X140.07 Y172.906 E6.7422
G1 X139.051 Y173.351 E6.78658
G1 X138.685 Y173.489 E6.80219
G1 X137.406 Y173.884 E6.85561
G1 X137.102 Y173.958 E6.8681
G1 X135.813 Y174.191 E6.92038
G1 X135.472 Y174.232 E6.93409
G1 X134.338 Y174.31 E6.97946
G1 X133.357 Y174.326 E7.01862
G1 X101.708 Y174.328 E8.2818
G1 X100.867 Y174.317 E8.31537
G1 X100.355 Y174.299 E8.33581
G1 X99.639 Y174.246 E8.36447
G1 X99.434 Y174.224 E8.3727
G1 X98.681 Y174.117 E8.40305
G1 X98.518 Y174.088 E8.40966
G1 X97.494 Y173.855 E8.45158
G1 X97.081 Y173.74 E8.46869
G1 X95.759 Y173.279 E8.52457
G1 X95.536 Y173.185 E8.53423
G1 X94.438 Y172.648 E8.58301
G1 X94.077 Y172.446 E8.59952
G1 X93.317 Y171.98 E8.6351
G1 X93.244 Y171.931 E8.63861
G1 X92.707 Y171.547 E8.66496
G1 X92.501 Y171.39 E8.6753
G1 X91.565 Y170.589 E8.72447
G1 X91.38 Y170.412 E8.73469
G1 X90.666 Y169.663 E8.77599
G1 X90.473 Y169.44 E8.78776
G1 X89.669 Y168.388 E8.8406
G1 X89.421 Y168.02 E8.85831
G1 X88.931 Y167.221 E8.89572
G1 X88.695 Y166.773 E8.91593
G1 X88.593 Y166.568 E8.92507
G1 X88.146 Y165.543 E8.9697
G1 X88.009 Y165.179 E8.98523
G1 X87.616 Y163.906 E9.0384
G1 X87.542 Y163.602 E9.05089
G1 X87.31 Y162.321 E9.10285
G1 X87.269 Y161.982 E9.11648
G1 X87.19 Y160.84 E9.16216
G1 X87.174 Y159.857 E9.2014
G1 X87.173 Y75.207 E12.57997
G1 X87.184 Y74.323 E12.61525
G1 X87.206 Y73.765 E12.63754
G1 X87.224 Y73.486 E12.6487
G1 X87.346 Y72.414 E12.69176
G1 X87.387 Y72.164 E12.70187
G1 X87.642 Y71.004 E12.74928
G1 X87.756 Y70.593 E12.7663
G1 X88.045 Y69.701 E12.80372
G1 X88.227 Y69.244 E12.82336
G1 X88.321 Y69.022 E12.83298
G1 X88.836 Y67.967 E12.87984
G1 X89.04 Y67.6 E12.89659
G1 X89.687 Y66.573 E12.94504
G1 X89.935 Y66.232 E12.96187
G0 F3000 X90.254 Y66.474
G1 F1200 X90.403 Y66.277 E12.97173
G1 X91.203 Y65.338 E13.02096
G1 X91.386 Y65.147 E13.03152
G1 X92.114 Y64.455 E13.07161
G1 X92.333 Y64.266 E13.08315
G1 X93.335 Y63.501 E13.13347
G1 X93.703 Y63.253 E13.15118
G1 X94.488 Y62.772 E13.18793
G1 X94.905 Y62.553 E13.20672
G1 X95.108 Y62.452 E13.21577
G1 X96.09 Y62.024 E13.25853
G1 X96.456 Y61.886 E13.27414
G1 X97.689 Y61.505 E13.32565
G1 X97.993 Y61.431 E13.33814
G1 X99.235 Y61.206 E13.38851
G1 X99.576 Y61.165 E13.40222
G1 X100.668 Y61.09 E13.44591
G1 X101.649 Y61.074 E13.48507
G1 X133.293 Y61.073 E14.74805
G1 X134.172 Y61.084 E14.78313
G1 X134.713 Y61.105 E14.80474
G1 X134.991 Y61.123 E14.81586
G1 X136.028 Y61.242 E14.85752
G1 X136.277 Y61.283 E14.86759
G1 X137.398 Y61.53 E14.91341
G1 X137.811 Y61.645 E14.93052
G1 X139.079 Y62.087 E14.98411
G1 X139.3 Y62.18 E14.99368
G1 X140.363 Y62.698 E15.04088
G1 X140.726 Y62.901 E15.05748
G1 X141.432 Y63.333 E15.09051
G1 X141.498 Y63.377 E15.09368
G1 X142.035 Y63.76 E15.12001
G1 X142.248 Y63.922 E15.13069
G1 X143.149 Y64.69 E15.17794
G1 X143.324 Y64.857 E15.18759
G1 X143.998 Y65.563 E15.22655
G1 X144.201 Y65.796 E15.23888
G1 X145.007 Y66.846 E15.29171
G1 X145.255 Y67.215 E15.30946
G1 X145.938 Y68.388 E15.36363
G1 X146.039 Y68.59 E15.37265
G1 X146.475 Y69.587 E15.41608
G1 X146.612 Y69.95 E15.43157
G1 X146.985 Y71.149 E15.48168
G1 X147.051 Y71.416 E15.49266
G1 X147.138 Y71.796 E15.50822
G1 X147.331 Y73.036 E15.55831
G1 X147.354 Y73.277 E15.56797
G1 X147.38 Y73.602 E15.58098
G1 X147.396 Y73.85 E15.5909
G1 X147.413 Y74.198 E15.60481
G1 X147.421 Y74.499 E15.61682
G1 X147.427 Y75.035 E15.63822
G1 X147.426 Y159.902 E19.02544
G1 X147.416 Y160.663 E19.05582
G1 X147.395 Y161.199 E19.07723
G1 X147.377 Y161.481 E19.08851
G1 X147.258 Y162.528 E19.13056
G1 X147.217 Y162.777 E19.14064
G1 X146.974 Y163.882 E19.18579
G1 X146.86 Y164.294 E19.20285
G1 X146.576 Y165.17 E19.23961
G1 X146.405 Y165.6 E19.25808
G1 X146.311 Y165.822 E19.2677
G1 X145.802 Y166.863 E19.31395
G1 X145.599 Y167.226 E19.33055
G1 X145.167 Y167.932 E19.36358
G1 X145.119 Y168.004 E19.36704
G1 X144.739 Y168.537 E19.39316
G1 X144.584 Y168.741 E19.40339
G1 X143.801 Y169.658 E19.45152
G1 X143.622 Y169.845 E19.46185
G1 X142.905 Y170.528 E19.50137
G1 X142.681 Y170.722 E19.5132
G1 X141.665 Y171.499 E19.56425
G1 X141.297 Y171.747 E19.58196
G1 X140.512 Y172.228 E19.6187
G1 X140.095 Y172.447 E19.6375
G1 X139.892 Y172.548 E19.64655
G1 X138.91 Y172.976 E19.68931
G1 X138.544 Y173.114 E19.70492
G1 X137.311 Y173.495 E19.75643
G1 X137.007 Y173.569 E19.76891
G1 X135.765 Y173.794 E19.81929
G1 X135.424 Y173.835 E19.833
G1 X134.332 Y173.91 E19.87669
G1 X133.351 Y173.926 E19.91585
G1 X101.708 Y173.928 E21.17879
G1 X100.873 Y173.917 E21.21212
G1 X100.588 Y173.909 E21.22349
G1 X100.372 Y173.9 E21.23212
G1 X99.682 Y173.848 E21.25974
G1 X99.477 Y173.826 E21.26797
G1 X98.751 Y173.723 E21.29724
G1 X98.588 Y173.694 E21.30384
G1 X97.602 Y173.47 E21.3442
G1 X97.189 Y173.355 E21.36131
G1 X95.915 Y172.911 E21.41516
G1 X95.692 Y172.817 E21.42482
G1 X94.633 Y172.299 E21.47187
G1 X94.272 Y172.097 E21.48838
G1 X93.54 Y171.648 E21.52265
G1 X93.467 Y171.599 E21.52616
G1 X92.95 Y171.229 E21.55154
G1 X92.744 Y171.072 E21.56188
G1 X91.841 Y170.3 E21.60929
G1 X91.656 Y170.123 E21.61951
G1 X90.969 Y169.401 E21.65929
G1 X90.776 Y169.178 E21.67106
G1 X90.001 Y168.165 E21.72197
G1 X89.753 Y167.797 E21.73968
G1 X89.272 Y167.012 E21.77642
G1 X89.053 Y166.595 E21.79522
G1 X88.951 Y166.39 E21.80436
G1 X88.52 Y165.402 E21.84738
G1 X88.383 Y165.038 E21.8629
G1 X88.005 Y163.811 E21.91415
G1 X87.931 Y163.507 E21.92664
G1 X87.707 Y162.273 E21.97669
G1 X87.666 Y161.934 E21.99032
G1 X87.59 Y160.834 E22.03433
G1 X87.574 Y159.851 E22.07357
G1 X87.573 Y75.207 E25.45189
G1 X87.584 Y74.329 E25.48694
G1 X87.605 Y73.791 E25.50843
G1 X87.623 Y73.512 E25.51959
G1 X87.741 Y72.479 E25.56108
G1 X87.782 Y72.229 E25.5712
G1 X88.028 Y71.111 E25.61688
G1 X88.142 Y70.7 E25.63391
G1 X88.595 Y69.4 E25.68885
G1 X88.689 Y69.178 E25.69848
G1 X89.185 Y68.161 E25.74364
G1 X89.389 Y67.794 E25.76039
G1 X90.013 Y66.804 E25.8071
G1 X90.254 Y66.474 E25.82341
G0 F3000 X90.573 Y66.715
G1 F1200 X90.722 Y66.518 E25.83327
G1 X91.492 Y65.614 E25.88066
G1 X91.675 Y65.423 E25.89122
G1 X92.376 Y64.758 E25.92979
G1 X92.595 Y64.569 E25.94133
G1 X93.559 Y63.832 E25.98976
G1 X93.927 Y63.584 E26.00748
G1 X95.083 Y62.911 E26.06086
G1 X95.286 Y62.81 E26.06991
G1 X96.231 Y62.398 E26.11106
G1 X96.597 Y62.26 E26.12667
G1 X97.784 Y61.893 E26.17626
G1 X98.088 Y61.819 E26.18875
G1 X99.282 Y61.603 E26.23718
G1 X99.623 Y61.562 E26.25088
G1 X100.675 Y61.49 E26.29297
G1 X101.656 Y61.474 E26.33213
G1 X133.293 Y61.473 E27.59483
G1 X134.167 Y61.484 E27.62972
G1 X134.687 Y61.504 E27.65049
G1 X134.965 Y61.522 E27.6616
G1 X135.963 Y61.637 E27.7017
G1 X136.212 Y61.678 E27.71177
G1 X137.291 Y61.916 E27.75587
G1 X137.704 Y62.031 E27.77298
G1 X138.924 Y62.456 E27.82455
G1 X139.145 Y62.549 E27.83412
G1 X140.168 Y63.048 E27.87954
G1 X140.531 Y63.251 E27.89614
G1 X141.21 Y63.666 E27.92791
G1 X141.276 Y63.71 E27.93107
G1 X141.793 Y64.078 E27.9564
G1 X142.006 Y64.24 E27.96708
G1 X142.873 Y64.98 E28.01257
G1 X143.048 Y65.147 E28.02223
G1 X143.697 Y65.826 E28.05972
G1 X143.9 Y66.059 E28.07205
G1 X144.675 Y67.069 E28.12286
G1 X144.923 Y67.438 E28.14061
G1 X145.58 Y68.566 E28.19271
G1 X145.681 Y68.768 E28.20172
G1 X146.101 Y69.728 E28.24354
G1 X146.238 Y70.091 E28.25903
G1 X146.597 Y71.245 E28.30727
G1 X146.663 Y71.512 E28.31824
G1 X146.747 Y71.881 E28.33335
G1 X146.933 Y73.074 E28.38154
G1 X146.956 Y73.315 E28.3912
G1 X146.981 Y73.627 E28.40369
G1 X147.01 Y74.116 E28.42324
G1 X147.021 Y74.504 E28.43874
G1 X147.027 Y75.035 E28.45993
G1 X147.026 Y159.897 E31.84696
G1 X147.016 Y160.658 E31.87733
G1 X146.996 Y161.174 E31.89794
G1 X146.978 Y161.456 E31.90922
G1 X146.863 Y162.463 E31.94967
G1 X146.822 Y162.712 E31.95975
G1 X146.589 Y163.775 E32.00318
G1 X146.475 Y164.187 E32.02024
G1 X146.037 Y165.444 E32.07337
G1 X145.943 Y165.666 E32.08299
G1 X145.452 Y166.668 E32.12753
G1 X145.249 Y167.031 E32.14413
G1 X144.834 Y167.71 E32.17589
G1 X144.786 Y167.782 E32.17934
G1 X144.421 Y168.295 E32.20447
G1 X144.266 Y168.499 E32.2147
G1 X143.512 Y169.381 E32.26101
G1 X143.333 Y169.568 E32.27134
G1 X142.643 Y170.225 E32.30937
G1 X142.419 Y170.419 E32.32119
G1 X141.441 Y171.168 E32.37036
G1 X141.073 Y171.416 E32.38807
G1 X139.917 Y172.089 E32.44146
G1 X139.714 Y172.19 E32.45051
G1 X138.769 Y172.602 E32.49166
G1 X138.403 Y172.74 E32.50727
G1 X137.216 Y173.107 E32.55686
G1 X136.912 Y173.181 E32.56934
G1 X135.718 Y173.397 E32.61777
G1 X135.377 Y173.438 E32.63148
G1 X134.325 Y173.51 E32.67357
G1 X133.344 Y173.526 E32.71272
G1 X101.708 Y173.528 E33.97539
G1 X100.879 Y173.517 E34.00848
G1 X100.604 Y173.509 E34.01946
G1 X100.388 Y173.5 E34.02809
G1 X99.725 Y173.451 E34.05462
G1 X99.52 Y173.429 E34.06285
G1 X98.821 Y173.329 E34.09103
G1 X98.658 Y173.3 E34.09764
G1 X97.709 Y173.084 E34.13648
G1 X97.296 Y172.969 E34.15359
G1 X96.07 Y172.542 E34.20541
G1 X95.847 Y172.448 E34.21507
G1 X94.828 Y171.95 E34.26034
G1 X94.467 Y171.748 E34.27685
G1 X93.763 Y171.316 E34.30981
G1 X93.69 Y171.267 E34.31332
G1 X93.192 Y170.91 E34.33778
G1 X92.986 Y170.753 E34.34812
G1 X92.118 Y170.011 E34.39369
G1 X91.933 Y169.834 E34.40391
G1 X91.271 Y169.139 E34.44222
G1 X91.078 Y168.916 E34.45399
G1 X90.332 Y167.941 E34.50299
G1 X90.084 Y167.573 E34.5207
G1 X89.411 Y166.417 E34.57409
G1 X89.309 Y166.212 E34.58323
G1 X88.895 Y165.261 E34.62463
G1 X88.758 Y164.897 E34.64015
G1 X88.393 Y163.716 E34.68948
G1 X88.319 Y163.412 E34.70197
G1 X88.104 Y162.225 E34.75012
G1 X88.063 Y161.886 E34.76375
G1 X87.99 Y160.827 E34.80611
G1 X87.974 Y159.844 E34.84535
G1 X87.973 Y75.207 E38.2234
G1 X87.984 Y74.334 E38.25825
G1 X88.004 Y73.816 E38.27894
G1 X88.022 Y73.537 E38.29009
G1 X88.135 Y72.543 E38.33002
G1 X88.176 Y72.293 E38.34013
G1 X88.413 Y71.218 E38.38407
G1 X88.527 Y70.807 E38.40109
G1 X88.963 Y69.556 E38.45397
G1 X89.057 Y69.334 E38.46359
G1 X89.535 Y68.355 E38.50707
G1 X89.739 Y67.988 E38.52383
G1 X90.339 Y67.036 E38.56874
G1 X90.573 Y66.715 E38.5846
G1 F2700 E33.5846
;MESH:EnclosureCover.stl
G0 F3000 X97.528 Y74.137
G0 X98.592 Y74.522
G0 X99.367 Y160.759
G0 X99.476 Y161.139
G0 X99.658 Y161.466
G0 X99.93 Y161.758
G0 X100.246 Y161.971
G0 X100.836 Y162.145
G0 X116.885 Y162.14
G0 X105.341 Y133.869
G0 X105.341 Y131.411
G0 X104.331 Y131.4
G0 X100.731 Y122.546
G0 X104.331 Y113.693
G0 X105.341 Y113.682
G0 X105.341 Y111.225
G0 X104.331 Y111.214
G0 X100.731 Y102.36
G0 X104.331 Y93.507
G0 X105.341 Y93.496
G0 X105.526 Y90.45
;TYPE:WALL-INNER
G1 F2700 E38.5846
G1 F1200 X108.897 Y82.174 E38.94126
G1 X105.528 Y73.9 E39.29782
G1 X104.721 Y73.9 E39.33003
G1 X101.35 Y82.174 E39.68662
G1 X104.719 Y90.45 E40.04325
G1 X105.526 Y90.45 E40.07546
G0 F3000 X105.257 Y90.05
;TYPE:WALL-OUTER
G1 F1200 X108.465 Y82.174 E40.41489
G1 X105.259 Y74.3 E40.75421
G1 X104.99 Y74.3 E40.76494
G1 X101.782 Y82.174 E41.10429
G1 X104.988 Y90.05 E41.44369
G1 X105.257 Y90.05 E41.45442
G1 F2700 E36.45442
G0 F3000 X105.533 Y90.163
G0 X105.651 Y92.268
G0 X108.959 Y100.376
G0 X109.541 Y100.376
G0 X113.082 Y94.251
G0 X113.664 Y94.251
G0 X121.334 Y110.47
G0 X121.918 Y110.47
G0 X125.459 Y104.344
G0 X126.043 Y104.344
G0 X129.473 Y110.637
;TYPE:WALL-INNER
G1 F2700 E41.45442
G1 F1200 X130.281 Y110.637 E41.48667
G1 X133.651 Y102.36 E41.84336
G1 X130.281 Y94.084 E42.20001
G1 X129.473 Y94.084 E42.23225
G1 X126.103 Y102.36 E42.5889
G1 X129.473 Y110.637 E42.94559
G0 F3000 X129.742 Y110.237
;TYPE:WALL-OUTER
G1 F1200 X130.012 Y110.237 E42.95636
G1 X133.219 Y102.36 E43.29581
G1 X130.012 Y94.484 E43.63522
G1 X129.742 Y94.484 E43.646
G1 X126.535 Y102.36 E43.9854
G1 X129.742 Y110.237 E44.32485
G0 F3000 X129.742 Y110.537
G0 X121.223 Y90.45
;TYPE:WALL-INNER
G1 F1200 X122.03 Y90.45 E44.35706
G1 X125.399 Y82.174 E44.71369
G1 X122.031 Y73.9 E45.07024
G1 X121.224 Y73.9 E45.10245
G1 X117.852 Y82.174 E45.45905
G1 X121.223 Y90.45 E45.81571
G0 F3000 X121.492 Y90.05
;TYPE:WALL-OUTER
G1 F1200 X121.761 Y90.05 E45.82645
G1 X124.967 Y82.174 E46.16584
G1 X121.762 Y74.3 E46.50515
G1 X121.493 Y74.3 E46.51589
G1 X118.284 Y82.174 E46.85525
G1 X121.492 Y90.05 E47.19467
G0 F3000 X121.215 Y90.162
G0 X122.985 Y90.223
G0 X125.459 Y84.158
G0 X126.043 Y84.158
G0 X129.473 Y90.45
;TYPE:WALL-INNER
G1 F1200 X130.281 Y90.45 E47.22692
G1 X133.651 Y82.174 E47.58357
G1 X130.28 Y73.902 E47.94009
G1 X129.474 Y73.902 E47.97226
G1 X126.103 Y82.174 E48.32877
G1 X129.473 Y90.45 E48.68542
G0 F3000 X129.742 Y90.05
;TYPE:WALL-OUTER
G1 F1200 X130.012 Y90.05 E48.6962
G1 X133.219 Y82.174 E49.03561
G1 X130.011 Y74.302 E49.37488
G1 X129.743 Y74.302 E49.38558
G1 X126.535 Y82.174 E49.72485
G1 X129.742 Y90.05 E50.06426
G0 F3000 X129.742 Y90.35
G0 X129.349 Y92.268
G0 X126.041 Y100.376
G0 X125.347 Y100.543
;TYPE:WALL-INNER
G1 F1200 X126.154 Y100.543 E50.09647
G1 X129.525 Y92.268 E50.4531
G1 X126.155 Y83.991 E50.80978
G1 X125.347 Y83.991 E50.84203
G1 X121.978 Y92.268 E51.1987
G1 X125.347 Y100.543 E51.5553
G0 F3000 X125.616 Y100.143
;TYPE:WALL-OUTER
G1 F1200 X125.885 Y100.143 E51.56604
G1 X129.093 Y92.268 E51.90542
G1 X125.886 Y84.391 E52.24487
G1 X125.616 Y84.391 E52.25564
G1 X122.41 Y92.268 E52.59508
