;FLAVOR:Marlin
;TIME:774
;Filament used: 0.357504m
;Layer height: 0.2
;MINX:90.512
;MINY:99.262
;MINZ:0.2
;MAXX:144.481
;MAXY:135.738
;MAXZ:8.6
;Generated with Cura_SteamEngine 4.8.0
M140 S70
M105
M190 S70
M104 S240
M105
M109 S240
M82 ;absolute extrusion mode
; Ender 3 Custom Start G-code
G92 E0 ; Reset Extruder
G28 ; Home all axes
G1 Z2.0 F3000 ; Move Z Axis up little to prevent scratching of Heat Bed
G1 X0.1 Y20 Z0.3 F5000.0 ; Move to start position
G1 X0.1 Y200.0 Z0.3 F1500.0 E15 ; Draw the first line
G1 X0.4 Y200.0 Z0.3 F5000.0 ; Move to side a little
G1 X0.4 Y20 Z0.3 F1500.0 E30 ; Draw the second line
G92 E0 ; Reset Extruder
G1 Z2.0 F3000 ; Move Z Axis up little to prevent scratching of Heat Bed
G1 X5 Y20 Z0.3 F5000.0 ; Move over to prevent blob squish
G92 E0
G92 E0
G1 F2700 E-5
;LAYER_COUNT:43
;LAYER:0
M107
G0 F6000 X96.4 Y104.453 Z0.2
;TYPE:SKIRT
G1 F2700 E0
G1 F900 X97.237 Y103.737 E0.03663
G1 X97.774 Y103.322 E0.05921
G1 X98.644 Y102.714 E0.09451
G1 X99.226 Y102.348 E0.11738
G1 X100.176 Y101.815 E0.15361
G1 X100.784 Y101.512 E0.1762
G1 X101.751 Y101.086 E0.21135
G1 X102.455 Y100.816 E0.23642
G1 X102.915 Y100.651 E0.25268
G1 X103.002 Y100.622 E0.25573
G1 X103.504 Y100.468 E0.27319
G1 X103.721 Y100.407 E0.28069
G1 X104.185 Y100.288 E0.29662
G1 X104.462 Y100.223 E0.30609
G1 X105.143 Y100.086 E0.32919
G1 X105.824 Y99.971 E0.35216
G1 X106.879 Y99.844 E0.3875
G1 X107.656 Y99.789 E0.41341
G1 X108.189 Y99.765 E0.43116
G1 X108.279 Y99.763 E0.43415
G1 X108.736 Y99.762 E0.44935
G1 X108.994 Y99.767 E0.45793
G1 X109.296 Y99.777 E0.46798
G1 X111.293 Y99.873 E0.53448
G1 X113.793 Y99.929 E0.61765
G1 X116.316 Y99.914 E0.70157
G1 X118.874 Y99.826 E0.7867
G1 X121.339 Y99.672 E0.86885
G1 X124.688 Y99.361 E0.98071
G1 X125.642 Y99.291 E1.01253
G1 X126.141 Y99.266 E1.02915
G1 X126.717 Y99.262 E1.0483
G1 X126.926 Y99.266 E1.05526
G1 X127.475 Y99.29 E1.07353
G1 X127.981 Y99.325 E1.0904
G1 X128.61 Y99.387 E1.11143
G1 X128.783 Y99.409 E1.11723
G1 X129.193 Y99.469 E1.13101
G1 X129.682 Y99.55 E1.14749
G1 X130.429 Y99.701 E1.17284
G1 X130.614 Y99.745 E1.17917
G1 X130.991 Y99.841 E1.19211
G1 X131.452 Y99.968 E1.20801
G1 X131.994 Y100.133 E1.22685
G1 X132.208 Y100.204 E1.23435
G1 X132.706 Y100.382 E1.25194
G1 X133.136 Y100.548 E1.26727
G1 X133.759 Y100.811 E1.28976
G1 X133.964 Y100.905 E1.29727
G1 X134.363 Y101.098 E1.31201
G1 X134.784 Y101.312 E1.32772
G1 X135.343 Y101.616 E1.34888
G1 X135.535 Y101.728 E1.35627
G1 X135.942 Y101.978 E1.37216
G1 X136.197 Y102.142 E1.38224
G1 X136.773 Y102.539 E1.40551
G1 X137.427 Y103.021 E1.43253
G1 X138.158 Y103.61 E1.46376
G1 X138.371 Y103.797 E1.47318
G1 X138.78 Y104.175 E1.49171
G1 X139.135 Y104.52 E1.50817
G1 X139.573 Y104.97 E1.52906
G1 X139.696 Y105.104 E1.53511
G1 X139.985 Y105.431 E1.54962
G1 X140.218 Y105.706 E1.56161
G1 X140.633 Y106.228 E1.58379
G1 X141.019 Y106.744 E1.60522
G1 X141.617 Y107.63 E1.64078
G1 X142.005 Y108.27 E1.66567
G1 X142.518 Y109.217 E1.70149
G1 X142.822 Y109.851 E1.72488
G1 X143.224 Y110.802 E1.75922
G1 X143.457 Y111.434 E1.78162
G1 X143.775 Y112.444 E1.81684
G1 X143.966 Y113.171 E1.84184
G1 X144.188 Y114.223 E1.8776
G1 X144.304 Y114.946 E1.90195
G1 X144.42 Y115.983 E1.93666
G1 X144.462 Y116.636 E1.95842
G1 X144.481 Y117.654 E1.99229
G1 X144.46 Y118.395 E2.01694
G1 X144.376 Y119.468 E2.05274
G1 X144.285 Y120.185 E2.07678
G1 X144.111 Y121.188 E2.11064
G1 X143.974 Y121.804 E2.13163
G1 X143.709 Y122.78 E2.16526
G1 X143.471 Y123.521 E2.19115
G1 X143.078 Y124.56 E2.2281
G1 X142.805 Y125.185 E2.25078
G1 X142.36 Y126.088 E2.28426
G1 X142.018 Y126.709 E2.30784
G1 X141.444 Y127.64 E2.34422
G1 X141.053 Y128.208 E2.36716
G1 X140.415 Y129.045 E2.40216
G1 X139.964 Y129.582 E2.42548
G1 X139.218 Y130.387 E2.46199
G1 X138.633 Y130.957 E2.48915
G1 X137.926 Y131.588 E2.52067
G1 X137.716 Y131.76 E2.5297
G1 X137.265 Y132.11 E2.54869
G1 X137.053 Y132.266 E2.55744
G1 X136.54 Y132.622 E2.57821
G1 X135.848 Y133.073 E2.60568
G1 X135.426 Y133.334 E2.62219
G1 X134.949 Y133.602 E2.64038
G1 X134.747 Y133.709 E2.64799
G1 X134.268 Y133.949 E2.66581
G1 X133.995 Y134.077 E2.67584
G1 X133.372 Y134.345 E2.69839
G1 X132.677 Y134.62 E2.72325
G1 X131.951 Y134.879 E2.74889
G1 X131.651 Y134.974 E2.75936
G1 X130.934 Y135.174 E2.78411
G1 X130.462 Y135.289 E2.80027
G1 X129.875 Y135.415 E2.82024
G1 X129.682 Y135.451 E2.82677
G1 X129.168 Y135.535 E2.84409
G1 X128.675 Y135.603 E2.86064
G1 X128.008 Y135.674 E2.88295
G1 X127.785 Y135.691 E2.89039
G1 X127.358 Y135.715 E2.90462
G1 X126.901 Y135.732 E2.91983
G1 X126.268 Y135.738 E2.94088
G1 X126.072 Y135.734 E2.9474
G1 X125.575 Y135.712 E2.96395
G1 X123.867 Y135.599 E3.02088
G1 X123.26 Y135.551 E3.04113
G1 X120.722 Y135.421 E3.12566
G1 X118.231 Y135.365 E3.20853
G1 X115.708 Y135.378 E3.29245
G1 X113.164 Y135.465 E3.37711
G1 X111.163 Y135.583 E3.44378
G1 X109.345 Y135.711 E3.5044
G1 X108.531 Y135.738 E3.53148
G1 X108.255 Y135.737 E3.54066
G1 X107.587 Y135.714 E3.5629
G1 X107.277 Y135.694 E3.57323
G1 X106.587 Y135.628 E3.59628
G1 X105.877 Y135.537 E3.62009
G1 X104.838 Y135.353 E3.65518
G1 X104.125 Y135.191 E3.6795
G1 X103.343 Y134.982 E3.70643
G1 X103.062 Y134.896 E3.7162
G1 X102.446 Y134.688 E3.73782
G1 X102.153 Y134.579 E3.74822
G1 X101.487 Y134.306 E3.77216
G1 X100.827 Y134.01 E3.79622
G1 X99.869 Y133.523 E3.83196
G1 X99.29 Y133.192 E3.85415
G1 X98.373 Y132.606 E3.89034
G1 X97.805 Y132.202 E3.91353
G1 X96.958 Y131.534 E3.9494
G1 X96.448 Y131.09 E3.97189
G1 X95.683 Y130.357 E4.00713
G1 X95.203 Y129.85 E4.03035
G1 X94.489 Y129.016 E4.06687
G1 X94.073 Y128.478 E4.08949
G1 X93.459 Y127.598 E4.12518
G1 X93.093 Y127.015 E4.14807
G1 X92.564 Y126.072 E4.18404
G1 X92.261 Y125.464 E4.20663
G1 X91.833 Y124.491 E4.24198
G1 X91.56 Y123.778 E4.26738
G1 X91.397 Y123.324 E4.28342
G1 X91.372 Y123.249 E4.28605
G1 X91.218 Y122.747 E4.30352
G1 X91.157 Y122.53 E4.31101
G1 X91.036 Y122.057 E4.32725
G1 X90.971 Y121.779 E4.33675
G1 X90.835 Y121.104 E4.35965
G1 X90.72 Y120.422 E4.38265
G1 X90.595 Y119.371 E4.41786
G1 X90.54 Y118.595 E4.44373
G1 X90.512 Y117.777 E4.47095
G1 X90.513 Y117.505 E4.48
G1 X90.536 Y116.837 E4.50223
G1 X90.556 Y116.527 E4.51256
G1 X90.622 Y115.837 E4.53562
G1 X90.713 Y115.127 E4.55942
G1 X90.897 Y114.088 E4.59452
G1 X91.059 Y113.375 E4.61884
G1 X91.278 Y112.559 E4.64694
G1 X91.369 Y112.265 E4.65718
G1 X91.565 Y111.688 E4.67744
G1 X91.669 Y111.408 E4.68738
G1 X91.944 Y110.738 E4.71147
G1 X92.239 Y110.08 E4.73545
G1 X92.727 Y109.119 E4.7713
G1 X93.061 Y108.535 E4.79367
G1 X93.645 Y107.622 E4.82972
G1 X94.046 Y107.058 E4.85274
G1 X94.716 Y106.208 E4.88874
G1 X95.161 Y105.697 E4.91127
G1 X95.893 Y104.933 E4.94647
G1 X96.4 Y104.453 E4.96969
G0 F6000 X96.675 Y104.744
G1 F900 X97.481 Y104.054 E5.00498
G1 X98.018 Y103.639 E5.02755
G1 X98.857 Y103.053 E5.06159
G1 X99.439 Y102.687 E5.08445
G1 X100.354 Y102.173 E5.11936
G1 X100.962 Y101.87 E5.14195
G1 X101.894 Y101.46 E5.17582
G1 X102.598 Y101.19 E5.2009
G1 X103.042 Y101.031 E5.21658
G1 X103.129 Y101.002 E5.21963
G1 X103.612 Y100.854 E5.23644
G1 X103.829 Y100.793 E5.24393
G1 X104.276 Y100.677 E5.25929
G1 X104.553 Y100.612 E5.26876
G1 X105.21 Y100.48 E5.29104
G1 X105.891 Y100.365 E5.31401
G1 X106.908 Y100.243 E5.34808
G1 X107.685 Y100.188 E5.37399
G1 X108.198 Y100.165 E5.39107
G1 X108.288 Y100.163 E5.39406
G1 X108.728 Y100.162 E5.4087
G1 X108.986 Y100.167 E5.41728
G1 X109.278 Y100.177 E5.427
G1 X111.264 Y100.273 E5.49313
G1 X113.786 Y100.329 E5.57703
G1 X116.332 Y100.314 E5.66172
G1 X118.877 Y100.227 E5.74641
G1 X121.365 Y100.071 E5.82933
G1 X124.717 Y99.76 E5.94129
G1 X125.671 Y99.69 E5.97311
G1 X126.154 Y99.666 E5.98919
G1 X126.71 Y99.662 E6.00769
G1 X126.919 Y99.666 E6.01464
G1 X127.447 Y99.689 E6.03222
G1 X127.953 Y99.724 E6.04909
G1 X128.559 Y99.784 E6.06934
G1 X128.732 Y99.806 E6.07514
G1 X129.127 Y99.863 E6.08841
G1 X129.616 Y99.944 E6.1049
G1 X130.337 Y100.09 E6.12937
G1 X130.522 Y100.134 E6.13569
G1 X130.884 Y100.227 E6.14812
G1 X131.345 Y100.354 E6.16403
G1 X131.868 Y100.512 E6.1822
G1 X132.082 Y100.583 E6.1897
G1 X132.562 Y100.755 E6.20666
G1 X132.992 Y100.921 E6.22199
G1 X133.592 Y101.175 E6.24366
G1 X133.797 Y101.269 E6.25116
G1 X134.182 Y101.455 E6.26538
G1 X134.603 Y101.669 E6.28109
G1 X135.141 Y101.962 E6.30146
G1 X135.333 Y102.074 E6.30886
G1 X135.726 Y102.315 E6.32419
G1 X135.981 Y102.479 E6.33427
G1 X136.536 Y102.861 E6.35668
G1 X137.19 Y103.343 E6.3837
G1 X137.894 Y103.91 E6.41377
G1 X138.107 Y104.097 E6.4232
G1 X138.502 Y104.461 E6.44106
G1 X138.857 Y104.806 E6.45753
G1 X139.278 Y105.24 E6.47764
G1 X139.401 Y105.374 E6.48369
G1 X139.679 Y105.69 E6.49769
G1 X139.912 Y105.965 E6.50967
G1 X140.313 Y106.468 E6.53107
G1 X140.699 Y106.984 E6.5525
G1 X141.275 Y107.838 E6.58676
G1 X141.663 Y108.478 E6.61166
G1 X142.157 Y109.39 E6.64615
G1 X142.461 Y110.024 E6.66954
G1 X142.849 Y110.94 E6.70263
G1 X143.082 Y111.572 E6.72503
G1 X143.388 Y112.546 E6.75899
G1 X143.579 Y113.273 E6.78399
G1 X143.793 Y114.287 E6.81846
G1 X143.909 Y115.01 E6.84281
G1 X144.021 Y116.009 E6.87625
G1 X144.063 Y116.662 E6.89801
G1 X144.081 Y117.642 E6.93061
G1 X144.06 Y118.383 E6.95527
G1 X143.98 Y119.418 E6.98979
G1 X143.889 Y120.135 E7.01383
G1 X143.72 Y121.101 E7.04645
G1 X143.583 Y121.717 E7.06744
G1 X143.328 Y122.657 E7.09983
G1 X143.09 Y123.398 E7.12572
G1 X142.712 Y124.4 E7.16134
G1 X142.439 Y125.025 E7.18402
G1 X142.01 Y125.896 E7.21631
G1 X141.668 Y126.517 E7.23989
G1 X141.114 Y127.413 E7.27493
G1 X140.723 Y127.981 E7.29787
G1 X140.109 Y128.788 E7.33159
G1 X139.658 Y129.325 E7.35492
G1 X138.938 Y130.1 E7.3901
G1 X138.353 Y130.67 E7.41727
G1 X137.673 Y131.278 E7.44761
G1 X137.463 Y131.45 E7.45663
G1 X137.028 Y131.788 E7.47496
G1 X136.816 Y131.944 E7.48371
G1 X136.322 Y132.286 E7.50369
G1 X135.63 Y132.737 E7.53117
G1 X135.222 Y132.991 E7.54715
G1 X134.762 Y133.249 E7.56469
G1 X134.56 Y133.356 E7.5723
G1 X134.098 Y133.586 E7.58946
G1 X133.825 Y133.714 E7.59949
G1 X133.225 Y133.973 E7.62123
G1 X132.53 Y134.248 E7.64609
G1 X131.83 Y134.497 E7.6708
G1 X131.53 Y134.592 E7.68126
G1 X130.839 Y134.786 E7.70514
G1 X130.367 Y134.901 E7.72129
G1 X129.802 Y135.022 E7.74051
G1 X129.609 Y135.058 E7.74704
G1 X129.113 Y135.139 E7.76376
G1 X128.62 Y135.207 E7.78031
G1 X127.978 Y135.275 E7.80178
G1 X127.755 Y135.292 E7.80922
G1 X127.343 Y135.316 E7.82295
G1 X126.886 Y135.333 E7.83816
G1 X126.276 Y135.338 E7.85845
G1 X126.08 Y135.334 E7.86497
G1 X125.601 Y135.313 E7.88091
G1 X123.899 Y135.2 E7.93765
G1 X123.279 Y135.15 E7.95834
G1 X120.751 Y135.022 E8.04252
G1 X118.238 Y134.965 E8.12613
G1 X115.693 Y134.978 E8.21078
G1 X113.167 Y135.064 E8.29484
G1 X111.109 Y135.186 E8.36341
G1 X109.317 Y135.312 E8.42316
G1 X108.533 Y135.338 E8.44925
G1 X108.257 Y135.337 E8.45843
G1 X107.613 Y135.315 E8.47986
G1 X107.303 Y135.295 E8.49019
G1 X106.637 Y135.231 E8.51245
G1 X105.927 Y135.14 E8.53625
G1 X104.926 Y134.963 E8.57006
G1 X104.213 Y134.801 E8.59438
G1 X103.46 Y134.6 E8.62031
G1 X103.179 Y134.514 E8.63008
G1 X102.585 Y134.313 E8.65094
G1 X102.292 Y134.204 E8.66133
G1 X101.65 Y133.941 E8.68441
G1 X100.99 Y133.645 E8.70847
G1 X100.067 Y133.175 E8.74292
G1 X99.488 Y132.844 E8.7651
G1 X98.605 Y132.28 E8.79995
G1 X98.037 Y131.876 E8.82313
G1 X97.221 Y131.233 E8.85769
G1 X96.711 Y130.789 E8.88018
G1 X95.974 Y130.082 E8.91414
G1 X95.494 Y129.575 E8.93736
G1 X94.805 Y128.771 E8.97258
G1 X94.389 Y128.233 E8.9952
G1 X93.797 Y127.385 E9.0296
G1 X93.431 Y126.802 E9.05249
G1 X92.922 Y125.894 E9.08712
G1 X92.619 Y125.286 E9.10971
G1 X92.207 Y124.348 E9.14378
G1 X91.934 Y123.635 E9.16918
G1 X91.777 Y123.197 E9.18465
G1 X91.752 Y123.122 E9.18728
G1 X91.604 Y122.639 E9.20408
G1 X91.543 Y122.422 E9.21158
G1 X91.425 Y121.966 E9.22725
G1 X91.36 Y121.688 E9.23674
G1 X91.23 Y121.038 E9.25879
G1 X91.115 Y120.356 E9.28179
G1 X90.994 Y119.342 E9.31576
G1 X90.939 Y118.566 E9.34163
G1 X90.912 Y117.778 E9.36786
G1 X90.913 Y117.506 E9.37691
G1 X90.935 Y116.863 E9.3983
G1 X90.955 Y116.553 E9.40864
G1 X91.019 Y115.887 E9.43089
G1 X91.11 Y115.177 E9.4547
G1 X91.287 Y114.176 E9.48851
G1 X91.449 Y113.463 E9.51283
G1 X91.66 Y112.678 E9.53986
G1 X91.751 Y112.384 E9.5501
G1 X91.94 Y111.827 E9.56966
G1 X92.044 Y111.547 E9.5796
G1 X92.309 Y110.902 E9.60279
G1 X92.604 Y110.244 E9.62677
G1 X93.075 Y109.318 E9.66133
G1 X93.409 Y108.734 E9.6837
G1 X93.971 Y107.854 E9.71843
G1 X94.372 Y107.29 E9.74145
G1 X95.017 Y106.471 E9.77612
G1 X95.462 Y105.96 E9.79866
G1 X96.168 Y105.224 E9.83258
G1 X96.675 Y104.744 E9.8558
G0 F6000 X96.95 Y105.034
G1 F900 X97.726 Y104.37 E9.88977
G1 X98.263 Y103.955 E9.91234
G1 X99.07 Y103.391 E9.94509
G1 X99.652 Y103.025 E9.96796
G1 X100.532 Y102.531 E10.00152
G1 X101.14 Y102.228 E10.02412
G1 X102.037 Y101.833 E10.05671
G1 X102.741 Y101.563 E10.08179
G1 X103.168 Y101.41 E10.09688
G1 X103.255 Y101.381 E10.09993
G1 X103.721 Y101.239 E10.11613
G1 X103.938 Y101.178 E10.12363
G1 X104.368 Y101.067 E10.1384
G1 X104.645 Y101.002 E10.14786
G1 X105.277 Y100.874 E10.16931
G1 X105.958 Y100.759 E10.19228
G1 X106.936 Y100.642 E10.22504
G1 X107.713 Y100.587 E10.25095
G1 X108.206 Y100.565 E10.26736
G1 X108.296 Y100.563 E10.27036
G1 X108.721 Y100.562 E10.28449
G1 X108.979 Y100.567 E10.29308
G1 X109.259 Y100.576 E10.30239
G1 X111.274 Y100.673 E10.36949
G1 X113.78 Y100.729 E10.45286
G1 X116.348 Y100.714 E10.53827
G1 X118.881 Y100.627 E10.62257
G1 X121.393 Y100.469 E10.70629
G1 X124.747 Y100.159 E10.81832
G1 X125.701 Y100.089 E10.85013
G1 X126.167 Y100.066 E10.86565
G1 X126.702 Y100.062 E10.88344
G1 X126.911 Y100.066 E10.8904
G1 X127.42 Y100.088 E10.90734
G1 X127.926 Y100.123 E10.92421
G1 X128.509 Y100.18 E10.9437
G1 X128.682 Y100.202 E10.9495
G1 X129.062 Y100.258 E10.96227
G1 X129.551 Y100.339 E10.97876
G1 X130.244 Y100.479 E11.00227
G1 X130.429 Y100.523 E11.0086
G1 X130.778 Y100.612 E11.02058
G1 X131.239 Y100.739 E11.03648
G1 X131.742 Y100.892 E11.05397
G1 X131.956 Y100.963 E11.06147
G1 X132.417 Y101.128 E11.07775
G1 X132.847 Y101.294 E11.09308
G1 X133.425 Y101.538 E11.11395
G1 X133.63 Y101.632 E11.12145
G1 X134.001 Y101.811 E11.13515
G1 X134.422 Y102.025 E11.15086
G1 X134.939 Y102.307 E11.17045
G1 X135.131 Y102.419 E11.17784
G1 X135.509 Y102.651 E11.19259
G1 X135.764 Y102.815 E11.20267
G1 X136.298 Y103.183 E11.22424
G1 X136.952 Y103.665 E11.25127
G1 X137.63 Y104.211 E11.28022
G1 X137.843 Y104.398 E11.28965
G1 X138.223 Y104.748 E11.30683
G1 X138.578 Y105.093 E11.32329
G1 X138.983 Y105.511 E11.34265
G1 X139.106 Y105.645 E11.3487
G1 X139.374 Y105.948 E11.36216
G1 X139.607 Y106.223 E11.37414
G1 X139.993 Y106.707 E11.39473
G1 X140.379 Y107.223 E11.41617
G1 X140.933 Y108.045 E11.44914
G1 X141.321 Y108.685 E11.47403
G1 X141.796 Y109.563 E11.50723
G1 X142.1 Y110.197 E11.53062
G1 X142.473 Y111.079 E11.56247
G1 X142.706 Y111.711 E11.58487
G1 X143.001 Y112.647 E11.61751
G1 X143.192 Y113.374 E11.64251
G1 X143.398 Y114.35 E11.67569
G1 X143.514 Y115.073 E11.70005
G1 X143.622 Y116.034 E11.73221
G1 X143.664 Y116.687 E11.75397
G1 X143.681 Y117.631 E11.78538
G1 X143.66 Y118.372 E11.81003
G1 X143.583 Y119.367 E11.84322
G1 X143.492 Y120.084 E11.86726
G1 X143.33 Y121.014 E11.89866
G1 X143.193 Y121.63 E11.91965
G1 X142.947 Y122.535 E11.95084
G1 X142.709 Y123.276 E11.97673
G1 X142.345 Y124.24 E12.011
G1 X142.072 Y124.865 E12.03368
G1 X141.66 Y125.703 E12.06474
G1 X141.318 Y126.324 E12.08832
G1 X140.785 Y127.187 E12.12206
G1 X140.394 Y127.755 E12.14499
G1 X139.803 Y128.531 E12.17744
G1 X139.352 Y129.068 E12.20076
G1 X138.659 Y129.814 E12.23463
G1 X138.074 Y130.384 E12.26179
G1 X137.419 Y130.969 E12.291
G1 X137.209 Y131.141 E12.30003
G1 X136.791 Y131.465 E12.31762
G1 X136.579 Y131.621 E12.32638
G1 X136.103 Y131.951 E12.34564
G1 X135.411 Y132.402 E12.37311
G1 X135.017 Y132.647 E12.38854
G1 X134.575 Y132.896 E12.40542
G1 X134.373 Y133.003 E12.41302
G1 X133.928 Y133.224 E12.42955
G1 X133.655 Y133.352 E12.43957
G1 X133.078 Y133.602 E12.46049
G1 X132.383 Y133.877 E12.48535
G1 X131.709 Y134.116 E12.50913
G1 X131.409 Y134.211 E12.5196
G1 X130.745 Y134.397 E12.54254
G1 X130.273 Y134.512 E12.55869
G1 X129.728 Y134.629 E12.57723
G1 X129.535 Y134.665 E12.58376
G1 X129.059 Y134.742 E12.5998
G1 X128.566 Y134.81 E12.61635
