;FLAVOR:Marlin
;TIME:819
;Filament used: 0.369438m
;Layer height: 0.16
;MINX:90.512
;MINY:99.263
;MINZ:0.2
;MAXX:144.481
;MAXY:135.737
;MAXZ:8.6
;Generated with Cura_SteamEngine 4.8.0
M140 S70
M105
M190 S70
M104 S210
M105
M109 S210
M82 ;absolute extrusion mode
; Ender 3 Custom Start G-code
G92 E0 ; Reset Extruder
G28 ; Home all axes
G1 Z2.0 F3000 ; Move Z Axis up little to prevent scratching of Heat Bed
G1 X0.1 Y20 Z0.3 F5000.0 ; Move to start position
G1 X0.1 Y200.0 Z0.3 F1500.0 E15 ; Draw the first line
G1 X0.4 Y200.0 Z0.3 F5000.0 ; Move to side a little
G1 X0.4 Y20 Z0.3 F1500.0 E30 ; Draw the second line
G92 E0 ; Reset Extruder
G1 Z2.0 F3000 ; Move Z Axis up little to prevent scratching of Heat Bed
G1 X5 Y20 Z0.3 F5000.0 ; Move over to prevent blob squish
G92 E0
G92 E0
G1 F2700 E-5
;LAYER_COUNT:46
;LAYER:0
M107
G0 F3000 X96.4 Y104.453 Z0.2
;TYPE:SKIRT
G1 F2700 E0
G1 F1200 X97.237 Y103.737 E0.04396
G1 X97.774 Y103.322 E0.07105
G1 X98.644 Y102.714 E0.11341
G1 X99.226 Y102.348 E0.14085
G1 X100.176 Y101.815 E0.18433
G1 X100.784 Y101.512 E0.21144
G1 X101.751 Y101.086 E0.25362
G1 X102.455 Y100.816 E0.28371
G1 X102.915 Y100.651 E0.30321
G1 X103.002 Y100.622 E0.30687
G1 X103.504 Y100.468 E0.32783
G1 X103.721 Y100.407 E0.33683
G1 X104.185 Y100.288 E0.35595
G1 X104.462 Y100.223 E0.3673
G1 X105.143 Y100.086 E0.39503
G1 X105.824 Y99.971 E0.42259
G1 X106.879 Y99.844 E0.465
G1 X107.656 Y99.789 E0.49609
G1 X108.189 Y99.765 E0.51739
G1 X108.279 Y99.763 E0.52098
G1 X108.736 Y99.762 E0.53922
G1 X108.994 Y99.767 E0.54952
G1 X109.296 Y99.777 E0.56158
G1 X111.477 Y99.879 E0.64872
G1 X114.009 Y99.929 E0.7498
G1 X116.53 Y99.908 E0.85042
G1 X119.06 Y99.815 E0.95147
G1 X121.559 Y99.653 E1.05142
G1 X124.163 Y99.409 E1.15581
G1 X124.636 Y99.358 E1.17479
G1 X124.927 Y99.331 E1.18646
G1 X125.149 Y99.313 E1.19535
G1 X125.652 Y99.284 E1.21546
G1 X126.108 Y99.268 E1.23367
G1 X126.677 Y99.263 E1.25638
G1 X126.917 Y99.267 E1.26596
G1 X127.457 Y99.289 E1.28753
G1 X127.897 Y99.318 E1.30513
G1 X128.527 Y99.378 E1.33039
G1 X128.769 Y99.408 E1.34012
G1 X129.236 Y99.476 E1.35896
G1 X129.695 Y99.553 E1.37753
G1 X130.217 Y99.653 E1.39874
G1 X130.396 Y99.692 E1.40606
G1 X130.998 Y99.841 E1.43081
G1 X131.484 Y99.976 E1.45094
G1 X132.019 Y100.139 E1.47326
G1 X132.202 Y100.2 E1.48096
G1 X132.727 Y100.391 E1.50326
G1 X133.208 Y100.579 E1.52387
G1 X133.742 Y100.804 E1.547
G1 X133.901 Y100.876 E1.55397
G1 X134.359 Y101.096 E1.57424
G1 X134.82 Y101.331 E1.5949
G1 X135.401 Y101.65 E1.62135
G1 X135.571 Y101.75 E1.62922
G1 X135.923 Y101.965 E1.64569
G1 X136.184 Y102.132 E1.65805
G1 X136.772 Y102.536 E1.68653
G1 X137.335 Y102.95 E1.71442
G1 X138.183 Y103.641 E1.75808
G1 X138.751 Y104.153 E1.7886
G1 X139.13 Y104.511 E1.80941
G1 X139.496 Y104.888 E1.83038
G1 X139.651 Y105.055 E1.83947
G1 X139.997 Y105.445 E1.86028
G1 X140.256 Y105.752 E1.87631
G1 X140.668 Y106.271 E1.90276
G1 X141.031 Y106.758 E1.927
G1 X141.619 Y107.631 E1.96901
G1 X142.005 Y108.268 E1.99874
G1 X142.515 Y109.212 E2.04156
G1 X142.821 Y109.85 E2.0698
G1 X143.223 Y110.798 E2.1109
G1 X143.457 Y111.432 E2.13788
G1 X143.775 Y112.443 E2.18018
G1 X143.967 Y113.173 E2.2103
G1 X144.193 Y114.245 E2.25403
G1 X144.305 Y114.95 E2.28252
G1 X144.418 Y115.972 E2.32356
G1 X144.462 Y116.658 E2.35099
G1 X144.481 Y117.669 E2.39135
G1 X144.461 Y118.385 E2.41994
G1 X144.377 Y119.468 E2.4633
G1 X144.285 Y120.19 E2.49235
G1 X144.111 Y121.188 E2.53278
G1 X143.974 Y121.804 E2.55797
G1 X143.709 Y122.781 E2.59837
G1 X143.468 Y123.531 E2.62981
G1 X143.083 Y124.551 E2.67332
G1 X142.83 Y125.133 E2.69865
G1 X142.37 Y126.069 E2.74028
G1 X141.987 Y126.762 E2.77188
G1 X141.418 Y127.68 E2.81499
G1 X141.064 Y128.194 E2.8399
G1 X140.423 Y129.036 E2.88213
G1 X139.925 Y129.628 E2.91301
G1 X139.683 Y129.906 E2.92772
G1 X139.593 Y130.006 E2.93309
G1 X139.14 Y130.48 E2.95926
G1 X138.997 Y130.621 E2.96727
G1 X138.637 Y130.96 E2.98701
G1 X138.425 Y131.151 E2.9984
G1 X137.945 Y131.559 E3.02354
G1 X137.399 Y131.997 E3.05148
G1 X136.526 Y132.63 E3.09452
G1 X135.85 Y133.071 E3.12673
G1 X135.372 Y133.366 E3.14915
G1 X134.925 Y133.615 E3.16957
G1 X134.732 Y133.717 E3.17829
G1 X134.286 Y133.94 E3.19819
G1 X133.877 Y134.133 E3.21624
G1 X133.364 Y134.36 E3.23863
G1 X133.162 Y134.443 E3.24734
G1 X132.647 Y134.639 E3.26934
G1 X132.183 Y134.803 E3.28898
G1 X131.612 Y134.988 E3.31294
G1 X131.421 Y135.044 E3.32088
G1 X130.929 Y135.175 E3.3412
G1 X130.461 Y135.289 E3.36043
G1 X129.888 Y135.413 E3.38382
G1 X129.691 Y135.45 E3.39182
G1 X129.135 Y135.54 E3.4143
G1 X128.647 Y135.606 E3.43396
G1 X128.079 Y135.668 E3.45676
G1 X127.849 Y135.687 E3.46598
G1 X127.321 Y135.717 E3.48708
G1 X126.885 Y135.732 E3.50449
G1 X126.324 Y135.737 E3.52689
G1 X126.083 Y135.733 E3.53651
G1 X125.548 Y135.712 E3.55788
G1 X123.982 Y135.608 E3.62052
G1 X123.183 Y135.545 E3.6525
G1 X120.663 Y135.418 E3.75321
G1 X118.175 Y135.364 E3.85254
G1 X115.617 Y135.38 E3.95463
G1 X113.137 Y135.466 E4.05367
G1 X111.119 Y135.586 E4.13436
G1 X109.356 Y135.71 E4.2049
G1 X108.586 Y135.737 E4.23565
G1 X108.295 Y135.737 E4.24726
G1 X107.585 Y135.714 E4.27562
G1 X107.276 Y135.694 E4.28798
G1 X106.59 Y135.628 E4.31548
G1 X105.879 Y135.537 E4.34409
G1 X104.838 Y135.353 E4.38628
G1 X104.125 Y135.191 E4.41547
G1 X103.343 Y134.982 E4.44777
G1 X103.062 Y134.896 E4.4595
G1 X102.446 Y134.688 E4.48545
G1 X102.153 Y134.579 E4.49793
G1 X101.487 Y134.306 E4.52666
G1 X100.827 Y134.01 E4.55553
G1 X99.869 Y133.523 E4.59842
G1 X99.29 Y133.192 E4.62504
G1 X98.373 Y132.606 E4.66847
G1 X97.805 Y132.202 E4.69629
G1 X96.958 Y131.534 E4.73935
G1 X96.448 Y131.09 E4.76633
G1 X95.683 Y130.357 E4.80862
G1 X95.203 Y129.85 E4.83649
G1 X94.489 Y129.016 E4.88031
G1 X94.073 Y128.478 E4.90745
G1 X93.459 Y127.598 E4.95028
G1 X93.093 Y127.015 E4.97775
G1 X92.564 Y126.072 E5.0209
G1 X92.261 Y125.464 E5.04802
G1 X91.833 Y124.491 E5.09044
G1 X91.56 Y123.778 E5.12092
G1 X91.397 Y123.324 E5.14017
G1 X91.372 Y123.249 E5.14332
G1 X91.218 Y122.747 E5.16428
G1 X91.157 Y122.53 E5.17328
G1 X91.036 Y122.057 E5.19276
G1 X90.971 Y121.779 E5.20416
G1 X90.836 Y121.107 E5.23152
G1 X90.721 Y120.426 E5.25908
G1 X90.594 Y119.371 E5.30149
G1 X90.539 Y118.594 E5.33258
G1 X90.512 Y117.777 E5.36521
G1 X90.513 Y117.505 E5.37606
G1 X90.536 Y116.837 E5.40274
G1 X90.556 Y116.527 E5.41514
G1 X90.622 Y115.837 E5.4428
G1 X90.713 Y115.127 E5.47137
G1 X90.897 Y114.088 E5.51349
G1 X91.059 Y113.375 E5.54267
G1 X91.268 Y112.593 E5.57498
G1 X91.354 Y112.312 E5.58671
G1 X91.562 Y111.696 E5.61266
G1 X91.671 Y111.403 E5.62513
G1 X91.944 Y110.738 E5.65382
G1 X92.239 Y110.08 E5.6826
G1 X92.725 Y109.122 E5.72548
G1 X93.057 Y108.541 E5.75219
G1 X93.642 Y107.626 E5.79553
G1 X94.045 Y107.059 E5.8233
G1 X94.716 Y106.208 E5.86655
G1 X95.161 Y105.697 E5.89359
G1 X95.893 Y104.933 E5.93582
G1 X96.4 Y104.453 E5.96369
G0 F3000 X96.675 Y104.744
G1 F1200 X97.481 Y104.054 E6.00604
G1 X98.018 Y103.639 E6.03312
G1 X98.857 Y103.053 E6.07397
G1 X99.439 Y102.687 E6.10141
G1 X100.354 Y102.173 E6.1433
G1 X100.962 Y101.87 E6.17041
G1 X101.894 Y101.46 E6.21105
G1 X102.598 Y101.19 E6.24114
G1 X103.042 Y101.031 E6.25997
G1 X103.129 Y101.002 E6.26363
G1 X103.612 Y100.854 E6.28379
G1 X103.829 Y100.793 E6.29279
G1 X104.276 Y100.677 E6.31122
G1 X104.553 Y100.612 E6.32257
G1 X105.21 Y100.48 E6.34932
G1 X105.891 Y100.365 E6.37688
G1 X106.908 Y100.243 E6.41777
G1 X107.685 Y100.188 E6.44886
G1 X108.198 Y100.165 E6.46935
G1 X108.288 Y100.163 E6.47294
G1 X108.728 Y100.162 E6.49051
G1 X108.986 Y100.167 E6.5008
G1 X109.278 Y100.177 E6.51247
G1 X111.487 Y100.279 E6.60073
G1 X114.004 Y100.329 E6.7012
G1 X116.547 Y100.308 E6.8027
G1 X119.066 Y100.215 E6.90331
G1 X121.586 Y100.052 E7.0041
G1 X124.246 Y99.803 E7.11073
G1 X124.679 Y99.756 E7.12811
G1 X124.959 Y99.73 E7.13934
G1 X125.181 Y99.712 E7.14823
G1 X125.666 Y99.684 E7.16762
G1 X126.122 Y99.668 E7.18583
G1 X126.671 Y99.662 E7.20774
G1 X126.911 Y99.666 E7.21732
G1 X127.431 Y99.688 E7.23809
G1 X127.871 Y99.717 E7.25569
G1 X128.478 Y99.775 E7.28003
G1 X128.72 Y99.805 E7.28976
G1 X129.17 Y99.87 E7.30791
G1 X129.629 Y99.947 E7.32649
G1 X130.132 Y100.044 E7.34693
G1 X130.311 Y100.083 E7.35424
G1 X130.891 Y100.227 E7.3781
G1 X131.377 Y100.362 E7.39823
G1 X131.892 Y100.519 E7.41972
G1 X132.075 Y100.58 E7.42742
G1 X132.582 Y100.763 E7.44893
G1 X133.063 Y100.951 E7.46954
G1 X133.577 Y101.168 E7.49181
G1 X133.736 Y101.24 E7.49877
G1 X134.177 Y101.452 E7.5183
G1 X134.638 Y101.687 E7.53896
G1 X135.198 Y101.994 E7.56445
G1 X135.368 Y102.094 E7.57232
G1 X135.707 Y102.302 E7.58819
G1 X135.968 Y102.469 E7.60056
G1 X136.535 Y102.858 E7.628
G1 X137.098 Y103.272 E7.65589
G1 X137.915 Y103.939 E7.69799
G1 X138.483 Y104.451 E7.72851
G1 X138.85 Y104.797 E7.74864
G1 X139.203 Y105.16 E7.76885
G1 X139.358 Y105.327 E7.77794
G1 X139.691 Y105.703 E7.79799
G1 X139.95 Y106.01 E7.81402
G1 X140.347 Y106.51 E7.8395
G1 X140.71 Y106.997 E7.86375
G1 X141.276 Y107.839 E7.90424
G1 X141.662 Y108.476 E7.93397
G1 X142.155 Y109.385 E7.97524
G1 X142.461 Y110.023 E8.00348
G1 X142.847 Y110.937 E8.04308
G1 X143.081 Y111.571 E8.07005
G1 X143.388 Y112.545 E8.11081
G1 X143.58 Y113.275 E8.14094
G1 X143.798 Y114.308 E8.18308
G1 X143.91 Y115.013 E8.21157
G1 X144.019 Y115.998 E8.25112
G1 X144.063 Y116.684 E8.27856
G1 X144.081 Y117.658 E8.31744
G1 X144.061 Y118.374 E8.34603
G1 X143.98 Y119.418 E8.38782
G1 X143.888 Y120.14 E8.41687
G1 X143.72 Y121.101 E8.45581
G1 X143.583 Y121.717 E8.48099
G1 X143.328 Y122.659 E8.51994
G1 X143.087 Y123.409 E8.55139
G1 X142.716 Y124.392 E8.59332
G1 X142.463 Y124.974 E8.61865
G1 X142.019 Y125.875 E8.65874
G1 X141.636 Y126.568 E8.69034
G1 X141.089 Y127.453 E8.73187
G1 X140.735 Y127.967 E8.75678
G1 X140.117 Y128.779 E8.7975
G1 X139.619 Y129.371 E8.82838
G1 X139.386 Y129.638 E8.84252
G1 X139.296 Y129.738 E8.84789
G1 X138.859 Y130.195 E8.87313
G1 X138.716 Y130.336 E8.88115
G1 X138.369 Y130.663 E8.90018
G1 X138.157 Y130.854 E8.91156
G1 X137.695 Y131.247 E8.93577
G1 X137.149 Y131.685 E8.96371
G1 X136.308 Y132.295 E9.00518
G1 X135.632 Y132.736 E9.03739
G1 X135.171 Y133.02 E9.059
G1 X134.738 Y133.262 E9.0788
G1 X134.545 Y133.364 E9.08751
G1 X134.116 Y133.578 E9.10665
G1 X133.707 Y133.771 E9.1247
G1 X133.212 Y133.99 E9.1463
G1 X133.01 Y134.073 E9.15502
G1 X132.513 Y134.262 E9.17624
G1 X132.049 Y134.426 E9.19588
G1 X131.499 Y134.604 E9.21895
G1 X131.308 Y134.66 E9.2269
G1 X130.835 Y134.787 E9.24644
G1 X130.367 Y134.901 E9.26567
G1 X129.815 Y135.02 E9.28821
G1 X129.618 Y135.057 E9.29621
G1 X129.082 Y135.143 E9.31787
G1 X128.594 Y135.209 E9.33753
G1 X128.046 Y135.269 E9.35953
G1 X127.816 Y135.288 E9.36874
G1 X127.307 Y135.318 E9.38909
G1 X126.871 Y135.333 E9.4065
G1 X126.331 Y135.338 E9.42806
G1 X126.09 Y135.334 E9.43768
G1 X125.574 Y135.312 E9.45829
G1 X124.013 Y135.209 E9.52073
G1 X123.233 Y135.148 E9.55196
G1 X120.656 Y135.018 E9.65494
G1 X118.181 Y134.964 E9.75375
G1 X115.635 Y134.98 E9.85537
G1 X113.059 Y135.069 E9.95824
G1 X111.163 Y135.182 E10.03405
G1 X109.328 Y135.311 E10.10747
G1 X108.586 Y135.337 E10.1371
G1 X108.295 Y135.337 E10.14872
G1 X107.61 Y135.315 E10.17607
G1 X107.301 Y135.295 E10.18843
G1 X106.64 Y135.231 E10.21493
G1 X105.929 Y135.14 E10.24354
G1 X104.926 Y134.963 E10.28419
G1 X104.213 Y134.801 E10.31338
G1 X103.46 Y134.6 E10.34448
G1 X103.179 Y134.514 E10.35621
G1 X102.585 Y134.313 E10.38124
G1 X102.292 Y134.204 E10.39372
G1 X101.65 Y133.941 E10.42141
G1 X100.99 Y133.645 E10.45028
G1 X100.067 Y133.175 E10.49162
G1 X99.488 Y132.844 E10.51823
G1 X98.605 Y132.28 E10.56005
G1 X98.037 Y131.876 E10.58787
G1 X97.221 Y131.233 E10.62934
G1 X96.711 Y130.789 E10.65633
G1 X95.974 Y130.082 E10.69709
G1 X95.494 Y129.575 E10.72495
G1 X94.805 Y128.771 E10.76721
G1 X94.389 Y128.233 E10.79436
G1 X93.797 Y127.385 E10.83563
G1 X93.431 Y126.802 E10.86311
G1 X92.922 Y125.894 E10.90465
G1 X92.619 Y125.286 E10.93177
G1 X92.207 Y124.348 E10.97266
G1 X91.934 Y123.635 E11.00313
G1 X91.777 Y123.197 E11.0217
G1 X91.752 Y123.122 E11.02485
G1 X91.604 Y122.639 E11.04502
G1 X91.543 Y122.422 E11.05401
G1 X91.425 Y121.966 E11.07281
G1 X91.36 Y121.688 E11.08421
G1 X91.23 Y121.04 E11.11059
G1 X91.115 Y120.359 E11.13815
G1 X90.993 Y119.342 E11.17903
G1 X90.938 Y118.565 E11.21012
G1 X90.912 Y117.778 E11.24155
G1 X90.913 Y117.506 E11.25241
G1 X90.935 Y116.863 E11.27808
G1 X90.955 Y116.553 E11.29048
G1 X91.019 Y115.887 E11.31719
G1 X91.11 Y115.177 E11.34576
G1 X91.287 Y114.176 E11.38633
G1 X91.449 Y113.463 E11.41551
G1 X91.65 Y112.71 E11.44662
G1 X91.736 Y112.429 E11.45835
G1 X91.937 Y111.835 E11.48337
G1 X92.046 Y111.542 E11.49585
G1 X92.309 Y110.902 E11.52347
G1 X92.604 Y110.244 E11.55225
G1 X93.073 Y109.321 E11.59357
G1 X93.405 Y108.74 E11.62028
G1 X93.968 Y107.858 E11.66204
G1 X94.371 Y107.291 E11.68981
G1 X95.017 Y106.471 E11.73147
G1 X95.462 Y105.96 E11.75851
G1 X96.168 Y105.224 E11.79922
G1 X96.675 Y104.744 E11.82709
G0 F3000 X96.95 Y105.034
G1 F1200 X97.726 Y104.37 E11.86785
G1 X98.263 Y103.955 E11.89494
G1 X99.07 Y103.391 E11.93423
G1 X99.652 Y103.025 E11.96167
G1 X100.532 Y102.531 E12.00195
G1 X101.14 Y102.228 E12.02906
G1 X102.037 Y101.833 E12.06818
G1 X102.741 Y101.563 E12.09828
G1 X103.168 Y101.41 E12.11638
G1 X103.255 Y101.381 E12.12004
G1 X103.721 Y101.239 E12.13948
G1 X103.938 Y101.178 E12.14848
G1 X104.368 Y101.067 E12.1662
G1 X104.645 Y101.002 E12.17756
G1 X105.277 Y100.874 E12.2033
G1 X105.958 Y100.759 E12.23086
G1 X106.936 Y100.642 E12.27017
G1 X107.713 Y100.587 E12.30126
G1 X108.206 Y100.565 E12.32096
G1 X108.296 Y100.563 E12.32455
G1 X108.721 Y100.562 E12.34152
G1 X108.979 Y100.567 E12.35181
G1 X109.259 Y100.576 E12.363
G1 X111.46 Y100.679 E12.45094
G1 X113.999 Y100.729 E12.55229
G1 X116.565 Y100.708 E12.65471
G1 X119.071 Y100.616 E12.7548
G1 X121.651 Y100.449 E12.85799
G1 X124.252 Y100.205 E12.96226
G1 X124.722 Y100.154 E12.98113
G1 X124.992 Y100.128 E12.99195
G1 X125.214 Y100.11 E13.00084
G1 X125.68 Y100.083 E13.01947
G1 X126.136 Y100.067 E13.03768
G1 X126.664 Y100.062 E13.05876
G1 X126.904 Y100.066 E13.06834
G1 X127.405 Y100.087 E13.08835
G1 X127.845 Y100.116 E13.10595
G1 X128.429 Y100.171 E13.12936
G1 X128.671 Y100.201 E13.13909
G1 X129.104 Y100.265 E13.15656
G1 X129.563 Y100.342 E13.17514
G1 X130.046 Y100.435 E13.19477
G1 X130.225 Y100.474 E13.20208
G1 X130.784 Y100.612 E13.22506
G1 X131.27 Y100.747 E13.2452
G1 X131.766 Y100.898 E13.26589
G1 X131.949 Y100.959 E13.27359
G1 X132.436 Y101.136 E13.29427
G1 X132.917 Y101.324 E13.31488
G1 X133.412 Y101.532 E13.33631
G1 X133.571 Y101.604 E13.34328
G1 X133.995 Y101.809 E13.36208
G1 X134.456 Y102.044 E13.38273
G1 X134.996 Y102.339 E13.40729
G1 X135.166 Y102.439 E13.41516
G1 X135.491 Y102.639 E13.43039
G1 X135.752 Y102.806 E13.44276
G1 X136.298 Y103.181 E13.46919
G1 X136.861 Y103.595 E13.49708
G1 X137.647 Y104.236 E13.53757
G1 X138.215 Y104.748 E13.56809
G1 X138.57 Y105.083 E13.58757
G1 X138.91 Y105.432 E13.60701
G1 X139.065 Y105.599 E13.61611
G1 X139.385 Y105.961 E13.63539
G1 X139.644 Y106.268 E13.65142
G1 X140.026 Y106.749 E13.67594
G1 X140.389 Y107.236 E13.70018
G1 X140.934 Y108.046 E13.73915
G1 X141.32 Y108.683 E13.76887
G1 X141.794 Y109.558 E13.80859
G1 X142.1 Y110.196 E13.83683
G1 X142.472 Y111.075 E13.87493
G1 X142.706 Y111.709 E13.9019
G1 X143.002 Y112.646 E13.94112
G1 X143.194 Y113.376 E13.97125
G1 X143.403 Y114.371 E14.01183
G1 X143.515 Y115.076 E14.04032
G1 X143.62 Y116.023 E14.07835
G1 X143.664 Y116.709 E14.10578
G1 X143.681 Y117.647 E14.14323
G1 X143.661 Y118.363 E14.17181
G1 X143.583 Y119.367 E14.21201
G1 X143.491 Y120.089 E14.24106
G1 X143.33 Y121.014 E14.27853
G1 X143.193 Y121.63 E14.30372
G1 X142.947 Y122.536 E14.34119
G1 X142.706 Y123.286 E14.37263
G1 X142.349 Y124.232 E14.41298
G1 X142.096 Y124.814 E14.43831
G1 X141.669 Y125.682 E14.47692
G1 X141.286 Y126.375 E14.50852
G1 X140.759 Y127.227 E14.54851
G1 X140.405 Y127.741 E14.57342
G1 X139.811 Y128.521 E14.61255
G1 X139.313 Y129.113 E14.64343
G1 X139.089 Y129.37 E14.65703
G1 X138.999 Y129.47 E14.6624
G1 X138.579 Y129.91 E14.68668
G1 X138.436 Y130.051 E14.69469
G1 X138.101 Y130.366 E14.71305
G1 X137.889 Y130.557 E14.72444
G1 X137.445 Y130.935 E14.74771
