;FLAVOR:Marlin
;TIME:6426
;Filament used: 6.07396m
;Layer height: 0.24
;MINX:52.4
;MINY:100.15
;MINZ:0.24
;MAXX:182.6
;MAXY:134.85
;MAXZ:29.9
;Generated with Cura_SteamEngine 4.8.0
M140 S100
M105
M190 S100
M104 S240
M105
M109 S240
M82 ;absolute extrusion mode
; Ender 3 Custom Start G-code
G92 E0 ; Reset Extruder
G28 ; Home all axes
G1 Z2.0 F3000 ; Move Z Axis up little to prevent scratching of Heat Bed
G1 X0.1 Y20 Z0.3 F5000.0 ; Move to start position
G1 X0.1 Y200.0 Z0.3 F1500.0 E15 ; Draw the first line
G1 X0.4 Y200.0 Z0.3 F5000.0 ; Move to side a little
G1 X0.4 Y20 Z0.3 F1500.0 E30 ; Draw the second line
G92 E0 ; Reset Extruder
G1 Z2.0 F3000 ; Move Z Axis up little to prevent scratching of Heat Bed
G1 X5 Y20 Z0.3 F5000.0 ; Move over to prevent blob squish
G92 E0
G92 E0
G1 F2700 E-5
;LAYER_COUNT:96
;LAYER:0
M107
G0 F1200 X54.61 Y100.625 Z0.24
;TYPE:SKIRT
G1 F2700 E0
G1 F1200 X55.118 Y100.394 E0.0522
G1 X55.654 Y100.238 E0.10442
G1 X56.476 Y100.15 E0.18176
G1 X178.524 Y100.15 E11.59863
G1 X179.081 Y100.19 E11.65087
G1 X179.626 Y100.309 E11.70305
G1 X180.149 Y100.505 E11.7553
G1 X180.638 Y100.773 E11.80746
G1 X181.282 Y101.292 E11.88483
G1 X181.458 Y101.468 E11.90811
G1 X181.823 Y101.89 E11.96031
G1 X182.125 Y102.36 E12.01257
G1 X182.356 Y102.868 E12.06477
G1 X182.512 Y103.404 E12.11699
G1 X182.6 Y104.226 E12.19432
G1 X182.6 Y130.774 E14.67773
G1 X182.56 Y131.331 E14.72997
G1 X182.441 Y131.876 E14.78215
G1 X182.245 Y132.399 E14.8344
G1 X181.977 Y132.888 E14.88656
G1 X181.458 Y133.532 E14.96393
G1 X181.282 Y133.708 E14.98721
G1 X180.86 Y134.073 E15.03941
G1 X180.39 Y134.375 E15.09167
G1 X179.882 Y134.606 E15.14387
G1 X179.346 Y134.762 E15.19609
G1 X178.524 Y134.85 E15.27342
G1 X56.476 Y134.85 E26.6903
G1 X55.919 Y134.81 E26.74253
G1 X55.374 Y134.691 E26.79472
G1 X54.851 Y134.495 E26.84696
G1 X54.362 Y134.227 E26.89913
G1 X53.718 Y133.708 E26.9765
G1 X53.542 Y133.532 E26.99978
G1 X53.177 Y133.11 E27.05197
G1 X52.875 Y132.64 E27.10423
G1 X52.644 Y132.132 E27.15644
G1 X52.488 Y131.596 E27.20866
G1 X52.4 Y130.774 E27.28599
G1 X52.4 Y104.226 E29.7694
G1 X52.44 Y103.669 E29.82164
G1 X52.559 Y103.124 E29.87382
G1 X52.755 Y102.601 E29.92606
G1 X53.023 Y102.112 E29.97823
G1 X53.542 Y101.468 E30.0556
G1 X53.718 Y101.292 E30.07888
G1 X54.14 Y100.927 E30.13107
G1 X54.61 Y100.625 E30.18333
G0 X54.97 Y101.114
G1 X55.444 Y100.916 E30.23139
G1 X55.942 Y100.793 E30.27937
G1 X56.476 Y100.75 E30.32949
G1 X178.524 Y100.75 E41.74636
G1 X179.036 Y100.79 E41.7944
G1 X179.535 Y100.909 E41.84239
G1 X180.01 Y101.104 E41.89042
G1 X180.449 Y101.37 E41.93844
G1 X180.857 Y101.717 E41.98854
G1 X181.033 Y101.893 E42.01182
G1 X181.367 Y102.283 E42.05985
G1 X181.636 Y102.72 E42.10786
G1 X181.834 Y103.194 E42.15591
G1 X181.957 Y103.692 E42.20389
G1 X182 Y104.226 E42.25401
G1 X182 Y130.774 E44.73742
G1 X181.96 Y131.286 E44.78546
G1 X181.841 Y131.785 E44.83345
G1 X181.646 Y132.26 E44.88148
G1 X181.38 Y132.699 E44.92949
G1 X181.033 Y133.107 E44.9796
G1 X180.857 Y133.283 E45.00288
G1 X180.467 Y133.617 E45.05091
G1 X180.03 Y133.886 E45.09892
G1 X179.556 Y134.084 E45.14697
G1 X179.058 Y134.207 E45.19495
G1 X178.524 Y134.25 E45.24507
G1 X56.476 Y134.25 E56.66194
G1 X55.964 Y134.21 E56.70998
G1 X55.465 Y134.091 E56.75797
G1 X54.99 Y133.896 E56.806
G1 X54.551 Y133.63 E56.85402
G1 X54.143 Y133.283 E56.90412
G1 X53.967 Y133.107 E56.9274
G1 X53.633 Y132.717 E56.97544
G1 X53.364 Y132.28 E57.02344
G1 X53.166 Y131.806 E57.07149
G1 X53.043 Y131.308 E57.11948
G1 X53 Y130.774 E57.16959
G1 X53 Y104.226 E59.653
G1 X53.04 Y103.714 E59.70104
G1 X53.159 Y103.215 E59.74903
G1 X53.354 Y102.74 E59.79706
G1 X53.62 Y102.301 E59.84508
G1 X53.967 Y101.893 E59.89518
G1 X54.143 Y101.717 E59.91846
G1 X54.533 Y101.383 E59.9665
G1 X54.97 Y101.114 E60.0145
G0 X55.323 Y101.608
G1 X55.759 Y101.447 E60.05798
G1 X56.215 Y101.363 E60.10135
G1 X56.476 Y101.35 E60.1258
G1 X178.524 Y101.35 E71.54267
G1 X178.987 Y101.39 E71.58614
G1 X179.436 Y101.509 E71.62959
G1 X179.858 Y101.702 E71.673
G1 X180.24 Y101.965 E71.71639
G1 X180.433 Y102.141 E71.74082
G1 X180.609 Y102.317 E71.7641
G1 X180.908 Y102.672 E71.80752
G1 X181.142 Y103.073 E71.85095
G1 X181.303 Y103.509 E71.89443
G1 X181.387 Y103.965 E71.9378
G1 X181.4 Y104.226 E71.96225
G1 X181.4 Y130.774 E74.44566
G1 X181.36 Y131.237 E74.48913
G1 X181.241 Y131.686 E74.53258
G1 X181.048 Y132.108 E74.57599
G1 X180.785 Y132.49 E74.61937
G1 X180.609 Y132.683 E74.64381
G1 X180.433 Y132.859 E74.66709
G1 X180.078 Y133.158 E74.71051
G1 X179.677 Y133.392 E74.75394
G1 X179.241 Y133.553 E74.79741
G1 X178.785 Y133.637 E74.84079
G1 X178.524 Y133.65 E74.86523
G1 X56.476 Y133.65 E86.28211
G1 X56.013 Y133.61 E86.32558
G1 X55.564 Y133.491 E86.36903
G1 X55.142 Y133.298 E86.41244
G1 X54.76 Y133.035 E86.45582
G1 X54.567 Y132.859 E86.48026
G1 X54.391 Y132.683 E86.50354
G1 X54.092 Y132.328 E86.54696
G1 X53.858 Y131.927 E86.59039
G1 X53.697 Y131.491 E86.63387
G1 X53.613 Y131.035 E86.67724
G1 X53.6 Y130.774 E86.70168
G1 X53.6 Y104.226 E89.18509
G1 X53.64 Y103.763 E89.22857
G1 X53.759 Y103.314 E89.27202
G1 X53.952 Y102.892 E89.31543
G1 X54.215 Y102.51 E89.35881
G1 X54.391 Y102.317 E89.38324
G1 X54.567 Y102.141 E89.40653
G1 X54.922 Y101.842 E89.44994
G1 X55.323 Y101.608 E89.49338
G0 X55.307 Y102.305
G1 X55.668 Y102.112 E89.53167
G1 X56.06 Y101.992 E89.57002
G1 X56.476 Y101.95 E89.60913
G1 X178.524 Y101.95 E101.026
G1 X178.931 Y101.99 E101.06426
G1 X179.323 Y102.108 E101.10255
G1 X179.685 Y102.3 E101.14089
G1 X180.009 Y102.565 E101.18004
G1 X180.185 Y102.741 E101.20332
G1 X180.445 Y103.057 E101.2416
G1 X180.638 Y103.418 E101.2799
G1 X180.758 Y103.81 E101.31824
G1 X180.8 Y104.226 E101.35736
G1 X180.8 Y130.774 E103.84077
G1 X180.76 Y131.181 E103.87902
G1 X180.642 Y131.573 E103.91732
G1 X180.45 Y131.935 E103.95565
G1 X180.185 Y132.259 E103.9948
G1 X180.009 Y132.435 E104.01809
G1 X179.693 Y132.695 E104.05637
G1 X179.332 Y132.888 E104.09466
G1 X178.94 Y133.008 E104.13301
G1 X178.524 Y133.05 E104.17212
G1 X56.476 Y133.05 E115.58899
G1 X56.069 Y133.01 E115.62725
G1 X55.677 Y132.892 E115.66554
G1 X55.315 Y132.7 E115.70387
G1 X54.991 Y132.435 E115.74303
G1 X54.815 Y132.259 E115.76631
G1 X54.555 Y131.943 E115.80459
G1 X54.362 Y131.582 E115.84288
G1 X54.242 Y131.19 E115.88123
G1 X54.2 Y130.774 E115.92035
G1 X54.2 Y104.226 E118.40376
G1 X54.24 Y103.819 E118.44201
G1 X54.358 Y103.427 E118.48031
G1 X54.55 Y103.065 E118.51864
G1 X54.815 Y102.741 E118.55779
G1 X54.991 Y102.565 E118.58108
G1 X55.307 Y102.305 E118.61935
G0 X55.686 Y102.775
G1 X56 Y102.628 E118.65179
G1 X56.476 Y102.55 E118.69691
G1 X178.524 Y102.55 E130.11378
G1 X178.868 Y102.59 E130.14618
G1 X179.193 Y102.707 E130.17849
G1 X179.585 Y102.989 E130.22366
G1 X179.761 Y103.165 E130.24695
G1 X179.975 Y103.436 E130.27925
G1 X180.122 Y103.75 E130.31168
G1 X180.2 Y104.226 E130.3568
G1 X180.2 Y130.774 E132.84021
G1 X180.16 Y131.118 E132.87261
G1 X180.043 Y131.443 E132.90492
G1 X179.761 Y131.835 E132.95009
G1 X179.585 Y132.011 E132.97337
G1 X179.314 Y132.225 E133.00567
G1 X179 Y132.372 E133.03811
G1 X178.524 Y132.45 E133.08323
G1 X56.476 Y132.45 E144.5001
G1 X56.132 Y132.41 E144.5325
G1 X55.807 Y132.293 E144.56481
G1 X55.415 Y132.011 E144.60998
G1 X55.239 Y131.835 E144.63326
G1 X55.025 Y131.564 E144.66557
G1 X54.878 Y131.25 E144.698
G1 X54.8 Y130.774 E144.74312
G1 X54.8 Y104.226 E147.22653
G1 X54.84 Y103.882 E147.25892
G1 X54.957 Y103.557 E147.29124
G1 X55.239 Y103.165 E147.33641
G1 X55.415 Y102.989 E147.35969
G1 X55.686 Y102.775 E147.39199
G0 X56.055 Y103.255
G1 X56.307 Y103.166 E147.41699
G1 X56.476 Y103.15 E147.43287
G1 X178.524 Y103.15 E158.84975
G1 X178.789 Y103.19 E158.87482
G1 X179.03 Y103.306 E158.89984
G1 X179.336 Y103.59 E158.93889
G1 X179.495 Y103.805 E158.9639
G1 X179.584 Y104.057 E158.9889
G1 X179.6 Y104.226 E159.00478
G1 X179.6 Y130.774 E161.48819
G1 X179.56 Y131.039 E161.51326
G1 X179.444 Y131.28 E161.53828
G1 X179.16 Y131.586 E161.57734
G1 X178.945 Y131.745 E161.60235
G1 X178.693 Y131.834 E161.62735
G1 X178.524 Y131.85 E161.64323
G1 X56.476 Y131.85 E173.0601
G1 X56.211 Y131.81 E173.08517
G1 X55.97 Y131.694 E173.11019
G1 X55.664 Y131.41 E173.14925
G1 X55.505 Y131.195 E173.17426
G1 X55.416 Y130.943 E173.19926
G1 X55.4 Y130.774 E173.21514
G1 X55.4 Y104.226 E175.69855
G1 X55.44 Y103.961 E175.72362
G1 X55.556 Y103.72 E175.74864
G1 X55.84 Y103.414 E175.78769
G1 X56.055 Y103.255 E175.81271
G0 X56.397 Y103.761
G1 X56.476 Y103.75 E175.82017
G1 X178.524 Y103.75 E187.23704
G1 X178.736 Y103.838 E187.25851
G1 X178.989 Y104.147 E187.29587
G1 X179 Y104.226 E187.30333
G1 X179 Y130.774 E189.78674
G1 X178.912 Y130.986 E189.80822
G1 X178.603 Y131.239 E189.84557
G1 X178.524 Y131.25 E189.85303
G1 X56.476 Y131.25 E201.26991
G1 X56.264 Y131.162 E201.29138
G1 X56.011 Y130.853 E201.32874
G1 X56 Y130.774 E201.3362
G1 X56 Y104.226 E203.81961
G1 X56.088 Y104.014 E203.84108
G1 X56.397 Y103.761 E203.87844
;MESH:Case.stl
G0 X56.6 Y104.35
;TYPE:WALL-OUTER
G1 X178.4 Y104.35 E212.99338
G1 X178.4 Y130.65 E214.96155
G1 X56.6 Y130.65 E224.07649
G1 X56.6 Y104.35 E226.04466
G1 F2700 E221.04466
G0 F1200 X56.87 Y104.65
G0 X62 Y105.76
G0 X62 Y108.36
G0 X62 Y109.45
G0 X62 Y109.75
G1 F2700 E226.04466
G1 F1200 X62 Y125.25 E227.2046
G1 X173 Y125.25 E235.51132
G1 X173 Y109.75 E236.67127
G1 X62 Y109.75 E244.97799
G0 X61.4 Y109.15
;TYPE:WALL-INNER
G1 X61.4 Y125.85 E246.22774
G1 X173.6 Y125.85 E254.62426
G1 X173.6 Y109.15 E255.87401
G1 X61.4 Y109.15 E264.27053
G0 X60.8 Y108.55
G1 X60.8 Y126.45 E265.61008
G1 X174.2 Y126.45 E274.09641
G1 X174.2 Y108.55 E275.43596
G1 X60.8 Y108.55 E283.92228
G1 F2700 E278.92228
G0 F1200 X60.604 Y108.354
G0 X60.604 Y105.76
G0 X57.2 Y104.95
G1 F2700 E283.92228
G1 F1200 X177.8 Y104.95 E292.94742
G1 X177.8 Y130.05 E294.82578
G1 X57.2 Y130.05 E303.85092
G1 X57.2 Y104.95 E305.72929
G0 X57.8 Y105.55
G1 X177.2 Y105.55 E314.66462
G1 X177.2 Y129.45 E316.45319
G1 X57.8 Y129.45 E325.38852
G1 X57.8 Y105.55 E327.17709
G1 F2700 E322.17709
G0 F1200 X58.01 Y108.44
G0 X60.61 Y108.44
G0 X59.64 Y107.39
;TYPE:SKIN
G1 F2700 E327.17709
G1 F1200 X59.64 Y127.61 E328.69026
G1 X175.36 Y127.61 E337.3502
G1 X175.36 Y107.39 E338.86337
G1 X59.64 Y107.39 E347.52331
G0 X60.24 Y107.99
G1 X60.24 Y127.01 E348.94668
G1 X174.76 Y127.01 E357.51681
G1 X174.76 Y107.99 E358.94018
G1 X60.24 Y107.99 E367.51032
G1 F2700 E362.51032
G0 F1200 X60.66 Y108.44
G0 X60.604 Y105.76
G0 X58.96 Y105.66
G0 X58.96 Y106.71
G1 F2700 E367.51032
G1 F1200 X176.04 Y106.71 E376.27204
G1 X176.04 Y128.29 E377.88698
G1 X58.96 Y128.29 E386.6487
G1 X58.96 Y106.71 E388.26365
G0 X58.36 Y106.11
G1 X176.64 Y106.11 E397.11517
G1 X176.64 Y128.89 E398.81992
G1 X58.36 Y128.89 E407.67144
G1 X58.36 Y106.11 E409.37618
G0 X58.36 Y105.66
G0 X57.982 Y105.732
G0 X57.91 Y107.035
G0 X59.235 Y107.035
;TYPE:SKIN
G1 X59.365 Y107.165 E409.38077
G0 X59.235 Y107.318
G1 X59.365 Y107.448 E409.38536
G0 X59.235 Y107.601
G1 X59.365 Y107.731 E409.38994
G0 X59.235 Y107.883
G1 X59.365 Y108.014 E409.39455
G0 X59.235 Y108.166
G1 X59.365 Y108.296 E409.39913
G0 X59.235 Y108.449
G1 X59.365 Y108.579 E409.40372
G0 X59.235 Y108.732
G1 X59.365 Y108.862 E409.4083
G0 X59.235 Y109.015
G1 X59.365 Y109.145 E409.41289
G0 X59.235 Y109.298
G1 X59.365 Y109.428 E409.41748
G0 X59.235 Y109.581
G1 X59.365 Y109.711 E409.42206
G0 X59.235 Y109.863
G1 X59.365 Y109.993 E409.42665
G0 X59.235 Y110.146
G1 X59.365 Y110.276 E409.43123
G0 X59.235 Y110.429
G1 X59.365 Y110.559 E409.43582
G0 X59.235 Y110.712
G1 X59.365 Y110.842 E409.44041
G0 X59.235 Y110.995
G1 X59.365 Y111.125 E409.44499
G0 X59.235 Y111.278
G1 X59.365 Y111.408 E409.44958
G0 X59.235 Y111.56
G1 X59.365 Y111.691 E409.45418
G0 X59.235 Y111.843
G1 X59.365 Y111.973 E409.45877
G0 X59.235 Y112.126
G1 X59.365 Y112.256 E409.46336
G0 X59.235 Y112.409
G1 X59.365 Y112.539 E409.46794
G0 X59.235 Y112.692
G1 X59.365 Y112.822 E409.47253
G0 X59.235 Y112.975
G1 X59.365 Y113.105 E409.47711
G0 X59.235 Y113.258
G1 X59.365 Y113.388 E409.4817
G0 X59.235 Y113.54
G1 X59.365 Y113.67 E409.48629
G0 X59.235 Y113.823
G1 X59.365 Y113.953 E409.49087
G0 X59.235 Y114.106
G1 X59.365 Y114.236 E409.49546
G0 X59.235 Y114.389
G1 X59.365 Y114.519 E409.50004
G0 X59.235 Y114.672
G1 X59.365 Y114.802 E409.50463
G0 X59.235 Y114.955
G1 X59.365 Y115.085 E409.50922
G0 X59.235 Y115.237
G1 X59.365 Y115.368 E409.51382
G0 X59.235 Y115.52
G1 X59.365 Y115.65 E409.51841
G0 X59.235 Y115.803
G1 X59.365 Y115.933 E409.52299
G0 X59.235 Y116.086
G1 X59.365 Y116.216 E409.52758
G0 X59.235 Y116.369
G1 X59.365 Y116.499 E409.53216
G0 X59.235 Y116.652
G1 X59.365 Y116.782 E409.53675
G0 X59.235 Y116.934
G1 X59.365 Y117.065 E409.54135
G0 X59.235 Y117.217
G1 X59.365 Y117.347 E409.54594
G0 X59.235 Y117.5
G1 X59.365 Y117.63 E409.55053
G0 X59.235 Y117.783
G1 X59.365 Y117.913 E409.55511
G0 X59.235 Y118.066
G1 X59.365 Y118.196 E409.5597
G0 X59.235 Y118.349
G1 X59.365 Y118.479 E409.56428
G0 X59.235 Y118.632
G1 X59.365 Y118.762 E409.56887
G0 X59.235 Y118.914
G1 X59.365 Y119.044 E409.57346
G0 X59.235 Y119.197
G1 X59.365 Y119.327 E409.57804
G0 X59.235 Y119.48
G1 X59.365 Y119.61 E409.58263
G0 X59.235 Y119.763
G1 X59.365 Y119.893 E409.58722
G0 X59.235 Y120.046
G1 X59.365 Y120.176 E409.5918
G0 X59.235 Y120.329
G1 X59.365 Y120.459 E409.59639
G0 X59.235 Y120.611
G1 X59.365 Y120.742 E409.60099
G0 X59.235 Y120.894
G1 X59.365 Y121.024 E409.60558
G0 X59.235 Y121.177
G1 X59.365 Y121.307 E409.61016
G0 X59.235 Y121.46
G1 X59.365 Y121.59 E409.61475
G0 X59.235 Y121.743
G1 X59.365 Y121.873 E409.61934
G0 X59.235 Y122.026
G1 X59.365 Y122.156 E409.62392
G0 X59.235 Y122.308
G1 X59.365 Y122.439 E409.62853
G0 X59.235 Y122.591
G1 X59.365 Y122.721 E409.63311
G0 X59.235 Y122.874
G1 X59.365 Y123.004 E409.6377
G0 X59.235 Y123.157
G1 X59.365 Y123.287 E409.64228
G0 X59.235 Y123.44
G1 X59.365 Y123.57 E409.64687
G0 X59.235 Y123.723
G1 X59.365 Y123.853 E409.65146
G0 X59.235 Y124.006
G1 X59.365 Y124.136 E409.65604
G0 X59.235 Y124.288
G1 X59.365 Y124.418 E409.66063
G0 X59.235 Y124.571
G1 X59.365 Y124.701 E409.66521
G0 X59.235 Y124.854
G1 X59.365 Y124.984 E409.6698
G0 X59.235 Y125.137
G1 X59.365 Y125.267 E409.67439
G0 X59.235 Y125.42
G1 X59.365 Y125.55 E409.67897
G0 X59.235 Y125.703
G1 X59.365 Y125.833 E409.68356
G0 X59.235 Y125.985
G1 X59.365 Y126.116 E409.68816
G0 X59.235 Y126.268
G1 X59.365 Y126.398 E409.69275
G0 X59.235 Y126.551
G1 X59.365 Y126.681 E409.69733
G0 X59.235 Y126.834
G1 X59.365 Y126.964 E409.70192
G0 X59.235 Y127.117
G1 X59.365 Y127.247 E409.70651
G0 X59.235 Y127.4
G1 X59.365 Y127.53 E409.71109
G0 X59.235 Y127.682
G1 X59.365 Y127.813 E409.7157
G0 X59.436 Y127.884
G1 X59.565 Y128.013 E409.72025
G0 X59.719 Y127.884
G1 X59.848 Y128.013 E409.7248
G0 X60.002 Y127.884
G1 X60.131 Y128.013 E409.72935
G0 X60.285 Y127.884
G1 X60.414 Y128.013 E409.7339
G0 X60.567 Y127.884
G1 X60.697 Y128.013 E409.73847
G0 X60.85 Y127.884
G1 X60.98 Y128.013 E409.74304
G0 X61.133 Y127.884
G1 X61.263 Y128.013 E409.74761
G0 X61.416 Y127.884
G1 X61.545 Y128.013 E409.75216
G0 X61.699 Y127.884
G1 X61.828 Y128.013 E409.75671
G0 X61.982 Y127.884
G1 X62.111 Y128.013 E409.76126
G0 X62.264 Y127.884
G1 X62.394 Y128.013 E409.76583
G0 X62.547 Y127.884
G1 X62.677 Y128.013 E409.77039
G0 X62.83 Y127.884
G1 X62.96 Y128.013 E409.77496
G0 X63.113 Y127.884
G1 X63.242 Y128.013 E409.77951
G0 X63.396 Y127.884
G1 X63.525 Y128.013 E409.78407
G0 X63.679 Y127.884
G1 X63.808 Y128.013 E409.78862
G0 X63.962 Y127.884
G1 X64.091 Y128.013 E409.79317
G0 X64.244 Y127.884
G1 X64.374 Y128.013 E409.79774
G0 X64.527 Y127.884
G1 X64.657 Y128.013 E409.8023
G0 X64.81 Y127.884
G1 X64.939 Y128.013 E409.80685
G0 X65.093 Y127.884
G1 X65.222 Y128.013 E409.81141
G0 X65.376 Y127.884
G1 X65.505 Y128.013 E409.81596
G0 X65.659 Y127.884
G1 X65.788 Y128.013 E409.82051
G0 X65.941 Y127.884
G1 X66.071 Y128.013 E409.82508
G0 X66.224 Y127.884
G1 X66.354 Y128.013 E409.82964
G0 X66.507 Y127.884
G1 X66.637 Y128.013 E409.83421
G0 X66.79 Y127.884
G1 X66.919 Y128.013 E409.83876
G0 X67.073 Y127.884
G1 X67.202 Y128.013 E409.84331
G0 X67.356 Y127.884
G1 X67.485 Y128.013 E409.84786
G0 X67.639 Y127.884
G1 X67.768 Y128.013 E409.85242
G0 X67.921 Y127.884
G1 X68.051 Y128.013 E409.85698
