;FLAVOR:Marlin
;TIME:10548
;Filament used: 4.94028m
;Layer height: 0.16
;MINX:53.222
;MINY:101.434
;MINZ:0.2
;MAXX:181.778
;MAXY:133.914
;MAXZ:27.32
;Generated with Cura_SteamEngine 4.8.0
M140 S100
M105
M190 S100
M104 S240
M105
M109 S240
M82 ;absolute extrusion mode
; Ender 3 Custom Start G-code
G92 E0 ; Reset Extruder
G28 ; Home all axes
G1 Z2.0 F3000 ; Move Z Axis up little to prevent scratching of Heat Bed
G1 X0.1 Y20 Z0.3 F5000.0 ; Move to start position
G1 X0.1 Y200.0 Z0.3 F1500.0 E15 ; Draw the first line
G1 X0.4 Y200.0 Z0.3 F5000.0 ; Move to side a little
G1 X0.4 Y20 Z0.3 F1500.0 E30 ; Draw the second line
G92 E0 ; Reset Extruder
G1 Z2.0 F3000 ; Move Z Axis up little to prevent scratching of Heat Bed
G1 X5 Y20 Z0.3 F5000.0 ; Move over to prevent blob squish
G92 E0
G92 E0
G1 F2700 E-5
;LAYER_COUNT:159
;LAYER:0
M107
G0 F1200 X55.666 Y101.909 Z0.2
;TYPE:SKIRT
G1 F2700 E0
G1 F1200 X56.174 Y101.678 E0.0435
G1 X56.71 Y101.522 E0.08702
G1 X57.532 Y101.434 E0.15146
G1 X177.468 Y101.434 E9.50089
G1 X178.025 Y101.474 E9.54442
G1 X178.57 Y101.593 E9.5879
G1 X179.093 Y101.789 E9.63144
G1 X179.582 Y102.057 E9.67491
G1 X180.226 Y102.576 E9.73939
G1 X180.636 Y102.986 E9.78459
G1 X181.001 Y103.408 E9.82808
G1 X181.303 Y103.878 E9.87163
G1 X181.534 Y104.386 E9.91513
G1 X181.69 Y104.922 E9.95865
G1 X181.778 Y105.744 E10.02309
G1 X181.778 Y129.604 E11.88306
G1 X181.738 Y130.161 E11.92659
G1 X181.619 Y130.706 E11.97008
G1 X181.423 Y131.229 E12.01362
G1 X181.155 Y131.718 E12.05709
G1 X180.636 Y132.362 E12.12156
G1 X180.226 Y132.772 E12.16676
G1 X179.804 Y133.137 E12.21026
G1 X179.334 Y133.439 E12.25381
G1 X178.826 Y133.67 E12.29731
G1 X178.29 Y133.826 E12.34083
G1 X177.468 Y133.914 E12.40527
G1 X57.532 Y133.914 E21.75469
G1 X56.975 Y133.874 E21.79822
G1 X56.43 Y133.755 E21.84171
G1 X55.907 Y133.559 E21.88525
G1 X55.418 Y133.291 E21.92872
G1 X54.774 Y132.772 E21.99319
G1 X54.364 Y132.362 E22.03839
G1 X53.999 Y131.94 E22.08189
G1 X53.697 Y131.47 E22.12544
G1 X53.466 Y130.962 E22.16894
G1 X53.31 Y130.426 E22.21246
G1 X53.222 Y129.604 E22.2769
G1 X53.222 Y105.744 E24.13687
G1 X53.262 Y105.187 E24.1804
G1 X53.381 Y104.642 E24.22389
G1 X53.577 Y104.119 E24.26742
G1 X53.845 Y103.63 E24.31089
G1 X54.364 Y102.986 E24.37537
G1 X54.774 Y102.576 E24.42057
G1 X55.196 Y102.211 E24.46406
G1 X55.666 Y101.909 E24.50761
G0 X56.026 Y102.398
G1 X56.5 Y102.2 E24.54766
G1 X56.998 Y102.077 E24.58764
G1 X57.532 Y102.034 E24.62941
G1 X177.468 Y102.034 E33.97883
G1 X177.98 Y102.074 E34.01886
G1 X178.479 Y102.193 E34.05885
G1 X178.954 Y102.388 E34.09888
G1 X179.393 Y102.654 E34.13889
G1 X179.801 Y103.001 E34.18065
G1 X180.211 Y103.411 E34.22584
G1 X180.545 Y103.801 E34.26587
G1 X180.814 Y104.238 E34.30587
G1 X181.012 Y104.712 E34.34592
G1 X181.135 Y105.21 E34.38591
G1 X181.178 Y105.744 E34.42767
G1 X181.178 Y129.604 E36.28764
G1 X181.138 Y130.116 E36.32767
G1 X181.019 Y130.615 E36.36766
G1 X180.824 Y131.09 E36.40769
G1 X180.558 Y131.529 E36.4477
G1 X180.211 Y131.937 E36.48945
G1 X179.801 Y132.347 E36.53465
G1 X179.411 Y132.681 E36.57468
G1 X178.974 Y132.95 E36.61468
G1 X178.5 Y133.148 E36.65473
G1 X178.002 Y133.271 E36.69471
G1 X177.468 Y133.314 E36.73647
G1 X57.532 Y133.314 E46.0859
G1 X57.02 Y133.274 E46.12593
G1 X56.521 Y133.155 E46.16592
G1 X56.046 Y132.96 E46.20595
G1 X55.607 Y132.694 E46.24596
G1 X55.199 Y132.347 E46.28771
G1 X54.789 Y131.937 E46.33291
G1 X54.455 Y131.547 E46.37294
G1 X54.186 Y131.11 E46.41294
G1 X53.988 Y130.636 E46.45299
G1 X53.865 Y130.138 E46.49298
G1 X53.822 Y129.604 E46.53474
G1 X53.822 Y105.744 E48.39471
G1 X53.862 Y105.232 E48.43474
G1 X53.981 Y104.733 E48.47473
G1 X54.176 Y104.258 E48.51476
G1 X54.442 Y103.819 E48.55477
G1 X54.789 Y103.411 E48.59652
G1 X55.199 Y103.001 E48.64172
G1 X55.589 Y102.667 E48.68175
G1 X56.026 Y102.398 E48.72175
G0 X56.379 Y102.892
G1 X56.815 Y102.731 E48.75798
G1 X57.271 Y102.647 E48.79413
G1 X57.532 Y102.634 E48.8145
G1 X177.468 Y102.634 E58.16392
G1 X177.931 Y102.674 E58.20015
G1 X178.38 Y102.793 E58.23636
G1 X178.802 Y102.986 E58.27253
G1 X179.184 Y103.249 E58.30869
G1 X179.377 Y103.425 E58.32905
G1 X179.787 Y103.835 E58.37425
G1 X180.086 Y104.19 E58.41043
G1 X180.32 Y104.591 E58.44662
G1 X180.481 Y105.027 E58.48285
G1 X180.565 Y105.483 E58.519
G1 X180.578 Y105.744 E58.53937
G1 X180.578 Y129.604 E60.39934
G1 X180.538 Y130.067 E60.43556
G1 X180.419 Y130.516 E60.47177
G1 X180.226 Y130.938 E60.50795
G1 X179.963 Y131.32 E60.5441
G1 X179.787 Y131.513 E60.56446
G1 X179.377 Y131.923 E60.60966
G1 X179.022 Y132.222 E60.64584
G1 X178.621 Y132.456 E60.68203
G1 X178.185 Y132.617 E60.71826
G1 X177.729 Y132.701 E60.75441
G1 X177.468 Y132.714 E60.77478
G1 X57.532 Y132.714 E70.1242
G1 X57.069 Y132.674 E70.16043
G1 X56.62 Y132.555 E70.19664
G1 X56.198 Y132.362 E70.23281
G1 X55.816 Y132.099 E70.26897
G1 X55.623 Y131.923 E70.28933
G1 X55.213 Y131.513 E70.33453
G1 X54.914 Y131.158 E70.37071
G1 X54.68 Y130.757 E70.4069
G1 X54.519 Y130.321 E70.44313
G1 X54.435 Y129.865 E70.47928
G1 X54.422 Y129.604 E70.49965
G1 X54.422 Y105.744 E72.35962
G1 X54.462 Y105.281 E72.39584
G1 X54.581 Y104.832 E72.43205
G1 X54.774 Y104.41 E72.46823
G1 X55.037 Y104.028 E72.50438
G1 X55.213 Y103.835 E72.52474
G1 X55.623 Y103.425 E72.56994
G1 X55.978 Y103.126 E72.60612
G1 X56.379 Y102.892 E72.64232
G0 X56.363 Y103.589
G1 X56.724 Y103.396 E72.67423
G1 X57.116 Y103.276 E72.70618
G1 X57.532 Y103.234 E72.73878
G1 X177.468 Y103.234 E82.0882
G1 X177.875 Y103.274 E82.12008
G1 X178.267 Y103.392 E82.15199
G1 X178.629 Y103.584 E82.18394
G1 X178.953 Y103.849 E82.21656
G1 X179.363 Y104.259 E82.26176
G1 X179.623 Y104.575 E82.29366
G1 X179.816 Y104.936 E82.32557
G1 X179.936 Y105.328 E82.35753
G1 X179.978 Y105.744 E82.39013
G1 X179.978 Y129.604 E84.25009
G1 X179.938 Y130.011 E84.28197
G1 X179.82 Y130.403 E84.31389
G1 X179.628 Y130.765 E84.34583
G1 X179.363 Y131.089 E84.37846
G1 X178.953 Y131.499 E84.42366
G1 X178.637 Y131.759 E84.45556
G1 X178.276 Y131.952 E84.48747
G1 X177.884 Y132.072 E84.51943
G1 X177.468 Y132.114 E84.55202
G1 X57.532 Y132.114 E93.90144
G1 X57.125 Y132.074 E93.93332
G1 X56.733 Y131.956 E93.96524
G1 X56.371 Y131.764 E93.99718
G1 X56.047 Y131.499 E94.02981
G1 X55.637 Y131.089 E94.07501
G1 X55.377 Y130.773 E94.10691
G1 X55.184 Y130.412 E94.13882
G1 X55.064 Y130.02 E94.17077
G1 X55.022 Y129.604 E94.20337
G1 X55.022 Y105.744 E96.06334
G1 X55.062 Y105.337 E96.09522
G1 X55.18 Y104.945 E96.12713
G1 X55.372 Y104.583 E96.15907
G1 X55.637 Y104.259 E96.1917
G1 X56.047 Y103.849 E96.2369
G1 X56.363 Y103.589 E96.2688
G0 X56.742 Y104.059
G1 X57.056 Y103.912 E96.29583
G1 X57.532 Y103.834 E96.33343
G1 X177.468 Y103.834 E105.68285
G1 X177.812 Y103.874 E105.70985
G1 X178.137 Y103.991 E105.73677
G1 X178.529 Y104.273 E105.77442
G1 X178.939 Y104.683 E105.81962
G1 X179.153 Y104.954 E105.84654
G1 X179.3 Y105.268 E105.87356
G1 X179.378 Y105.744 E105.91116
G1 X179.378 Y129.604 E107.77113
G1 X179.338 Y129.948 E107.79813
G1 X179.221 Y130.273 E107.82506
G1 X178.939 Y130.665 E107.8627
G1 X178.529 Y131.075 E107.9079
G1 X178.258 Y131.289 E107.93482
G1 X177.944 Y131.436 E107.96184
G1 X177.468 Y131.514 E107.99944
G1 X57.532 Y131.514 E117.34887
G1 X57.188 Y131.474 E117.37586
G1 X56.863 Y131.357 E117.40279
G1 X56.471 Y131.075 E117.44043
G1 X56.061 Y130.665 E117.48563
G1 X55.847 Y130.394 E117.51255
G1 X55.7 Y130.08 E117.53958
G1 X55.622 Y129.604 E117.57718
G1 X55.622 Y105.744 E119.43715
G1 X55.662 Y105.4 E119.46414
G1 X55.779 Y105.075 E119.49107
G1 X56.061 Y104.683 E119.52871
G1 X56.471 Y104.273 E119.57391
G1 X56.742 Y104.059 E119.60083
G0 X57.111 Y104.539
G1 X57.363 Y104.45 E119.62167
G1 X57.532 Y104.434 E119.6349
G1 X177.468 Y104.434 E128.98432
G1 X177.733 Y104.474 E129.00521
G1 X177.974 Y104.59 E129.02606
G1 X178.104 Y104.698 E129.03924
G1 X178.514 Y105.108 E129.08444
G1 X178.673 Y105.323 E129.10528
G1 X178.762 Y105.575 E129.12612
G1 X178.778 Y105.744 E129.13935
G1 X178.778 Y129.604 E130.99932
G1 X178.738 Y129.869 E131.02021
G1 X178.622 Y130.11 E131.04106
G1 X178.514 Y130.24 E131.05424
G1 X178.104 Y130.65 E131.09944
G1 X177.889 Y130.809 E131.12028
G1 X177.637 Y130.898 E131.14111
G1 X177.468 Y130.914 E131.15435
G1 X57.532 Y130.914 E140.50377
G1 X57.267 Y130.874 E140.52466
G1 X57.026 Y130.758 E140.54551
G1 X56.896 Y130.65 E140.55869
G1 X56.486 Y130.24 E140.60389
G1 X56.327 Y130.025 E140.62473
G1 X56.238 Y129.773 E140.64557
G1 X56.222 Y129.604 E140.6588
G1 X56.222 Y105.744 E142.51877
G1 X56.262 Y105.479 E142.53966
G1 X56.378 Y105.238 E142.56051
G1 X56.486 Y105.108 E142.57368
G1 X56.896 Y104.698 E142.61888
G1 X57.111 Y104.539 E142.63973
G0 X57.32 Y105.122
G1 X57.532 Y105.034 E142.65762
G1 X177.468 Y105.034 E152.00705
G1 X177.68 Y105.122 E152.02494
G1 X178.09 Y105.532 E152.07014
G1 X178.178 Y105.744 E152.08803
G1 X178.178 Y129.604 E153.948
G1 X178.09 Y129.816 E153.96589
G1 X177.68 Y130.226 E154.01109
G1 X177.468 Y130.314 E154.02899
G1 X57.532 Y130.314 E163.37841
G1 X57.32 Y130.226 E163.3963
G1 X56.91 Y129.816 E163.4415
G1 X56.822 Y129.604 E163.4594
G1 X56.822 Y105.744 E165.31937
G1 X56.91 Y105.532 E165.33726
G1 X57.32 Y105.122 E165.38246
;MESH:sayak-sarkar-2020.stl
G0 X58.036 Y106.248
G0 X57.822 Y106.034
;TYPE:WALL-OUTER
G1 X177.178 Y106.034 E172.82583
G1 X177.178 Y129.314 E174.27763
G1 X57.822 Y129.314 E181.721
G1 X57.822 Y106.034 E183.17281
G0 X58.422 Y106.634
;TYPE:WALL-INNER
G1 X176.578 Y106.634 E190.54134
G1 X176.578 Y128.714 E191.91831
G1 X58.422 Y128.714 E199.28684
G1 X58.422 Y106.634 E200.66381
G0 X59.022 Y107.234
G1 X175.978 Y107.234 E207.95751
G1 X175.978 Y128.114 E209.25965
G1 X59.022 Y128.114 E216.55334
G1 X59.022 Y107.234 E217.85548
G1 F2700 E212.85548
G0 F1200 X165.818 Y107.444
G0 X165.818 Y117.954
;TYPE:SKIN
G1 F2700 E217.85548
G1 F1200 X69.182 Y117.954 E223.88196
G1 X69.182 Y117.394 E223.91689
G1 X165.818 Y117.394 E229.94337
G1 X165.818 Y117.954 E229.9783
G0 X166.418 Y118.554
G1 X68.582 Y118.554 E236.07962
G1 X68.582 Y116.794 E236.18938
G1 X166.418 Y116.794 E242.2907
G1 X166.418 Y118.554 E242.40046
G0 X167.018 Y119.154
G1 X67.982 Y119.154 E248.57662
G1 X67.982 Y116.194 E248.76121
G1 X167.018 Y116.194 E254.93737
G1 X167.018 Y119.154 E255.12196
G0 X167.618 Y119.754
G1 X67.382 Y119.754 E261.37296
G1 X67.382 Y115.594 E261.63238
G1 X167.618 Y115.594 E267.88338
G1 X167.618 Y119.754 E268.14281
G0 X168.218 Y120.354
G1 X66.782 Y120.354 E274.46863
G1 X66.782 Y114.994 E274.8029
G1 X168.218 Y114.994 E281.12873
G1 X168.218 Y120.354 E281.46299
G0 X168.818 Y120.954
G1 X66.182 Y120.954 E287.86365
G1 X66.182 Y114.394 E288.27275
G1 X168.818 Y114.394 E294.67342
G1 X168.818 Y120.954 E295.08252
G0 X169.418 Y121.554
G1 X65.582 Y121.554 E301.55802
G1 X65.582 Y113.794 E302.04195
G1 X169.418 Y113.794 E308.51745
G1 X169.418 Y121.554 E309.00139
G0 X170.018 Y122.154
G1 X64.982 Y122.154 E315.55172
G1 X64.982 Y113.194 E316.11049
G1 X170.018 Y113.194 E322.66082
G1 X170.018 Y122.154 E323.21959
G0 X170.618 Y122.754
G1 X64.382 Y122.754 E329.84476
G1 X64.382 Y112.594 E330.47837
G1 X170.618 Y112.594 E337.10354
G1 X170.618 Y122.754 E337.73714
G0 X171.218 Y123.354
G1 X63.782 Y123.354 E344.43715
G1 X63.782 Y111.994 E345.14559
G1 X171.218 Y111.994 E351.84559
G1 X171.218 Y123.354 E352.55404
G0 X171.818 Y123.954
G1 X63.182 Y123.954 E359.32888
G1 X63.182 Y111.394 E360.11215
G1 X171.818 Y111.394 E366.88699
G1 X171.818 Y123.954 E367.67027
G0 X172.418 Y124.554
G1 X62.582 Y124.554 E374.51994
G1 X62.582 Y110.794 E375.37805
G1 X172.418 Y110.794 E382.22773
G1 X172.418 Y124.554 E383.08584
G0 X173.018 Y125.154
G1 X61.982 Y125.154 E390.01035
G1 X61.982 Y110.194 E390.9433
G1 X173.018 Y110.194 E397.86781
G1 X173.018 Y125.154 E398.80076
G0 X173.618 Y125.754
G1 X61.382 Y125.754 E405.8001
G1 X61.382 Y109.594 E406.80788
G1 X173.618 Y109.594 E413.80723
G1 X173.618 Y125.754 E414.81501
G0 X174.218 Y126.354
G1 X60.782 Y126.354 E421.88919
G1 X60.782 Y108.994 E422.97181
G1 X174.218 Y108.994 E430.04599
G1 X174.218 Y126.354 E431.12861
G0 X174.818 Y126.954
G1 X60.182 Y126.954 E438.27763
G1 X60.182 Y108.394 E439.43508
G1 X174.818 Y108.394 E446.5841
G1 X174.818 Y126.954 E447.74155
G0 X175.418 Y127.554
G1 X59.582 Y127.554 E454.9654
G1 X59.582 Y107.794 E456.19769
G1 X175.418 Y107.794 E463.42154
G1 X175.418 Y127.554 E464.65383
G0 X175.418 Y128.504
G1 F2700 E459.65383
;MESH:NONMESH
G0 F300 X175.418 Y128.504 Z0.4
G0 F1200 X59.204 Y127.932
G0 X58.979 Y107.208
;TIME_ELAPSED:370.530090
;LAYER:1
M140 S90
;TYPE:WALL-INNER
;MESH:sayak-sarkar-2020.stl
G1 F2700 E464.65383
G1 F1350 X176.021 Y107.208 E468.54666
G1 X176.021 Y128.137 E469.24276
G1 X58.979 Y128.137 E473.1356
G1 X58.979 Y107.208 E473.8317
G0 F3600 X58.579 Y106.808
G1 F1350 X176.421 Y106.808 E477.75114
G1 X176.421 Y128.537 E478.47385
G1 X58.579 Y128.537 E482.39329
G1 X58.579 Y106.808 E483.116
G0 F3600 X58.179 Y106.408
G1 F1350 X176.821 Y106.408 E487.06205
G1 X176.821 Y128.937 E487.81136
G1 X58.179 Y128.937 E491.75741
G1 X58.179 Y106.408 E492.50673
G0 F3600 X57.779 Y106.008
;TYPE:WALL-OUTER
G1 F1350 X177.221 Y106.008 E496.47939
G1 X177.221 Y129.337 E497.25531
G1 X57.779 Y129.337 E501.22797
G1 X57.779 Y106.008 E502.0039
G0 F3600 X58.049 Y106.278
G0 X59.369 Y107.318
G0 X59.369 Y107.598
;TYPE:SKIN
G1 F1350 X175.631 Y107.598 E505.87079
G1 X175.631 Y127.747 E506.54094
G1 X59.369 Y127.747 E510.40783
G1 X59.369 Y107.598 E511.07799
G0 F3600 X59.728 Y107.957
G1 F1350 X59.728 Y108.279 E511.0887
G1 X60.051 Y107.957 E511.10387
G0 F3600 X59.728 Y108.279
G1 F1350 X59.728 Y108.845 E511.1227
G1 X60.616 Y107.957 E511.16447
G1 X61.182 Y107.957 E511.18329
G1 X59.728 Y109.411 E511.25168
G1 X59.728 Y109.977 E511.27051
G1 X61.748 Y107.957 E511.36552
G1 X62.313 Y107.957 E511.38431
G1 X59.728 Y110.542 E511.5059
G1 X59.728 Y111.108 E511.52473
G1 X62.879 Y107.957 E511.67294
G1 X63.445 Y107.957 E511.69177
G1 X59.728 Y111.674 E511.8666
G1 X59.728 Y112.239 E511.8854
G1 X64.01 Y107.957 E512.08681
G1 X64.576 Y107.957 E512.10563
G1 X59.728 Y112.805 E512.33367
G1 X59.728 Y113.371 E512.35249
G1 X65.142 Y107.957 E512.60715
G1 X65.707 Y107.957 E512.62594
G1 X59.728 Y113.936 E512.90718
G1 X59.728 Y114.502 E512.926
G1 X66.273 Y107.957 E513.23386
G1 X66.839 Y107.957 E513.25269
G1 X59.728 Y115.068 E513.58717
G1 X59.728 Y115.633 E513.60596
G1 X67.404 Y107.957 E513.96701
G1 X67.97 Y107.957 E513.98584
G1 X59.728 Y116.199 E514.37352
G1 X59.728 Y116.765 E514.39234
G1 X68.536 Y107.957 E514.80664
G1 X69.102 Y107.957 E514.82547
G1 X59.728 Y117.33 E515.26637
G1 X59.728 Y117.896 E515.28519
G1 X69.667 Y107.957 E515.75269
G1 X70.233 Y107.957 E515.77152
G1 X59.728 Y118.462 E516.26564
G1 X59.728 Y119.027 E516.28443
G1 X70.799 Y107.957 E516.80516
G1 X71.364 Y107.957 E516.82395
G1 X59.728 Y119.593 E517.37127
G1 X59.728 Y120.159 E517.3901
G1 X71.93 Y107.957 E517.96404
G1 X72.496 Y107.957 E517.98287
G1 X59.728 Y120.725 E518.58343
G1 X59.728 Y121.29 E518.60223
G1 X73.061 Y107.957 E519.22937
G1 X73.627 Y107.957 E519.24819
G1 X59.728 Y121.856 E519.90196
G1 X59.728 Y122.422 E519.92079
G1 X74.193 Y107.957 E520.60117
G1 X74.758 Y107.957 E520.61997
G1 X59.728 Y122.987 E521.32693
G1 X59.728 Y123.553 E521.34576
G1 X75.324 Y107.957 E522.07934
G1 X75.89 Y107.957 E522.09817
G1 X59.728 Y124.119 E522.85838
G1 X59.728 Y124.684 E522.87717
G1 X76.455 Y107.957 E523.66396
G1 X77.021 Y107.957 E523.68279
G1 X59.728 Y125.25 E524.49619
G1 X59.728 Y125.816 E524.51502
G1 X77.587 Y107.957 E525.35505
G1 X78.152 Y107.957 E525.37384
G1 X59.728 Y126.381 E526.24045
G1 X59.728 Y126.947 E526.25928
G1 X78.718 Y107.957 E527.15251
G1 X79.284 Y107.957 E527.17133
G1 X59.855 Y127.386 E528.08522
G1 X60.42 Y127.386 E528.10401
G1 X79.85 Y107.957 E529.01791
G1 X80.415 Y107.957 E529.0367
G1 X60.986 Y127.386 E529.95058
G1 X61.552 Y127.386 E529.96941
G1 X80.981 Y107.957 E530.88329
G1 X81.547 Y107.957 E530.90212
G1 X62.117 Y127.386 E531.81602
G1 X62.683 Y127.386 E531.83484
G1 X82.112 Y107.957 E532.74873
G1 X82.678 Y107.957 E532.76755
G1 X63.249 Y127.386 E533.68143
G1 X63.814 Y127.386 E533.70022
G1 X83.244 Y107.957 E534.61413
G1 X83.809 Y107.957 E534.63292
G1 X64.38 Y127.386 E535.5468
G1 X64.946 Y127.386 E535.56562
G1 X84.375 Y107.957 E536.47951
