;FLAVOR:Marlin
;TIME:4028
;Filament used: 1.58901m
;Layer height: 0.16
;MINX:75.735
;MINY:105.874
;MINZ:0.2
;MAXX:159.265
;MAXY:129.342
;MAXZ:17.08
;Generated with Cura_SteamEngine 4.8.0
M140 S100
M105
M190 S100
M104 S240
M105
M109 S240
M82 ;absolute extrusion mode
; Ender 3 Custom Start G-code
G92 E0 ; Reset Extruder
G28 ; Home all axes
G1 Z2.0 F3000 ; Move Z Axis up little to prevent scratching of Heat Bed
G1 X0.1 Y20 Z0.3 F5000.0 ; Move to start position
G1 X0.1 Y200.0 Z0.3 F1500.0 E15 ; Draw the first line
G1 X0.4 Y200.0 Z0.3 F5000.0 ; Move to side a little
G1 X0.4 Y20 Z0.3 F1500.0 E30 ; Draw the second line
G92 E0 ; Reset Extruder
G1 Z2.0 F3000 ; Move Z Axis up little to prevent scratching of Heat Bed
G1 X5 Y20 Z0.3 F5000.0 ; Move over to prevent blob squish
G92 E0
G92 E0
G1 F2700 E-5
;LAYER_COUNT:106
;LAYER:0
M107
G0 F1200 X77.709 Y106.651 Z0.2
;TYPE:SKIRT
G1 F2700 E0
G1 F1200 X78.179 Y106.349 E0.04355
G1 X78.687 Y106.118 E0.08705
G1 X79.223 Y105.962 E0.13057
G1 X80.045 Y105.874 E0.19501
G1 X154.955 Y105.874 E6.0345
G1 X155.512 Y105.914 E6.07804
G1 X156.057 Y106.033 E6.12152
G1 X156.58 Y106.229 E6.16506
G1 X157.069 Y106.497 E6.20853
G1 X157.713 Y107.016 E6.27301
G1 X158.123 Y107.426 E6.3182
G1 X158.488 Y107.848 E6.3617
G1 X158.79 Y108.318 E6.40525
G1 X159.021 Y108.826 E6.44875
G1 X159.177 Y109.362 E6.49227
G1 X159.265 Y110.184 E6.55671
G1 X159.265 Y125.032 E7.71416
G1 X159.225 Y125.589 E7.7577
G1 X159.106 Y126.134 E7.80118
G1 X158.91 Y126.657 E7.84472
G1 X158.642 Y127.146 E7.88819
G1 X158.123 Y127.79 E7.95266
G1 X157.713 Y128.2 E7.99786
G1 X157.291 Y128.565 E8.04136
G1 X156.821 Y128.867 E8.08491
G1 X156.313 Y129.098 E8.12841
G1 X155.777 Y129.254 E8.17193
G1 X154.955 Y129.342 E8.23637
G1 X80.045 Y129.342 E14.07586
G1 X79.488 Y129.302 E14.11939
G1 X78.943 Y129.183 E14.16288
G1 X78.42 Y128.987 E14.20642
G1 X77.931 Y128.719 E14.24989
G1 X77.287 Y128.2 E14.31436
G1 X76.877 Y127.79 E14.35956
G1 X76.512 Y127.368 E14.40306
G1 X76.21 Y126.898 E14.44661
G1 X75.979 Y126.39 E14.49011
G1 X75.823 Y125.854 E14.53363
G1 X75.735 Y125.032 E14.59807
G1 X75.735 Y110.184 E15.75552
G1 X75.775 Y109.627 E15.79905
G1 X75.894 Y109.082 E15.84254
G1 X76.09 Y108.559 E15.88608
G1 X76.358 Y108.07 E15.92955
G1 X76.877 Y107.426 E15.99402
G1 X77.287 Y107.016 E16.03922
G1 X77.709 Y106.651 E16.08272
G0 X78.102 Y107.107
G1 X78.539 Y106.838 E16.12272
G1 X79.013 Y106.64 E16.16276
G1 X79.511 Y106.517 E16.20275
G1 X80.045 Y106.474 E16.24451
G1 X154.955 Y106.474 E22.084
G1 X155.467 Y106.514 E22.12404
G1 X155.966 Y106.633 E22.16403
G1 X156.441 Y106.828 E22.20405
G1 X156.88 Y107.094 E22.24407
G1 X157.288 Y107.441 E22.28582
G1 X157.698 Y107.851 E22.33102
G1 X158.032 Y108.241 E22.37105
G1 X158.301 Y108.678 E22.41105
G1 X158.499 Y109.152 E22.45109
G1 X158.622 Y109.65 E22.49108
G1 X158.665 Y110.184 E22.53284
G1 X158.665 Y125.032 E23.69029
G1 X158.625 Y125.544 E23.73033
G1 X158.506 Y126.043 E23.77032
G1 X158.311 Y126.518 E23.81034
G1 X158.045 Y126.957 E23.85036
G1 X157.698 Y127.365 E23.89211
G1 X157.288 Y127.775 E23.93731
G1 X156.898 Y128.109 E23.97734
G1 X156.461 Y128.378 E24.01734
G1 X155.987 Y128.576 E24.05738
G1 X155.489 Y128.699 E24.09737
G1 X154.955 Y128.742 E24.13913
G1 X80.045 Y128.742 E29.97863
G1 X79.533 Y128.702 E30.01866
G1 X79.034 Y128.583 E30.05865
G1 X78.559 Y128.388 E30.09868
G1 X78.12 Y128.122 E30.13869
G1 X77.712 Y127.775 E30.18044
G1 X77.302 Y127.365 E30.22564
G1 X76.968 Y126.975 E30.26567
G1 X76.699 Y126.538 E30.30567
G1 X76.501 Y126.064 E30.34571
G1 X76.378 Y125.566 E30.3857
G1 X76.335 Y125.032 E30.42746
G1 X76.335 Y110.184 E31.58492
G1 X76.375 Y109.672 E31.62495
G1 X76.494 Y109.173 E31.66494
G1 X76.689 Y108.698 E31.70497
G1 X76.955 Y108.259 E31.74498
G1 X77.302 Y107.851 E31.78673
G1 X77.712 Y107.441 E31.83193
G1 X78.102 Y107.107 E31.87196
G0 X78.491 Y107.566
G1 X78.892 Y107.332 E31.90815
G1 X79.328 Y107.171 E31.94438
G1 X79.784 Y107.087 E31.98053
G1 X80.045 Y107.074 E32.0009
G1 X154.955 Y107.074 E37.84039
G1 X155.418 Y107.114 E37.87662
G1 X155.867 Y107.233 E37.91283
G1 X156.289 Y107.426 E37.949
G1 X156.671 Y107.689 E37.98515
G1 X156.864 Y107.865 E38.00551
G1 X157.274 Y108.275 E38.05071
G1 X157.573 Y108.63 E38.0869
G1 X157.807 Y109.031 E38.12309
G1 X157.968 Y109.467 E38.15932
G1 X158.052 Y109.923 E38.19546
G1 X158.065 Y110.184 E38.21583
G1 X158.065 Y125.032 E39.37329
G1 X158.025 Y125.495 E39.40951
G1 X157.906 Y125.944 E39.44572
G1 X157.713 Y126.366 E39.4819
G1 X157.45 Y126.748 E39.51805
G1 X157.274 Y126.941 E39.53841
G1 X156.864 Y127.351 E39.58361
G1 X156.509 Y127.65 E39.61979
G1 X156.108 Y127.884 E39.65599
G1 X155.672 Y128.045 E39.69222
G1 X155.216 Y128.129 E39.72836
G1 X154.955 Y128.142 E39.74873
G1 X80.045 Y128.142 E45.58822
G1 X79.582 Y128.102 E45.62445
G1 X79.133 Y127.983 E45.66066
G1 X78.711 Y127.79 E45.69683
G1 X78.329 Y127.527 E45.73299
G1 X78.136 Y127.351 E45.75335
G1 X77.726 Y126.941 E45.79855
G1 X77.427 Y126.586 E45.83473
G1 X77.193 Y126.185 E45.87092
G1 X77.032 Y125.749 E45.90715
G1 X76.948 Y125.293 E45.9433
G1 X76.935 Y125.032 E45.96367
G1 X76.935 Y110.184 E47.12112
G1 X76.975 Y109.721 E47.15735
G1 X77.094 Y109.272 E47.19356
G1 X77.287 Y108.85 E47.22973
G1 X77.55 Y108.468 E47.26589
G1 X77.726 Y108.275 E47.28625
G1 X78.136 Y107.865 E47.33145
G1 X78.491 Y107.566 E47.36763
G0 X78.876 Y108.029
G1 X79.237 Y107.836 E47.39954
G1 X79.629 Y107.716 E47.4315
G1 X80.045 Y107.674 E47.46409
G1 X154.955 Y107.674 E53.30358
G1 X155.362 Y107.714 E53.33546
G1 X155.754 Y107.832 E53.36737
G1 X156.116 Y108.024 E53.39932
G1 X156.44 Y108.289 E53.43194
G1 X156.85 Y108.699 E53.47714
G1 X157.11 Y109.015 E53.50904
G1 X157.303 Y109.376 E53.54095
G1 X157.423 Y109.768 E53.57291
G1 X157.465 Y110.184 E53.60551
G1 X157.465 Y125.032 E54.76296
G1 X157.425 Y125.439 E54.79484
G1 X157.307 Y125.831 E54.82675
G1 X157.115 Y126.193 E54.85869
G1 X156.85 Y126.517 E54.89132
G1 X156.44 Y126.927 E54.93652
G1 X156.124 Y127.187 E54.96842
G1 X155.763 Y127.38 E55.00033
G1 X155.371 Y127.5 E55.03229
G1 X154.955 Y127.542 E55.06488
G1 X80.045 Y127.542 E60.90437
G1 X79.638 Y127.502 E60.93625
G1 X79.246 Y127.384 E60.96817
G1 X78.884 Y127.192 E61.00011
G1 X78.56 Y126.927 E61.03274
G1 X78.15 Y126.517 E61.07794
G1 X77.89 Y126.201 E61.10984
G1 X77.697 Y125.84 E61.14175
G1 X77.577 Y125.448 E61.17371
G1 X77.535 Y125.032 E61.2063
G1 X77.535 Y110.184 E62.36375
G1 X77.575 Y109.777 E62.39563
G1 X77.693 Y109.385 E62.42754
G1 X77.885 Y109.023 E62.45949
G1 X78.15 Y108.699 E62.49212
G1 X78.56 Y108.289 E62.53732
G1 X78.876 Y108.029 E62.56921
G0 X79.255 Y108.499
G1 X79.569 Y108.352 E62.59624
G1 X80.045 Y108.274 E62.63384
G1 X154.955 Y108.274 E68.47333
G1 X155.299 Y108.314 E68.50033
G1 X155.624 Y108.431 E68.52726
G1 X156.016 Y108.713 E68.5649
G1 X156.426 Y109.123 E68.6101
G1 X156.64 Y109.394 E68.63702
G1 X156.787 Y109.708 E68.66405
G1 X156.865 Y110.184 E68.70165
G1 X156.865 Y125.032 E69.8591
G1 X156.825 Y125.376 E69.8861
G1 X156.708 Y125.701 E69.91302
G1 X156.426 Y126.093 E69.95067
G1 X156.016 Y126.503 E69.99587
G1 X155.745 Y126.717 E70.02278
G1 X155.431 Y126.864 E70.04981
G1 X154.955 Y126.942 E70.08741
G1 X80.045 Y126.942 E75.9269
G1 X79.701 Y126.902 E75.9539
G1 X79.376 Y126.785 E75.98083
G1 X78.984 Y126.503 E76.01847
G1 X78.574 Y126.093 E76.06367
G1 X78.36 Y125.822 E76.09059
G1 X78.213 Y125.508 E76.11761
G1 X78.135 Y125.032 E76.15521
G1 X78.135 Y110.184 E77.31267
G1 X78.175 Y109.84 E77.33966
G1 X78.292 Y109.515 E77.36659
G1 X78.574 Y109.123 E77.40423
G1 X78.984 Y108.713 E77.44943
G1 X79.255 Y108.499 E77.47635
G0 X79.409 Y109.138
G1 X79.624 Y108.979 E77.4972
G1 X79.876 Y108.89 E77.51803
G1 X80.045 Y108.874 E77.53126
G1 X154.955 Y108.874 E83.37076
G1 X155.22 Y108.914 E83.39165
G1 X155.461 Y109.03 E83.4125
G1 X155.591 Y109.138 E83.42567
G1 X156.001 Y109.548 E83.47087
G1 X156.16 Y109.763 E83.49172
G1 X156.249 Y110.015 E83.51255
G1 X156.265 Y110.184 E83.52578
G1 X156.265 Y125.032 E84.68324
G1 X156.225 Y125.297 E84.70413
G1 X156.109 Y125.538 E84.72498
G1 X156.001 Y125.668 E84.73815
G1 X155.591 Y126.078 E84.78335
G1 X155.376 Y126.237 E84.8042
G1 X155.124 Y126.326 E84.82503
G1 X154.955 Y126.342 E84.83826
G1 X80.045 Y126.342 E90.67776
G1 X79.78 Y126.302 E90.69865
G1 X79.539 Y126.186 E90.7195
G1 X79.409 Y126.078 E90.73267
G1 X78.999 Y125.668 E90.77787
G1 X78.84 Y125.453 E90.79872
G1 X78.751 Y125.201 E90.81955
G1 X78.735 Y125.032 E90.83278
G1 X78.735 Y110.184 E91.99024
G1 X78.775 Y109.919 E92.01113
G1 X78.891 Y109.678 E92.03198
G1 X78.999 Y109.548 E92.04515
G1 X79.409 Y109.138 E92.09035
G0 X79.833 Y109.562
G1 X80.045 Y109.474 E92.10824
G1 X154.955 Y109.474 E97.94774
G1 X155.167 Y109.562 E97.96563
G1 X155.577 Y109.972 E98.01083
G1 X155.665 Y110.184 E98.02872
G1 X155.665 Y125.032 E99.18618
G1 X155.577 Y125.244 E99.20407
G1 X155.167 Y125.654 E99.24927
G1 X154.955 Y125.742 E99.26716
G1 X80.045 Y125.742 E105.10665
G1 X79.833 Y125.654 E105.12455
G1 X79.423 Y125.244 E105.16975
G1 X79.335 Y125.032 E105.18764
G1 X79.335 Y110.184 E106.34509
G1 X79.423 Y109.972 E106.36299
G1 X79.833 Y109.562 E106.40819
;MESH:sayak-sarkar-2020.stl
G0 X80.549 Y110.688
G0 X80.335 Y110.474
;TYPE:WALL-OUTER
G1 X154.665 Y110.474 E111.04361
G1 X154.665 Y124.742 E111.9334
G1 X80.335 Y124.742 E116.56882
G1 X80.335 Y110.474 E117.45862
G0 X80.935 Y111.074
;TYPE:WALL-INNER
G1 X154.065 Y111.074 E122.0192
G1 X154.065 Y124.142 E122.83416
G1 X80.935 Y124.142 E127.39475
G1 X80.935 Y111.074 E128.20971
G0 X81.535 Y111.674
G1 X153.465 Y111.674 E132.69546
G1 X153.465 Y123.542 E133.43558
G1 X81.535 Y123.542 E137.92133
G1 X81.535 Y111.674 E138.66145
G1 F2700 E133.66145
G0 F1200 X148.105 Y111.884
G0 X148.105 Y118.182
;TYPE:SKIN
G1 F2700 E138.66145
G1 F1200 X86.895 Y118.182 E143.43298
G1 X86.895 Y117.034 E143.52247
G1 X148.105 Y117.034 E148.294
G1 X148.105 Y118.182 E148.3835
G0 X148.705 Y118.782
G1 X86.295 Y118.782 E153.24857
G1 X86.295 Y116.434 E153.4316
G1 X148.705 Y116.434 E158.29668
G1 X148.705 Y118.782 E158.47971
G0 X149.305 Y119.382
G1 X85.695 Y119.382 E163.43833
G1 X85.695 Y115.834 E163.71491
G1 X149.305 Y115.834 E168.67353
G1 X149.305 Y119.382 E168.95011
G0 X149.905 Y119.982
G1 X85.095 Y119.982 E174.00227
G1 X85.095 Y115.234 E174.37239
G1 X149.905 Y115.234 E179.42456
G1 X149.905 Y119.982 E179.79468
G0 X150.505 Y120.582
G1 X84.495 Y120.582 E184.94039
G1 X84.495 Y114.634 E185.40405
G1 X150.505 Y114.634 E190.54976
G1 X150.505 Y120.582 E191.01343
G0 X151.105 Y121.182
G1 X83.895 Y121.182 E196.25268
G1 X83.895 Y114.034 E196.80989
G1 X151.105 Y114.034 E202.04914
G1 X151.105 Y121.182 E202.60635
G0 X151.705 Y121.782
G1 X83.295 Y121.782 E207.93915
G1 X83.295 Y113.434 E208.5899
G1 X151.705 Y113.434 E213.9227
G1 X151.705 Y121.782 E214.57345
G0 X152.305 Y122.382
G1 X82.695 Y122.382 E219.99979
G1 X82.695 Y112.834 E220.74409
G1 X152.305 Y112.834 E226.17043
G1 X152.305 Y122.382 E226.91473
G0 X152.905 Y122.982
G1 X82.095 Y122.982 E232.43461
G1 X82.095 Y112.234 E233.27245
G1 X152.905 Y112.234 E238.79234
G1 X152.905 Y122.982 E239.63018
G1 F2700 E234.63018
G0 F1200 X153.355 Y122.982
G0 X153.255 Y117.847
G0 X147.829 Y117.847
;TYPE:SKIN
G1 F2700 E239.63018
G1 F1200 X147.29 Y117.309 E239.64601
G0 X147.573 Y117.309
G1 X147.829 Y117.564 E239.65352
G0 X147.605 Y117.906
G1 X147.007 Y117.309 E239.67109
G0 X146.724 Y117.309
G1 X147.322 Y117.906 E239.68865
G0 X147.039 Y117.906
G1 X146.441 Y117.309 E239.70622
G0 X146.158 Y117.309
G1 X146.756 Y117.906 E239.72378
G0 X146.473 Y117.906
G1 X145.876 Y117.309 E239.74134
G0 X145.593 Y117.309
G1 X146.19 Y117.906 E239.75889
G0 X145.907 Y117.906
G1 X145.31 Y117.309 E239.77644
G0 X145.027 Y117.309
G1 X145.625 Y117.906 E239.794
G0 X145.342 Y117.906
G1 X144.744 Y117.309 E239.81157
G0 X144.461 Y117.309
G1 X145.059 Y117.906 E239.82913
G0 X144.776 Y117.906
G1 X144.179 Y117.309 E239.84668
G0 X143.896 Y117.309
G1 X144.493 Y117.906 E239.86423
G0 X144.21 Y117.906
G1 X143.613 Y117.309 E239.88178
G0 X143.33 Y117.309
G1 X143.928 Y117.906 E239.89935
G0 X143.645 Y117.906
G1 X143.047 Y117.309 E239.91692
G0 X142.764 Y117.309
G1 X143.362 Y117.906 E239.93448
G0 X143.079 Y117.906
G1 X142.482 Y117.309 E239.95203
G0 X142.199 Y117.309
G1 X142.796 Y117.906 E239.96958
G0 X142.513 Y117.906
G1 X141.916 Y117.309 E239.98713
G0 X141.633 Y117.309
G1 X142.23 Y117.906 E240.00468
G0 X141.948 Y117.906
G1 X141.35 Y117.309 E240.02225
G0 X141.067 Y117.309
G1 X141.665 Y117.906 E240.03981
G0 X141.382 Y117.906
G1 X140.784 Y117.309 E240.05738
G0 X140.502 Y117.309
G1 X141.099 Y117.906 E240.07493
G0 X140.816 Y117.906
G1 X140.219 Y117.309 E240.09248
G0 X139.936 Y117.309
G1 X140.533 Y117.906 E240.11003
G0 X140.251 Y117.906
G1 X139.653 Y117.309 E240.1276
G0 X139.37 Y117.309
G1 X139.968 Y117.906 E240.14516
G0 X139.685 Y117.906
G1 X139.087 Y117.309 E240.16273
G0 X138.805 Y117.309
G1 X139.402 Y117.906 E240.18028
G0 X139.119 Y117.906
G1 X138.522 Y117.309 E240.19783
G0 X138.239 Y117.309
G1 X138.836 Y117.906 E240.21538
G0 X138.554 Y117.906
G1 X137.956 Y117.309 E240.23294
G0 X137.673 Y117.309
G1 X138.271 Y117.906 E240.25051
G0 X137.988 Y117.906
G1 X137.39 Y117.309 E240.26808
G0 X137.108 Y117.309
G1 X137.705 Y117.906 E240.28563
G0 X137.422 Y117.906
G1 X136.825 Y117.309 E240.30318
G0 X136.542 Y117.309
G1 X137.139 Y117.906 E240.32073
G0 X136.856 Y117.906
G1 X136.259 Y117.309 E240.33828
G0 X135.976 Y117.309
G1 X136.574 Y117.906 E240.35584
G0 X136.291 Y117.906
G1 X135.693 Y117.309 E240.37341
G0 X135.41 Y117.309
G1 X136.008 Y117.906 E240.39097
G0 X135.725 Y117.906
G1 X135.128 Y117.309 E240.40853
G0 X134.845 Y117.309
G1 X135.442 Y117.906 E240.42608
G0 X135.159 Y117.906
G1 X134.562 Y117.309 E240.44363
G0 X134.279 Y117.309
G1 X134.877 Y117.906 E240.46119
G0 X134.594 Y117.906
G1 X133.996 Y117.309 E240.47876
G0 X133.713 Y117.309
G1 X134.311 Y117.906 E240.49632
G0 X134.028 Y117.906
G1 X133.431 Y117.309 E240.51387
G0 X133.148 Y117.309
G1 X133.745 Y117.906 E240.53142
G0 X133.462 Y117.906
G1 X132.865 Y117.309 E240.54897
G0 X132.582 Y117.309
G1 X133.18 Y117.906 E240.56654
G0 X132.897 Y117.906
G1 X132.299 Y117.309 E240.58411
G0 X132.016 Y117.309
G1 X132.614 Y117.906 E240.60167
G0 X132.331 Y117.906
G1 X131.733 Y117.309 E240.61924
G0 X131.451 Y117.309
G1 X132.048 Y117.906 E240.63679
G0 X131.765 Y117.906
G1 X131.168 Y117.309 E240.65434
G0 X130.885 Y117.309
G1 X131.482 Y117.906 E240.67189
G0 X131.2 Y117.906
G1 X130.602 Y117.309 E240.68945
G0 X130.319 Y117.309
G1 X130.917 Y117.906 E240.70702
G0 X130.634 Y117.906
G1 X130.036 Y117.309 E240.72458
G0 X129.754 Y117.309
G1 X130.351 Y117.906 E240.74213
G0 X130.068 Y117.906
G1 X129.471 Y117.309 E240.75969
G0 X129.188 Y117.309
G1 X129.785 Y117.906 E240.77724
G0 X129.503 Y117.906
G1 X128.905 Y117.309 E240.7948
G0 X128.622 Y117.309
G1 X129.22 Y117.906 E240.81237
G0 X128.937 Y117.906
G1 X128.339 Y117.309 E240.82993
G0 X128.057 Y117.309
G1 X128.654 Y117.906 E240.84748
G0 X128.371 Y117.906
G1 X127.774 Y117.309 E240.86503
G0 X127.491 Y117.309
G1 X128.088 Y117.906 E240.88258
G0 X127.806 Y117.906
G1 X127.208 Y117.309 E240.90015
G0 X126.925 Y117.309
G1 X127.523 Y117.906 E240.91771
G0 X127.24 Y117.906
G1 X126.642 Y117.309 E240.93528
G0 X126.359 Y117.309
G1 X126.957 Y117.906 E240.95285
G0 X126.674 Y117.906
G1 X126.077 Y117.309 E240.9704
G0 X125.794 Y117.309
G1 X126.391 Y117.906 E240.98795
G0 X126.108 Y117.906
G1 X125.511 Y117.309 E241.0055
G0 X125.228 Y117.309
G1 X125.826 Y117.906 E241.02306
G0 X125.543 Y117.906
G1 X124.945 Y117.309 E241.04063
G0 X124.662 Y117.309
G1 X125.26 Y117.906 E241.05819
G0 X124.977 Y117.906
G1 X124.38 Y117.309 E241.07574
G0 X124.097 Y117.309
G1 X124.694 Y117.906 E241.09329
G0 X124.411 Y117.906
G1 X123.814 Y117.309 E241.11085
G0 X123.531 Y117.309
G1 X124.129 Y117.906 E241.12841
G0 X123.846 Y117.906
G1 X123.248 Y117.309 E241.14598
G0 X122.965 Y117.309
G1 X123.563 Y117.906 E241.16354
G0 X123.28 Y117.906
G1 X122.683 Y117.309 E241.18109
G0 X122.4 Y117.309
G1 X122.997 Y117.906 E241.19864
G0 X122.714 Y117.906
G1 X122.117 Y117.309 E241.21619
G0 X121.834 Y117.309
G1 X122.432 Y117.906 E241.23376
G0 X122.149 Y117.906
G1 X121.551 Y117.309 E241.25132
G0 X121.268 Y117.309
G1 X121.866 Y117.906 E241.26889
G0 X121.583 Y117.906
