;FLAVOR:Marlin
;TIME:910
;Filament used: 3.01345m
;Layer height: 0.4
;MINX:91.8
;MINY:89.7
;MINZ:0.4
;MAXX:143.2
;MAXY:145.3
;MAXZ:9.96
;Generated with Cura_SteamEngine 4.9.0
M140 S100
M105
M190 S100
M104 S240
M105
M109 S240
M82 ;absolute extrusion mode
; Ender 3 Custom Start G-code
G92 E0 ; Reset Extruder
G28 ; Home all axes
G1 Z2.0 F3000 ; Move Z Axis up little to prevent scratching of Heat Bed
G1 X0.1 Y20 Z0.3 F5000.0 ; Move to start position
G1 X0.1 Y200.0 Z0.3 F1500.0 E15 ; Draw the first line
G1 X0.4 Y200.0 Z0.3 F5000.0 ; Move to side a little
G1 X0.4 Y20 Z0.3 F1500.0 E30 ; Draw the second line
G92 E0 ; Reset Extruder
G1 Z2.0 F3000 ; Move Z Axis up little to prevent scratching of Heat Bed
G1 X5 Y20 Z0.3 F5000.0 ; Move over to prevent blob squish
G92 E0
G92 E0
G1 F2700 E-5
;LAYER_COUNT:22
;LAYER:0
M107
G0 F6000 X100.854 Y90.988 Z0.4
;TYPE:SKIRT
G1 F2700 E0
G1 F1200 X101.088 Y90.754 E0.04887
G1 X101.495 Y90.405 E0.12804
G1 X101.949 Y90.119 E0.20728
G1 X102.44 Y89.904 E0.28644
G1 X102.958 Y89.764 E0.36568
G1 X103.634 Y89.7 E0.46595
G1 X106.366 Y89.7 E0.8694
G1 X106.901 Y89.74 E0.94863
G1 X107.424 Y89.859 E1.02784
G1 X107.923 Y90.054 E1.10695
G1 X108.388 Y90.322 E1.18621
G1 X108.912 Y90.754 E1.2865
G1 X109 Y90.842 E1.30488
G1 X109.088 Y90.754 E1.32326
G1 X109.495 Y90.405 E1.40243
G1 X109.949 Y90.119 E1.48167
G1 X110.44 Y89.904 E1.56082
G1 X110.958 Y89.764 E1.64006
G1 X111.634 Y89.7 E1.74034
G1 X114.366 Y89.7 E2.14379
G1 X114.901 Y89.74 E2.22301
G1 X115.424 Y89.859 E2.30222
G1 X115.923 Y90.054 E2.38134
G1 X116.388 Y90.322 E2.4606
G1 X116.912 Y90.754 E2.56088
G1 X117.146 Y90.988 E2.60975
G1 X117.495 Y91.395 E2.68893
G1 X117.505 Y91.411 E2.69172
G1 X117.854 Y90.988 E2.7727
G1 X118.088 Y90.754 E2.82157
G1 X118.495 Y90.405 E2.90074
G1 X118.949 Y90.119 E2.97998
G1 X119.44 Y89.904 E3.05914
G1 X119.958 Y89.764 E3.13838
G1 X120.634 Y89.7 E3.23865
G1 X123.366 Y89.7 E3.6421
G1 X123.901 Y89.74 E3.72133
G1 X124.424 Y89.859 E3.80053
G1 X124.923 Y90.054 E3.87965
G1 X125.388 Y90.322 E3.95891
G1 X125.912 Y90.754 E4.0592
G1 X126 Y90.842 E4.07758
G1 X126.088 Y90.754 E4.09595
G1 X126.495 Y90.405 E4.17513
G1 X126.949 Y90.119 E4.25437
G1 X127.44 Y89.904 E4.33352
G1 X127.958 Y89.764 E4.41276
G1 X128.634 Y89.7 E4.51304
G1 X131.366 Y89.7 E4.91649
G1 X131.901 Y89.74 E4.99571
G1 X132.424 Y89.859 E5.07492
G1 X132.923 Y90.054 E5.15404
G1 X133.388 Y90.322 E5.23329
G1 X133.912 Y90.754 E5.33358
G1 X134.146 Y90.988 E5.38245
G1 X134.495 Y91.395 E5.46163
G1 X134.781 Y91.849 E5.54087
G1 X134.996 Y92.34 E5.62002
G1 X135.136 Y92.858 E5.69926
G1 X135.2 Y93.534 E5.79954
G1 X135.2 Y105.3 E7.53708
G1 X139.366 Y105.3 E8.15229
G1 X139.901 Y105.34 E8.23152
G1 X140.424 Y105.459 E8.31073
G1 X140.923 Y105.654 E8.38985
G1 X141.388 Y105.922 E8.4691
G1 X141.912 Y106.354 E8.56939
G1 X142.146 Y106.588 E8.61826
G1 X142.495 Y106.995 E8.69744
G1 X142.781 Y107.449 E8.77667
G1 X142.996 Y107.94 E8.85583
G1 X143.136 Y108.458 E8.93507
G1 X143.2 Y109.134 E9.03535
G1 X143.2 Y115.066 E9.91135
G1 X143.16 Y115.601 E9.99058
G1 X143.041 Y116.124 E10.06979
G1 X142.846 Y116.623 E10.1489
G1 X142.578 Y117.088 E10.22816
G1 X142.146 Y117.612 E10.32845
G1 X141.912 Y117.846 E10.37732
G1 X141.505 Y118.195 E10.4565
G1 X141.051 Y118.481 E10.53573
G1 X140.56 Y118.696 E10.61489
G1 X140.042 Y118.836 E10.69413
G1 X139.366 Y118.9 E10.7944
G1 X136.634 Y118.9 E11.19785
G1 X136.099 Y118.86 E11.27708
G1 X135.576 Y118.741 E11.35629
G1 X135.077 Y118.546 E11.4354
G1 X134.612 Y118.278 E11.51466
G1 X134.088 Y117.846 E11.61495
G1 X133.854 Y117.612 E11.66382
G1 X133.505 Y117.205 E11.74299
G1 X133.219 Y116.751 E11.82223
G1 X133.004 Y116.26 E11.90139
G1 X132.864 Y115.742 E11.98063
G1 X132.86 Y115.7 E11.98686
G1 X127.2 Y115.7 E12.8227
G1 X127.2 Y134.9 E15.65806
G1 X132.863 Y134.9 E16.49434
G1 X132.959 Y134.476 E16.55854
G1 X133.154 Y133.977 E16.63766
G1 X133.422 Y133.512 E16.71692
G1 X133.854 Y132.988 E16.8172
G1 X134.088 Y132.754 E16.86607
G1 X134.495 Y132.405 E16.94525
G1 X134.949 Y132.119 E17.02449
G1 X135.44 Y131.904 E17.10364
G1 X135.958 Y131.764 E17.18288
G1 X136.634 Y131.7 E17.28316
G1 X139.366 Y131.7 E17.68661
G1 X139.901 Y131.74 E17.76583
G1 X140.424 Y131.859 E17.84504
G1 X140.923 Y132.054 E17.92416
G1 X141.388 Y132.322 E18.00341
G1 X141.912 Y132.754 E18.1037
G1 X142.146 Y132.988 E18.15257
G1 X142.495 Y133.395 E18.23175
G1 X142.781 Y133.849 E18.31099
G1 X142.996 Y134.34 E18.39014
G1 X143.136 Y134.858 E18.46938
G1 X143.2 Y135.534 E18.56966
G1 X143.2 Y141.466 E19.44566
G1 X143.16 Y142.001 E19.52489
G1 X143.041 Y142.524 E19.6041
G1 X142.846 Y143.023 E19.68322
G1 X142.578 Y143.488 E19.76247
G1 X142.146 Y144.012 E19.86276
G1 X141.912 Y144.246 E19.91163
G1 X141.505 Y144.595 E19.99081
G1 X141.051 Y144.881 E20.07004
G1 X140.56 Y145.096 E20.1492
G1 X140.042 Y145.236 E20.22844
G1 X139.366 Y145.3 E20.32871
G1 X120.634 Y145.3 E23.09496
G1 X120.099 Y145.26 E23.17419
G1 X119.576 Y145.141 E23.2534
G1 X119.077 Y144.946 E23.33251
G1 X118.612 Y144.678 E23.41177
G1 X118.088 Y144.246 E23.51206
G1 X117.854 Y144.012 E23.56093
G1 X117.505 Y143.605 E23.6401
G1 X117.495 Y143.589 E23.64289
G1 X117.146 Y144.012 E23.72387
G1 X116.912 Y144.246 E23.77274
G1 X116.505 Y144.595 E23.85192
G1 X116.051 Y144.881 E23.93116
G1 X115.56 Y145.096 E24.01031
G1 X115.042 Y145.236 E24.08955
G1 X114.366 Y145.3 E24.18983
G1 X95.634 Y145.3 E26.95608
G1 X95.099 Y145.26 E27.0353
G1 X94.576 Y145.141 E27.11451
G1 X94.077 Y144.946 E27.19363
G1 X93.612 Y144.678 E27.27288
G1 X93.088 Y144.246 E27.37317
G1 X92.854 Y144.012 E27.42204
G1 X92.505 Y143.605 E27.50122
G1 X92.219 Y143.151 E27.58046
G1 X92.004 Y142.66 E27.65961
G1 X91.864 Y142.142 E27.73885
G1 X91.8 Y141.466 E27.83913
G1 X91.8 Y135.534 E28.71513
G1 X91.84 Y134.999 E28.79436
G1 X91.959 Y134.476 E28.87357
G1 X92.154 Y133.977 E28.95269
G1 X92.422 Y133.512 E29.03194
G1 X92.854 Y132.988 E29.13223
G1 X93.088 Y132.754 E29.1811
G1 X93.495 Y132.405 E29.26028
G1 X93.949 Y132.119 E29.33951
G1 X94.44 Y131.904 E29.41867
G1 X94.958 Y131.764 E29.49791
G1 X95.634 Y131.7 E29.59818
G1 X98.366 Y131.7 E30.00163
G1 X98.901 Y131.74 E30.08086
G1 X99.424 Y131.859 E30.16007
G1 X99.923 Y132.054 E30.23918
G1 X100.388 Y132.322 E30.31844
G1 X100.912 Y132.754 E30.41873
G1 X101.146 Y132.988 E30.4676
G1 X101.495 Y133.395 E30.54677
G1 X101.781 Y133.849 E30.62601
G1 X101.996 Y134.34 E30.70517
G1 X102.136 Y134.858 E30.78441
G1 X102.14 Y134.9 E30.79064
G1 X107.8 Y134.9 E31.62648
G1 X107.8 Y115.7 E34.46184
G1 X102.137 Y115.7 E35.29812
G1 X102.041 Y116.124 E35.36232
G1 X101.846 Y116.623 E35.44144
G1 X101.578 Y117.088 E35.5207
G1 X101.146 Y117.612 E35.62099
G1 X100.912 Y117.846 E35.66985
G1 X100.505 Y118.195 E35.74903
G1 X100.051 Y118.481 E35.82827
G1 X99.56 Y118.696 E35.90742
G1 X99.042 Y118.836 E35.98666
G1 X98.366 Y118.9 E36.08694
G1 X95.634 Y118.9 E36.49039
G1 X95.099 Y118.86 E36.56961
G1 X94.576 Y118.741 E36.64882
G1 X94.077 Y118.546 E36.72794
G1 X93.612 Y118.278 E36.8072
G1 X93.088 Y117.846 E36.90748
G1 X92.854 Y117.612 E36.95635
G1 X92.505 Y117.205 E37.03553
G1 X92.219 Y116.751 E37.11477
G1 X92.004 Y116.26 E37.19392
G1 X91.864 Y115.742 E37.27316
G1 X91.8 Y115.066 E37.37344
G1 X91.8 Y109.134 E38.24945
G1 X91.84 Y108.599 E38.32867
G1 X91.959 Y108.076 E38.40788
G1 X92.154 Y107.577 E38.487
G1 X92.422 Y107.112 E38.56625
G1 X92.854 Y106.588 E38.66654
G1 X93.088 Y106.354 E38.71541
G1 X93.495 Y106.005 E38.79459
G1 X93.949 Y105.719 E38.87383
G1 X94.44 Y105.504 E38.95298
G1 X94.958 Y105.364 E39.03222
G1 X95.634 Y105.3 E39.1325
G1 X99.8 Y105.3 E39.74771
G1 X99.8 Y93.534 E41.48525
G1 X99.84 Y92.999 E41.56448
G1 X99.959 Y92.476 E41.64369
G1 X100.154 Y91.977 E41.72281
G1 X100.422 Y91.512 E41.80206
G1 X100.854 Y90.988 E41.90235
G0 F6000 X101.42 Y91.554
G1 F1200 X101.654 Y91.32 E41.95122
G1 X102.016 Y91.015 E42.02112
G1 X102.423 Y90.775 E42.0909
G1 X102.865 Y90.608 E42.16068
G1 X103.329 Y90.517 E42.2305
G1 X103.634 Y90.5 E42.27561
G1 X106.366 Y90.5 E42.67906
G1 X106.837 Y90.54 E42.74887
G1 X107.295 Y90.659 E42.81875
G1 X107.726 Y90.853 E42.88855
G1 X108.119 Y91.116 E42.95838
G1 X108.346 Y91.32 E43.00345
G1 X108.58 Y91.554 E43.05232
G1 X108.885 Y91.916 E43.12222
G1 X108.998 Y92.107 E43.15499
G1 X109.216 Y91.781 E43.21291
G1 X109.42 Y91.554 E43.25798
G1 X109.654 Y91.32 E43.30685
G1 X110.016 Y91.015 E43.37675
G1 X110.423 Y90.775 E43.44653
G1 X110.865 Y90.608 E43.5163
G1 X111.329 Y90.517 E43.58613
G1 X111.634 Y90.5 E43.63124
G1 X114.366 Y90.5 E44.03469
G1 X114.837 Y90.54 E44.10449
G1 X115.295 Y90.659 E44.17437
G1 X115.726 Y90.853 E44.24417
G1 X116.119 Y91.116 E44.314
G1 X116.346 Y91.32 E44.35907
G1 X116.58 Y91.554 E44.40794
G1 X116.885 Y91.916 E44.47785
G1 X117.125 Y92.323 E44.54762
G1 X117.292 Y92.765 E44.6174
G1 X117.383 Y93.229 E44.68723
G1 X117.4 Y93.534 E44.73234
G1 X117.4 Y141.466 E51.81069
G1 X117.36 Y141.937 E51.8805
G1 X117.241 Y142.395 E51.95038
G1 X117.047 Y142.826 E52.02018
G1 X116.784 Y143.219 E52.09001
G1 X116.58 Y143.446 E52.13508
G1 X116.346 Y143.68 E52.18395
G1 X115.984 Y143.985 E52.25385
G1 X115.577 Y144.225 E52.32363
G1 X115.135 Y144.392 E52.39341
G1 X114.671 Y144.483 E52.46323
G1 X114.366 Y144.5 E52.50834
G1 X95.634 Y144.5 E55.27459
G1 X95.163 Y144.46 E55.3444
G1 X94.705 Y144.341 E55.41428
G1 X94.274 Y144.147 E55.48408
G1 X93.881 Y143.884 E55.55391
G1 X93.654 Y143.68 E55.59898
G1 X93.42 Y143.446 E55.64785
G1 X93.115 Y143.084 E55.71775
G1 X92.875 Y142.677 E55.78753
G1 X92.708 Y142.235 E55.8573
G1 X92.617 Y141.771 E55.92713
G1 X92.6 Y141.466 E55.97224
G1 X92.6 Y135.534 E56.84825
G1 X92.64 Y135.063 E56.91805
G1 X92.759 Y134.605 E56.98793
G1 X92.953 Y134.174 E57.05773
G1 X93.216 Y133.781 E57.12757
G1 X93.42 Y133.554 E57.17264
G1 X93.654 Y133.32 E57.2215
G1 X94.016 Y133.015 E57.29141
G1 X94.423 Y132.775 E57.36118
G1 X94.865 Y132.608 E57.43096
G1 X95.329 Y132.517 E57.50079
G1 X95.634 Y132.5 E57.5459
G1 X98.366 Y132.5 E57.94934
G1 X98.837 Y132.54 E58.01915
G1 X99.295 Y132.659 E58.08903
G1 X99.726 Y132.853 E58.15883
G1 X100.119 Y133.116 E58.22866
G1 X100.346 Y133.32 E58.27373
G1 X100.58 Y133.554 E58.3226
G1 X100.885 Y133.916 E58.39251
G1 X101.125 Y134.323 E58.46228
G1 X101.292 Y134.765 E58.53206
G1 X101.383 Y135.229 E58.60188
G1 X101.4 Y135.534 E58.64699
G1 X101.4 Y135.7 E58.67151
G1 X108.6 Y135.7 E59.73477
G1 X108.6 Y114.9 E62.80641
G1 X101.4 Y114.9 E63.86967
G1 X101.4 Y115.066 E63.89418
G1 X101.36 Y115.537 E63.96399
G1 X101.241 Y115.995 E64.03387
G1 X101.047 Y116.426 E64.10367
G1 X100.784 Y116.819 E64.1735
G1 X100.58 Y117.046 E64.21857
G1 X100.346 Y117.28 E64.26744
G1 X99.984 Y117.585 E64.33734
G1 X99.577 Y117.825 E64.40712
G1 X99.135 Y117.992 E64.47689
G1 X98.671 Y118.083 E64.54672
G1 X98.366 Y118.1 E64.59183
G1 X95.634 Y118.1 E64.99528
G1 X95.163 Y118.06 E65.06508
G1 X94.705 Y117.941 E65.13496
G1 X94.274 Y117.747 E65.20476
G1 X93.881 Y117.484 E65.2746
G1 X93.654 Y117.28 E65.31967
G1 X93.42 Y117.046 E65.36854
G1 X93.115 Y116.684 E65.43844
G1 X92.875 Y116.277 E65.50821
G1 X92.708 Y115.835 E65.57799
G1 X92.617 Y115.371 E65.64782
G1 X92.6 Y115.066 E65.69293
G1 X92.6 Y109.134 E66.56894
G1 X92.64 Y108.663 E66.63874
G1 X92.759 Y108.205 E66.70862
G1 X92.953 Y107.774 E66.77842
G1 X93.216 Y107.381 E66.84825
G1 X93.42 Y107.154 E66.89332
G1 X93.654 Y106.92 E66.94219
G1 X94.016 Y106.615 E67.0121
G1 X94.423 Y106.375 E67.08187
G1 X94.865 Y106.208 E67.15165
G1 X95.329 Y106.117 E67.22147
G1 X95.634 Y106.1 E67.26658
G1 X100.6 Y106.1 E67.99994
G1 X100.6 Y93.534 E69.85562
G1 X100.64 Y93.063 E69.92543
G1 X100.759 Y92.605 E69.99531
G1 X100.953 Y92.174 E70.06511
G1 X101.216 Y91.781 E70.13494
G1 X101.42 Y91.554 E70.18001
G0 F6000 X101.986 Y92.12
G1 F1200 X102.22 Y91.886 E70.22888
G1 X102.529 Y91.633 E70.28786
G1 X102.882 Y91.447 E70.34678
G1 X103.266 Y91.334 E70.40589
G1 X103.634 Y91.3 E70.46047
G1 X106.366 Y91.3 E70.86391
G1 X106.764 Y91.34 E70.92298
G1 X107.145 Y91.458 E70.98189
G1 X107.496 Y91.65 E71.04097
G1 X107.78 Y91.886 E71.0955
G1 X108.014 Y92.12 E71.14437
G1 X108.267 Y92.429 E71.20334
G1 X108.453 Y92.782 E71.26227
G1 X108.566 Y93.166 E71.32138
G1 X108.6 Y93.534 E71.37595
G1 X108.6 Y106.9 E73.34978
G1 X109.4 Y106.9 E73.46792
G1 X109.4 Y93.534 E75.44174
G1 X109.44 Y93.136 E75.50081
G1 X109.558 Y92.755 E75.55971
G1 X109.75 Y92.404 E75.6188
G1 X109.986 Y92.12 E75.67333
G1 X110.22 Y91.886 E75.72219
G1 X110.529 Y91.633 E75.78117
G1 X110.882 Y91.447 E75.84009
G1 X111.266 Y91.334 E75.89921
G1 X111.634 Y91.3 E75.95378
G1 X114.366 Y91.3 E76.35723
G1 X114.764 Y91.34 E76.4163
G1 X115.145 Y91.458 E76.4752
G1 X115.496 Y91.65 E76.53428
G1 X115.78 Y91.886 E76.58881
G1 X116.014 Y92.12 E76.63768
G1 X116.267 Y92.429 E76.69666
G1 X116.453 Y92.782 E76.75558
G1 X116.566 Y93.166 E76.81469
G1 X116.6 Y93.534 E76.86927
G1 X116.6 Y141.466 E83.94763
G1 X116.56 Y141.864 E84.0067
G1 X116.442 Y142.245 E84.0656
G1 X116.25 Y142.596 E84.12468
G1 X116.014 Y142.88 E84.17921
G1 X115.78 Y143.114 E84.22808
G1 X115.471 Y143.367 E84.28706
G1 X115.118 Y143.553 E84.34598
G1 X114.734 Y143.666 E84.40509
G1 X114.366 Y143.7 E84.45967
G1 X95.634 Y143.7 E87.22591
G1 X95.236 Y143.66 E87.28499
G1 X94.855 Y143.542 E87.34389
G1 X94.504 Y143.35 E87.40297
G1 X94.22 Y143.114 E87.4575
G1 X93.986 Y142.88 E87.50637
G1 X93.733 Y142.571 E87.56534
G1 X93.547 Y142.218 E87.62427
G1 X93.434 Y141.834 E87.68338
G1 X93.4 Y141.466 E87.73795
G1 X93.4 Y135.534 E88.61396
G1 X93.44 Y135.136 E88.67303
G1 X93.558 Y134.755 E88.73193
G1 X93.75 Y134.404 E88.79102
G1 X93.986 Y134.12 E88.84555
G1 X94.22 Y133.886 E88.89442
G1 X94.529 Y133.633 E88.95339
G1 X94.882 Y133.447 E89.01231
G1 X95.266 Y133.334 E89.07143
G1 X95.634 Y133.3 E89.126
G1 X98.366 Y133.3 E89.52945
G1 X98.764 Y133.34 E89.58852
G1 X99.145 Y133.458 E89.64742
G1 X99.496 Y133.65 E89.7065
G1 X99.78 Y133.886 E89.76103
G1 X100.014 Y134.12 E89.8099
G1 X100.267 Y134.429 E89.86888
G1 X100.453 Y134.782 E89.9278
G1 X100.566 Y135.166 E89.98691
G1 X100.6 Y135.534 E90.04149
G1 X100.6 Y136.5 E90.18414
G1 X109.4 Y136.5 E91.48368
G1 X109.4 Y114.1 E94.7916
G1 X100.6 Y114.1 E96.09114
G1 X100.6 Y115.066 E96.2338
G1 X100.56 Y115.464 E96.29287
G1 X100.442 Y115.845 E96.35177
G1 X100.25 Y116.196 E96.41085
G1 X100.014 Y116.48 E96.46538
G1 X99.78 Y116.714 E96.51425
G1 X99.471 Y116.967 E96.57323
G1 X99.118 Y117.153 E96.63215
G1 X98.734 Y117.266 E96.69126
G1 X98.366 Y117.3 E96.74584
G1 X95.634 Y117.3 E97.14929
G1 X95.236 Y117.26 E97.20836
G1 X94.855 Y117.142 E97.26726
G1 X94.504 Y116.95 E97.32634
G1 X94.22 Y116.714 E97.38087
G1 X93.986 Y116.48 E97.42974
G1 X93.733 Y116.171 E97.48871
G1 X93.547 Y115.818 E97.54764
G1 X93.434 Y115.434 E97.60675
G1 X93.4 Y115.066 E97.66132
G1 X93.4 Y109.134 E98.53733
G1 X93.44 Y108.736 E98.5964
G1 X93.558 Y108.355 E98.6553
G1 X93.75 Y108.004 E98.71439
G1 X93.986 Y107.72 E98.76892
G1 X94.22 Y107.486 E98.81779
G1 X94.529 Y107.233 E98.87676
G1 X94.882 Y107.047 E98.93569
G1 X95.266 Y106.934 E98.9948
G1 X95.634 Y106.9 E99.04937
G1 X101.4 Y106.9 E99.90087
G1 X101.4 Y93.534 E101.87469
G1 X101.44 Y93.136 E101.93376
G1 X101.558 Y92.755 E101.99266
G1 X101.75 Y92.404 E102.05174
G1 X101.986 Y92.12 E102.10627
G0 F6000 X102.551 Y92.685
G1 F1200 X102.785 Y92.451 E102.15514
G1 X103.03 Y92.263 E102.20075
G1 X103.315 Y92.143 E102.24641
G1 X103.634 Y92.1 E102.29395
G1 X106.366 Y92.1 E102.6974
G1 X106.673 Y92.14 E102.74312
G1 X106.959 Y92.257 E102.78875
G1 X107.215 Y92.451 E102.83618
G1 X107.449 Y92.685 E102.88505
G1 X107.637 Y92.93 E102.93066
G1 X107.757 Y93.215 E102.97632
G1 X107.8 Y93.534 E103.02386
G1 X107.8 Y107.7 E105.11582
G1 X110.2 Y107.7 E105.47024
G1 X110.2 Y93.534 E107.56221
G1 X110.24 Y93.227 E107.60793
G1 X110.357 Y92.941 E107.65356
G1 X110.551 Y92.685 E107.70099
G1 X110.785 Y92.451 E107.74986
G1 X111.03 Y92.263 E107.79547
G1 X111.315 Y92.143 E107.84113
G1 X111.634 Y92.1 E107.88867
G1 X114.366 Y92.1 E108.29211
G1 X114.673 Y92.14 E108.33783
G1 X114.959 Y92.257 E108.38347
G1 X115.215 Y92.451 E108.4309
G1 X115.449 Y92.685 E108.47977
G1 X115.637 Y92.93 E108.52537
G1 X115.757 Y93.215 E108.57104
G1 X115.8 Y93.534 E108.61857
G1 X115.8 Y141.466 E115.69693
G1 X115.76 Y141.773 E115.74265
G1 X115.643 Y142.059 E115.78828
G1 X115.449 Y142.315 E115.83572
