;FLAVOR:Marlin
;TIME:9796
;Filament used: 5.3512m
;Layer height: 0.16
;MINX:79
;MINY:101.249
;MINZ:0.2
;MAXX:156
;MAXY:133.75
;MAXZ:54.84
;Generated with Cura_SteamEngine 4.8.0
M140 S70
M105
M190 S70
M104 S210
M105
M109 S210
M82 ;absolute extrusion mode
; Ender 3 Custom Start G-code
G92 E0 ; Reset Extruder
G28 ; Home all axes
G1 Z2.0 F3000 ; Move Z Axis up little to prevent scratching of Heat Bed
G1 X0.1 Y20 Z0.3 F5000.0 ; Move to start position
G1 X0.1 Y200.0 Z0.3 F1500.0 E15 ; Draw the first line
G1 X0.4 Y200.0 Z0.3 F5000.0 ; Move to side a little
G1 X0.4 Y20 Z0.3 F1500.0 E30 ; Draw the second line
G92 E0 ; Reset Extruder
G1 Z2.0 F3000 ; Move Z Axis up little to prevent scratching of Heat Bed
G1 X5 Y20 Z0.3 F5000.0 ; Move over to prevent blob squish
G92 E0
G92 E0
G1 F2700 E-5
;LAYER_COUNT:276
;LAYER:0
M107
G0 F3000 X82.886 Y103.877 Z0.2
;TYPE:SKIRT
G1 F2700 E0
G1 F1200 X83.626 Y103.301 E0.03743
G1 X84.412 Y102.789 E0.07487
G1 X85.239 Y102.347 E0.11229
G1 X86.101 Y101.977 E0.14973
G1 X86.991 Y101.681 E0.18717
G1 X87.903 Y101.463 E0.22459
G1 X88.83 Y101.322 E0.26202
G1 X89.701 Y101.263 E0.29686
G1 X90.022 Y101.254 E0.30968
G1 X90.329 Y101.25 E0.32193
G1 X102.999 Y101.249 E0.82762
G1 X109.239 Y101.251 E1.07667
G1 X144.451 Y101.251 E2.48206
G1 X145.149 Y101.261 E2.50992
G1 X146.085 Y101.315 E2.54734
G1 X147.013 Y101.447 E2.58475
G1 X147.927 Y101.659 E2.6222
G1 X148.819 Y101.948 E2.65962
G1 X149.684 Y102.311 E2.69706
G1 X150.514 Y102.747 E2.73448
G1 X151.305 Y103.252 E2.77194
G1 X152.049 Y103.823 E2.80937
G1 X152.742 Y104.455 E2.8468
G1 X153.379 Y105.143 E2.88423
G1 X153.954 Y105.884 E2.92166
G1 X154.465 Y106.67 E2.95908
G1 X154.907 Y107.498 E2.99654
G1 X155.276 Y108.36 E3.03396
G1 X155.571 Y109.25 E3.07139
G1 X155.789 Y110.162 E3.10881
G1 X155.929 Y111.09 E3.14627
G1 X155.987 Y111.951 E3.18071
G1 X155.996 Y112.271 E3.19349
G1 X156 Y112.58 E3.20582
G1 X155.999 Y122.15 E3.58778
G1 X155.99 Y122.877 E3.6168
G1 X155.939 Y123.814 E3.65425
G1 X155.807 Y124.742 E3.69166
G1 X155.598 Y125.656 E3.72909
G1 X155.311 Y126.549 E3.76652
G1 X154.949 Y127.415 E3.80398
G1 X154.515 Y128.246 E3.8414
G1 X154.011 Y129.037 E3.87884
G1 X153.442 Y129.782 E3.91625
G1 X152.811 Y130.477 E3.95372
G1 X152.124 Y131.115 E3.99114
G1 X151.385 Y131.692 E4.02856
G1 X150.599 Y132.204 E4.066
G1 X149.773 Y132.647 E4.10341
G1 X148.911 Y133.019 E4.14088
G1 X148.022 Y133.315 E4.17828
G1 X147.11 Y133.535 E4.21572
G1 X146.183 Y133.676 E4.25314
G1 X145.299 Y133.737 E4.28851
G1 X144.978 Y133.746 E4.30133
G1 X144.67 Y133.75 E4.31362
G1 X90.565 Y133.749 E6.47307
G1 X89.867 Y133.74 E6.50093
G1 X88.931 Y133.688 E6.53835
G1 X88.002 Y133.556 E6.5758
G1 X87.088 Y133.346 E6.61323
G1 X86.195 Y133.059 E6.65066
G1 X85.33 Y132.696 E6.6881
G1 X84.499 Y132.262 E6.72552
G1 X83.708 Y131.758 E6.76296
G1 X82.963 Y131.188 E6.8004
G1 X82.269 Y130.557 E6.83783
G1 X81.632 Y129.87 E6.87523
G1 X81.055 Y129.13 E6.91268
G1 X80.543 Y128.344 E6.95012
G1 X80.1 Y127.517 E6.98756
G1 X79.729 Y126.656 E7.02498
G1 X79.433 Y125.766 E7.06242
G1 X79.214 Y124.854 E7.09985
G1 X79.073 Y123.927 E7.13727
G1 X79.013 Y123.038 E7.17284
G1 X79.004 Y122.705 E7.18613
G1 X79 Y122.408 E7.19799
G1 X79.001 Y112.775 E7.58246
G1 X79.01 Y112.11 E7.60901
G1 X79.063 Y111.174 E7.64642
G1 X79.195 Y110.245 E7.68387
G1 X79.406 Y109.331 E7.72131
G1 X79.694 Y108.439 E7.75872
G1 X80.057 Y107.574 E7.79617
G1 X80.492 Y106.743 E7.8336
G1 X80.996 Y105.953 E7.871
G1 X81.566 Y105.208 E7.90844
G1 X82.198 Y104.514 E7.94591
G1 X82.886 Y103.877 E7.98333
G0 F3000 X83.274 Y104.073
G1 F1200 X84.01 Y103.52 E8.02007
G1 X84.791 Y103.032 E8.05683
G1 X85.611 Y102.614 E8.09356
G1 X86.465 Y102.269 E8.13032
G1 X87.345 Y101.999 E8.16706
G1 X88.245 Y101.807 E8.20379
G1 X89.159 Y101.693 E8.24055
G1 X89.712 Y101.663 E8.26266
G1 X90.033 Y101.654 E8.27547
G1 X90.329 Y101.65 E8.28729
G1 X102.999 Y101.649 E8.79298
G1 X109.238 Y101.651 E9.04199
G1 X144.445 Y101.651 E10.44718
G1 X145.143 Y101.661 E10.47504
G1 X146.062 Y101.714 E10.51178
G1 X146.973 Y101.847 E10.54852
G1 X147.869 Y102.058 E10.58526
G1 X148.743 Y102.346 E10.62199
G1 X149.59 Y102.709 E10.65877
G1 X150.401 Y103.144 E10.6955
G1 X151.171 Y103.648 E10.73223
G1 X151.895 Y104.217 E10.76898
G1 X152.567 Y104.847 E10.80575
G1 X153.182 Y105.532 E10.84249
G1 X153.735 Y106.268 E10.87923
G1 X154.222 Y107.049 E10.91597
G1 X154.639 Y107.87 E10.95272
G1 X154.984 Y108.724 E10.98948
G1 X155.253 Y109.604 E11.02621
G1 X155.445 Y110.505 E11.06298
G1 X155.558 Y111.418 E11.0997
G1 X155.587 Y111.962 E11.12144
G1 X155.596 Y112.282 E11.13422
G1 X155.6 Y112.58 E11.14611
G1 X155.599 Y122.145 E11.52787
G1 X155.59 Y122.872 E11.55689
G1 X155.539 Y123.791 E11.59362
G1 X155.408 Y124.703 E11.6304
G1 X155.198 Y125.599 E11.66713
G1 X154.912 Y126.474 E11.70387
G1 X154.551 Y127.321 E11.74062
G1 X154.117 Y128.133 E11.77736
G1 X153.615 Y128.905 E11.81412
G1 X153.047 Y129.63 E11.85088
G1 X152.419 Y130.303 E11.88762
G1 X151.735 Y130.919 E11.92436
G1 X151 Y131.473 E11.96109
G1 X150.22 Y131.962 E11.99783
G1 X149.4 Y132.381 E12.03459
G1 X148.547 Y132.727 E12.07133
G1 X147.667 Y132.998 E12.10808
G1 X146.767 Y133.191 E12.14481
G1 X145.853 Y133.306 E12.18158
G1 X145.288 Y133.337 E12.20417
G1 X144.967 Y133.346 E12.21698
G1 X144.67 Y133.35 E12.22884
G1 X90.57 Y133.349 E14.38809
G1 X89.872 Y133.34 E14.41595
G1 X88.953 Y133.288 E14.45268
G1 X88.042 Y133.157 E14.48942
G1 X87.146 Y132.947 E14.52615
G1 X86.271 Y132.66 E14.5629
G1 X85.424 Y132.298 E14.59967
G1 X84.612 Y131.864 E14.63641
G1 X83.841 Y131.362 E14.67313
G1 X83.116 Y130.794 E14.70989
G1 X82.443 Y130.165 E14.74666
G1 X81.828 Y129.481 E14.78337
G1 X81.274 Y128.746 E14.82011
G1 X80.786 Y127.965 E14.85686
G1 X80.367 Y127.145 E14.89362
G1 X80.021 Y126.292 E14.93036
G1 X79.751 Y125.412 E14.96709
G1 X79.558 Y124.511 E15.00387
G1 X79.444 Y123.598 E15.04059
G1 X79.413 Y123.027 E15.06342
G1 X79.404 Y122.694 E15.07671
G1 X79.4 Y122.408 E15.08813
G1 X79.401 Y112.781 E15.47236
G1 X79.41 Y112.116 E15.49891
G1 X79.462 Y111.196 E15.53569
G1 X79.594 Y110.285 E15.57242
G1 X79.805 Y109.389 E15.60916
G1 X80.092 Y108.514 E15.64592
G1 X80.455 Y107.668 E15.68266
G1 X80.889 Y106.856 E15.71941
G1 X81.392 Y106.085 E15.75615
G1 X81.961 Y105.361 E15.7929
G1 X82.589 Y104.689 E15.82961
G1 X83.274 Y104.073 E15.86638
G0 F3000 X83.662 Y104.274
G1 F1200 X84.394 Y103.744 E15.90245
G1 X85.169 Y103.281 E15.93848
G1 X85.982 Y102.888 E15.97452
G1 X86.827 Y102.568 E16.01059
G1 X87.696 Y102.325 E16.0466
G1 X88.584 Y102.159 E16.08266
G1 X89.723 Y102.063 E16.12828
G1 X90.044 Y102.054 E16.14109
G1 X90.329 Y102.05 E16.15247
G1 X102.999 Y102.049 E16.65816
G1 X109.238 Y102.051 E16.90717
G1 X144.439 Y102.051 E18.31212
G1 X145.137 Y102.061 E18.33998
G1 X146.039 Y102.114 E18.37604
G1 X146.932 Y102.246 E18.41207
G1 X147.81 Y102.457 E18.44811
G1 X148.666 Y102.745 E18.48416
G1 X149.493 Y103.107 E18.52019
G1 X150.285 Y103.542 E18.55625
G1 X151.036 Y104.044 E18.59231
G1 X151.739 Y104.611 E18.62835
G1 X152.389 Y105.238 E18.6644
G1 X152.981 Y105.92 E18.70044
G1 X153.511 Y106.651 E18.73648
G1 X153.973 Y107.427 E18.77253
G1 X154.366 Y108.24 E18.80857
G1 X154.684 Y109.085 E18.8446
G1 X154.927 Y109.955 E18.88066
G1 X155.092 Y110.843 E18.9167
G1 X155.187 Y111.973 E18.96196
G1 X155.196 Y112.293 E18.97474
G1 X155.2 Y112.58 E18.9862
G1 X155.199 Y122.14 E19.36776
G1 X155.19 Y122.867 E19.39678
G1 X155.139 Y123.769 E19.43283
G1 X155.008 Y124.663 E19.4689
G1 X154.799 Y125.541 E19.50492
G1 X154.513 Y126.398 E19.54098
G1 X154.152 Y127.226 E19.57703
G1 X153.72 Y128.018 E19.61304
G1 X153.219 Y128.77 E19.6491
G1 X152.653 Y129.474 E19.68515
G1 X152.028 Y130.125 E19.72117
G1 X151.347 Y130.719 E19.75724
G1 X150.616 Y131.25 E19.7933
G1 X149.842 Y131.714 E19.82932
G1 X149.029 Y132.108 E19.86538
G1 X148.185 Y132.428 E19.9014
G1 X147.315 Y132.673 E19.93748
G1 X146.428 Y132.839 E19.97349
G1 X145.277 Y132.937 E20.0196
G1 X144.956 Y132.946 E20.03242
G1 X144.67 Y132.95 E20.04383
G1 X90.575 Y132.949 E22.20288
G1 X89.877 Y132.94 E22.23074
G1 X88.976 Y132.889 E22.26676
G1 X88.082 Y132.757 E22.30283
G1 X87.204 Y132.548 E22.33885
G1 X86.347 Y132.261 E22.37492
G1 X85.52 Y131.9 E22.41094
G1 X84.727 Y131.467 E22.447
G1 X83.976 Y130.966 E22.48303
G1 X83.272 Y130.4 E22.51908
G1 X82.621 Y129.774 E22.55513
G1 X82.028 Y129.093 E22.59117
G1 X81.498 Y128.362 E22.62721
G1 X81.034 Y127.587 E22.66326
G1 X80.64 Y126.774 E22.69932
G1 X80.32 Y125.93 E22.73534
G1 X80.076 Y125.06 E22.77141
G1 X79.91 Y124.172 E22.80746
G1 X79.813 Y123.017 E22.85372
G1 X79.804 Y122.684 E22.86702
G1 X79.8 Y122.408 E22.87804
G1 X79.801 Y112.786 E23.26207
G1 X79.81 Y112.121 E23.28862
G1 X79.862 Y111.219 E23.32468
G1 X79.994 Y110.326 E23.3607
G1 X80.204 Y109.448 E23.39674
G1 X80.491 Y108.591 E23.43281
G1 X80.853 Y107.764 E23.46884
G1 X81.286 Y106.972 E23.50487
G1 X81.788 Y106.221 E23.54092
G1 X82.355 Y105.517 E23.577
G1 X82.981 Y104.867 E23.61301
G1 X83.662 Y104.274 E23.64906
G1 F2700 E18.64906
G0 F3000 X103.154 Y111.589
G0 X104.797 Y113.25
G1 F2700 E23.64906
G1 F1200 X107.202 Y113.25 E23.74504
G1 X107.202 Y113.75 E23.765
G1 X104.797 Y113.75 E23.86099
G1 X104.797 Y113.25 E23.88095
G0 F3000 X104.397 Y112.85
G1 F1200 X107.602 Y112.85 E24.00886
G1 X107.602 Y114.15 E24.06075
G1 X104.397 Y114.15 E24.18867
G1 X104.397 Y112.85 E24.24055
G0 F3000 X103.997 Y112.45
G1 F1200 X108.002 Y112.45 E24.4004
G1 X108.002 Y114.55 E24.48422
G1 X103.997 Y114.55 E24.64407
G1 X103.997 Y112.45 E24.72788
G1 F2700 E19.72788
G0 F3000 X108.845 Y111.589
G0 X126.154 Y111.589
G0 X126.997 Y112.45
G1 F2700 E24.72788
G1 F1200 X131.003 Y112.451 E24.88777
G1 X131.003 Y114.55 E24.97155
G1 X126.997 Y114.55 E25.13143
G1 X126.997 Y112.45 E25.21525
G0 F3000 X127.397 Y112.85
G1 F1200 X130.603 Y112.851 E25.34321
G1 X130.603 Y114.15 E25.39505
G1 X127.397 Y114.15 E25.52301
G1 X127.397 Y112.85 E25.5749
G0 F3000 X127.797 Y113.25
G1 F1200 X130.203 Y113.251 E25.67093
G1 X130.203 Y113.75 E25.69084
G1 X127.797 Y113.75 E25.78687
G1 X127.797 Y113.25 E25.80683
G1 F2700 E20.80683
;MESH:LiPoChe.stl
G0 F3000 X131.338 Y113.25
G0 X132.423 Y113.25
G0 X143.818 Y113.432
G0 X144 Y121.75
;TYPE:WALL-INNER
G1 F2700 E25.80683
G1 F1200 X91 Y121.75 E27.92217
G1 X91 Y113.25 E28.26142
G1 X101.997 Y113.25 E28.70034
G1 X101.997 Y118.252 E28.89998
G1 X110.002 Y118.252 E29.21948
G1 X110.002 Y113.25 E29.41912
G1 X124.997 Y113.25 E30.0176
G1 X124.997 Y118.252 E30.21724
G1 X133.003 Y118.252 E30.53678
G1 X133.003 Y113.25 E30.73642
G1 X144 Y113.25 E31.17533
G1 X144 Y121.75 E31.51459
G0 F3000 X144.4 Y122.15
G1 F1200 X90.6 Y122.15 E33.66186
G1 X90.6 Y112.85 E34.03304
G1 X102.397 Y112.85 E34.50389
G1 X102.397 Y117.852 E34.70353
G1 X109.602 Y117.852 E34.99109
G1 X109.602 Y112.85 E35.19073
G1 X125.397 Y112.85 E35.82115
G1 X125.397 Y117.852 E36.02079
G1 X132.603 Y117.852 E36.3084
G1 X132.603 Y112.85 E36.50804
G1 X144.4 Y112.85 E36.97888
G1 X144.4 Y122.15 E37.35006
G0 F3000 X144.8 Y122.55
;TYPE:WALL-OUTER
G1 F1200 X90.2 Y122.55 E39.52927
G1 X90.2 Y112.45 E39.93238
G1 X102.797 Y112.45 E40.43515
G1 X102.797 Y117.452 E40.63479
G1 X109.202 Y117.452 E40.89043
G1 X109.202 Y112.45 E41.09007
G1 X125.797 Y112.45 E41.75241
G1 X125.797 Y117.452 E41.95205
G1 X132.203 Y117.452 E42.20773
G1 X132.203 Y112.45 E42.40737
G1 X144.8 Y112.45 E42.91015
G1 X144.8 Y122.55 E43.31326
G0 F3000 X144.53 Y122.28
G0 X143.89 Y121.36
G0 X143.61 Y121.36
;TYPE:SKIN
G1 F1200 X91.39 Y121.36 E45.39747
G1 X91.39 Y113.64 E45.70559
G1 X101.607 Y113.64 E46.11338
G1 X101.607 Y118.642 E46.31302
G1 X110.392 Y118.642 E46.66365
G1 X110.392 Y113.64 E46.86329
G1 X124.607 Y113.64 E47.43064
G1 X124.607 Y118.642 E47.63028
G1 X133.393 Y118.642 E47.98095
G1 X133.393 Y113.64 E48.18059
G1 X143.61 Y113.64 E48.58837
G1 X143.61 Y121.36 E48.89649
G0 F3000 X143.89 Y121.36
G0 X143.89 Y114.033
G0 X143.449 Y114.033
G1 F1200 X143.215 Y113.8 E48.90967
G0 F3000 X142.65 Y113.8
G1 F1200 X143.449 Y114.599 E48.95477
G0 F3000 X143.449 Y115.165
G1 F1200 X142.084 Y113.8 E49.03182
G0 F3000 X141.518 Y113.8
G1 F1200 X143.449 Y115.73 E49.14078
G0 F3000 X143.449 Y116.296
G1 F1200 X140.953 Y113.8 E49.28167
G0 F3000 X140.387 Y113.8
G1 F1200 X143.449 Y116.862 E49.4545
G0 F3000 X143.449 Y117.427
G1 F1200 X139.821 Y113.8 E49.65925
G0 F3000 X139.256 Y113.8
G1 F1200 X143.449 Y117.993 E49.89592
G0 F3000 X143.449 Y118.559
G1 F1200 X138.69 Y113.8 E50.16454
G0 F3000 X138.124 Y113.8
G1 F1200 X143.449 Y119.124 E50.46508
G0 F3000 X143.449 Y119.69
G1 F1200 X137.559 Y113.8 E50.79754
G0 F3000 X136.993 Y113.8
G1 F1200 X143.449 Y120.256 E51.16194
G0 F3000 X143.449 Y120.821
G1 F1200 X136.427 Y113.8 E51.55826
G0 F3000 X135.862 Y113.8
G1 F1200 X143.26 Y121.198 E51.97584
G0 F3000 X142.694 Y121.198
G1 F1200 X135.296 Y113.8 E52.39341
G0 F3000 X134.73 Y113.8
G1 F1200 X142.129 Y121.198 E52.81102
G0 F3000 X141.563 Y121.198
G1 F1200 X134.165 Y113.8 E53.22859
G0 F3000 X133.599 Y113.8
G1 F1200 X140.997 Y121.198 E53.64617
G0 F3000 X140.432 Y121.198
G1 F1200 X133.551 Y114.318 E54.03453
G0 F3000 X133.551 Y114.884
G1 F1200 X139.866 Y121.198 E54.39095
G0 F3000 X139.3 Y121.198
G1 F1200 X133.551 Y115.45 E54.71542
G0 F3000 X133.551 Y116.015
G1 F1200 X138.735 Y121.198 E55.008
G0 F3000 X138.169 Y121.198
G1 F1200 X133.551 Y116.581 E55.26863
G0 F3000 X133.551 Y117.147
G1 F1200 X137.603 Y121.198 E55.49732
G0 F3000 X137.038 Y121.198
G1 F1200 X133.551 Y117.712 E55.69411
G0 F3000 X133.551 Y118.278
G1 F1200 X136.472 Y121.198 E55.85895
G0 F3000 X135.906 Y121.198
G1 F1200 X133.51 Y118.802 E55.9942
G0 F3000 X132.944 Y118.802
G1 F1200 X135.34 Y121.198 E56.12944
G0 F3000 X134.775 Y121.198
G1 F1200 X132.378 Y118.802 E56.2647
G0 F3000 X131.813 Y118.802
G1 F1200 X134.209 Y121.198 E56.39995
G0 F3000 X133.643 Y121.198
G1 F1200 X131.247 Y118.802 E56.53519
G0 F3000 X130.681 Y118.802
G1 F1200 X133.078 Y121.198 E56.67045
G0 F3000 X132.512 Y121.198
G1 F1200 X130.116 Y118.802 E56.8057
G0 F3000 X129.55 Y118.802
G1 F1200 X131.946 Y121.198 E56.94094
G0 F3000 X131.381 Y121.198
G1 F1200 X128.984 Y118.802 E57.0762
G0 F3000 X128.419 Y118.802
G1 F1200 X130.815 Y121.198 E57.21145
G0 F3000 X130.249 Y121.198
G1 F1200 X127.853 Y118.802 E57.34669
G0 F3000 X127.287 Y118.802
G1 F1200 X129.684 Y121.198 E57.48195
G0 F3000 X129.118 Y121.198
G1 F1200 X126.722 Y118.802 E57.6172
G0 F3000 X126.156 Y118.802
G1 F1200 X128.552 Y121.198 E57.75244
G0 F3000 X127.987 Y121.198
G1 F1200 X125.59 Y118.802 E57.88771
G0 F3000 X125.024 Y118.802
G1 F1200 X127.421 Y121.198 E58.02297
G0 F3000 X126.855 Y121.198
G1 F1200 X124.459 Y118.802 E58.15821
G0 F3000 X124.446 Y118.789
G1 F1200 X119.457 Y113.8 E58.43982
G0 F3000 X120.022 Y113.8
G1 F1200 X124.446 Y118.224 E58.68952
G0 F3000 X124.446 Y117.658
G1 F1200 X120.588 Y113.8 E58.90729
G0 F3000 X121.154 Y113.8
G1 F1200 X124.446 Y117.092 E59.0931
G0 F3000 X124.446 Y116.526
G1 F1200 X121.719 Y113.8 E59.247
G0 F3000 X122.285 Y113.8
G1 F1200 X124.446 Y115.961 E59.36897
G0 F3000 X124.446 Y115.395
G1 F1200 X122.851 Y113.8 E59.459
G0 F3000 X123.417 Y113.8
G1 F1200 X124.446 Y114.829 E59.51708
G0 F3000 X124.446 Y114.264
G1 F1200 X123.982 Y113.8 E59.54327
G0 F3000 X123.982 Y113.36
G0 X118.891 Y113.36
G0 X118.891 Y113.8
G1 F1200 X126.289 Y121.198 E59.96085
G0 F3000 X125.724 Y121.198
G1 F1200 X118.325 Y113.8 E60.37845
G0 F3000 X117.76 Y113.8
G1 F1200 X125.158 Y121.198 E60.79603
G0 F3000 X124.592 Y121.198
G1 F1200 X117.193 Y113.799 E61.21366
G0 F3000 X116.628 Y113.799
G1 F1200 X124.027 Y121.198 E61.63129
G0 F3000 X123.461 Y121.198
G1 F1200 X116.062 Y113.799 E62.04892
G0 F3000 X115.496 Y113.799
G1 F1200 X122.895 Y121.198 E62.46655
G0 F3000 X122.33 Y121.198
G1 F1200 X114.931 Y113.799 E62.88418
G0 F3000 X114.365 Y113.799
G1 F1200 X121.764 Y121.198 E63.30182
G0 F3000 X121.198 Y121.198
G1 F1200 X113.799 Y113.799 E63.71945
G0 F3000 X113.233 Y113.799
G1 F1200 X120.633 Y121.198 E64.13711
G0 F3000 X120.067 Y121.198
G1 F1200 X112.668 Y113.799 E64.55474
G0 F3000 X112.102 Y113.799
G1 F1200 X119.501 Y121.198 E64.97237
G0 F3000 X118.936 Y121.198
G1 F1200 X111.536 Y113.799 E65.39003
G0 F3000 X110.971 Y113.799
G1 F1200 X118.37 Y121.198 E65.80766
G0 F3000 X117.804 Y121.198
G1 F1200 X110.551 Y113.946 E66.21702
G0 F3000 X110.551 Y114.511
