;FLAVOR:Marlin
;TIME:3328
;Filament used: 8.84171m
;Layer height: 0.32
;MINX:59.9
;MINY:53.9
;MINZ:0.32
;MAXX:160.1
;MAXY:166.1
;MAXZ:24.96
;Generated with Cura_SteamEngine main
M140 S80
M105
M190 S80
M104 S240
M105
M109 S240
M82 ;absolute extrusion mode
; Ender 3 Custom Start G-code
G92 E0 ; Reset Extruder
G28 ; Home all axes
G1 Z2.0 F3000 ; Move Z Axis up little to prevent scratching of Heat Bed
G1 X0.1 Y20 Z0.3 F5000.0 ; Move to start position
G1 X0.1 Y200.0 Z0.3 F1500.0 E15 ; Draw the first line
G1 X0.4 Y200.0 Z0.3 F5000.0 ; Move to side a little
G1 X0.4 Y20 Z0.3 F1500.0 E30 ; Draw the second line
G92 E0 ; Reset Extruder
G1 Z2.0 F3000 ; Move Z Axis up little to prevent scratching of Heat Bed
G1 X5 Y20 Z0.3 F5000.0 ; Move over to prevent blob squish
G92 E0
G92 E0
G1 F1500 E-5
;LAYER_COUNT:78
;LAYER:0
M107
G0 F7500 X60.855 Y55.058 Z0.32
G0 X59.9 Y57.5
;TYPE:SKIRT
G1 F1500 E0
G1 X59.94 Y56.965 E0.0571
G1 X60.059 Y56.442 E0.11419
G1 X60.254 Y55.943 E0.17121
G1 X60.522 Y55.478 E0.22833
G1 X60.855 Y55.058 E0.28538
G1 X61.247 Y54.692 E0.34246
G1 X61.689 Y54.389 E0.39949
G1 X62.172 Y54.154 E0.45666
G1 X62.683 Y53.994 E0.51365
G1 X63.213 Y53.911 E0.57075
G1 X63.5 Y53.9 E0.60132
G1 X108.5 Y53.9 E5.39078
G1 X109.035 Y53.94 E5.44788
G1 X109.558 Y54.059 E5.50496
G1 X110.007 Y54.234 E5.55625
G1 X110.172 Y54.154 E5.57577
G1 X110.683 Y53.994 E5.63276
G1 X111.213 Y53.911 E5.68986
G1 X111.5 Y53.9 E5.72043
G1 X156.5 Y53.9 E10.50989
G1 X157.035 Y53.94 E10.56699
G1 X157.558 Y54.059 E10.62407
G1 X158.057 Y54.254 E10.68109
G1 X158.522 Y54.522 E10.73822
G1 X158.942 Y54.855 E10.79526
G1 X159.308 Y55.247 E10.85234
G1 X159.611 Y55.689 E10.90938
G1 X159.846 Y56.172 E10.96655
G1 X160.006 Y56.683 E11.02354
G1 X160.089 Y57.213 E11.08064
G1 X160.1 Y57.5 E11.1112
G1 X160.1 Y162.5 E22.28661
G1 X160.06 Y163.035 E22.34371
G1 X159.941 Y163.558 E22.4008
G1 X159.746 Y164.057 E22.45782
G1 X159.478 Y164.522 E22.51494
G1 X159.145 Y164.942 E22.57199
G1 X158.753 Y165.308 E22.62907
G1 X158.311 Y165.611 E22.6861
G1 X157.828 Y165.846 E22.74327
G1 X157.317 Y166.006 E22.80026
G1 X156.787 Y166.089 E22.85736
G1 X156.5 Y166.1 E22.88793
G1 X111.5 Y166.1 E27.67739
G1 X110.965 Y166.06 E27.73449
G1 X110.442 Y165.941 E27.79157
G1 X109.993 Y165.766 E27.84286
G1 X109.828 Y165.846 E27.86238
G1 X109.317 Y166.006 E27.91937
G1 X108.787 Y166.089 E27.97647
G1 X108.5 Y166.1 E28.00704
G1 X63.5 Y166.1 E32.7965
G1 X62.965 Y166.06 E32.8536
G1 X62.442 Y165.941 E32.91068
G1 X61.943 Y165.746 E32.9677
G1 X61.478 Y165.478 E33.02483
G1 X61.058 Y165.145 E33.08187
G1 X60.692 Y164.753 E33.13895
G1 X60.389 Y164.311 E33.19599
G1 X60.154 Y163.828 E33.25316
G1 X59.994 Y163.317 E33.31015
G1 X59.911 Y162.787 E33.36724
G1 X59.9 Y162.5 E33.39781
G1 X59.9 Y57.5 E44.57322
G0 F7500 X60.7 Y57.5
G1 F1500 X60.74 Y57.029 E44.62353
G1 X60.859 Y56.571 E44.67389
G1 X61.053 Y56.14 E44.7242
G1 X61.316 Y55.747 E44.77453
G1 X61.642 Y55.405 E44.82482
G1 X62.021 Y55.122 E44.87516
G1 X62.443 Y54.907 E44.92557
G1 X62.894 Y54.766 E44.97586
G1 X63.5 Y54.7 E45.04074
G1 X108.5 Y54.7 E49.8302
G1 X108.971 Y54.74 E49.88051
G1 X109.429 Y54.859 E49.93087
G1 X109.86 Y55.053 E49.98118
G1 X109.989 Y55.138 E49.99762
G1 X110.443 Y54.907 E50.05183
G1 X110.894 Y54.766 E50.10213
G1 X111.5 Y54.7 E50.16701
G1 X156.5 Y54.7 E54.95647
G1 X156.971 Y54.74 E55.00678
G1 X157.429 Y54.859 E55.05714
G1 X157.86 Y55.053 E55.10745
G1 X158.253 Y55.316 E55.15778
G1 X158.595 Y55.642 E55.20806
G1 X158.878 Y56.021 E55.25841
G1 X159.093 Y56.443 E55.30881
G1 X159.234 Y56.894 E55.35911
G1 X159.3 Y57.5 E55.42399
G1 X159.3 Y162.5 E66.59939
G1 X159.26 Y162.971 E66.6497
G1 X159.141 Y163.429 E66.70007
G1 X158.947 Y163.86 E66.75037
G1 X158.684 Y164.253 E66.8007
G1 X158.358 Y164.595 E66.85099
G1 X157.979 Y164.878 E66.90133
G1 X157.557 Y165.093 E66.95174
G1 X157.106 Y165.234 E67.00203
G1 X156.5 Y165.3 E67.06691
G1 X111.5 Y165.3 E71.85637
G1 X111.029 Y165.26 E71.90668
G1 X110.571 Y165.141 E71.95704
G1 X110.14 Y164.947 E72.00735
G1 X110.011 Y164.862 E72.02379
G1 X109.557 Y165.093 E72.07801
G1 X109.106 Y165.234 E72.1283
G1 X108.5 Y165.3 E72.19318
G1 X63.5 Y165.3 E76.98264
G1 X63.029 Y165.26 E77.03295
G1 X62.571 Y165.141 E77.08331
G1 X62.14 Y164.947 E77.13362
G1 X61.747 Y164.684 E77.18395
G1 X61.405 Y164.358 E77.23424
G1 X61.122 Y163.979 E77.28458
G1 X60.907 Y163.557 E77.33499
G1 X60.766 Y163.106 E77.38528
G1 X60.7 Y162.5 E77.45016
G1 X60.7 Y57.5 E88.62556
G0 F7500 X61.5 Y57.5
G1 F1500 X61.54 Y57.102 E88.66814
G1 X61.658 Y56.721 E88.71059
G1 X61.85 Y56.37 E88.75317
G1 X62.107 Y56.065 E88.79562
G1 X62.42 Y55.817 E88.83812
G1 X62.776 Y55.636 E88.88063
G1 X63.161 Y55.529 E88.92316
G1 X63.5 Y55.5 E88.95937
G1 X108.5 Y55.5 E93.74883
G1 X108.898 Y55.54 E93.7914
G1 X109.279 Y55.658 E93.83385
G1 X109.63 Y55.85 E93.87644
G1 X110.015 Y56.174 E93.92999
G1 X110.107 Y56.065 E93.94517
G1 X110.42 Y55.817 E93.98768
G1 X110.776 Y55.636 E94.03018
G1 X111.161 Y55.529 E94.07271
G1 X111.5 Y55.5 E94.10892
G1 X156.5 Y55.5 E98.89838
G1 X156.898 Y55.54 E98.94096
G1 X157.279 Y55.658 E98.98341
G1 X157.63 Y55.85 E99.02599
G1 X157.935 Y56.107 E99.06844
G1 X158.183 Y56.42 E99.11094
G1 X158.364 Y56.776 E99.15345
G1 X158.471 Y57.161 E99.19598
G1 X158.5 Y57.5 E99.23219
G1 X158.5 Y162.5 E110.40759
G1 X158.46 Y162.898 E110.45017
G1 X158.342 Y163.279 E110.49262
G1 X158.15 Y163.63 E110.5352
G1 X157.893 Y163.935 E110.57765
G1 X157.58 Y164.183 E110.62015
G1 X157.224 Y164.364 E110.66266
G1 X156.839 Y164.471 E110.70519
G1 X156.5 Y164.5 E110.7414
G1 X111.5 Y164.5 E115.53086
G1 X111.102 Y164.46 E115.57343
G1 X110.721 Y164.342 E115.61589
G1 X110.37 Y164.15 E115.65847
G1 X109.985 Y163.826 E115.71202
G1 X109.893 Y163.935 E115.7272
G1 X109.58 Y164.183 E115.76971
G1 X109.224 Y164.364 E115.81221
G1 X108.839 Y164.471 E115.85474
G1 X108.5 Y164.5 E115.89095
G1 X63.5 Y164.5 E120.68041
G1 X63.102 Y164.46 E120.72299
G1 X62.721 Y164.342 E120.76544
G1 X62.37 Y164.15 E120.80802
G1 X62.065 Y163.893 E120.85047
G1 X61.817 Y163.58 E120.89297
G1 X61.636 Y163.224 E120.93548
G1 X61.529 Y162.839 E120.97801
G1 X61.5 Y162.5 E121.01422
G1 X61.5 Y57.5 E132.18963
G0 F7500 X62.3 Y57.5
G1 F1500 X62.34 Y57.193 E132.22258
G1 X62.457 Y56.907 E132.25547
G1 X62.643 Y56.66 E132.28837
G1 X62.886 Y56.469 E132.32127
G1 X63.17 Y56.346 E132.35421
G1 X63.5 Y56.3 E132.38967
G1 X108.5 Y56.3 E137.17913
G1 X108.807 Y56.34 E137.21208
G1 X109.093 Y56.457 E137.24497
G1 X109.34 Y56.643 E137.27788
G1 X109.531 Y56.886 E137.31078
G1 X109.654 Y57.17 E137.34372
G1 X109.7 Y57.5 E137.37918
G1 X109.7 Y162.5 E148.55458
G1 X109.66 Y162.807 E148.58753
G1 X109.543 Y163.093 E148.62042
G1 X109.357 Y163.34 E148.65333
G1 X109.114 Y163.531 E148.68623
G1 X108.83 Y163.654 E148.71917
G1 X108.5 Y163.7 E148.75463
G1 X63.5 Y163.7 E153.54409
G1 X63.193 Y163.66 E153.57704
G1 X62.907 Y163.543 E153.60993
G1 X62.66 Y163.357 E153.64284
G1 X62.469 Y163.114 E153.67573
G1 X62.346 Y162.83 E153.70867
G1 X62.3 Y162.5 E153.74414
G1 X62.3 Y57.5 E164.91954
G0 F7500 X63.1 Y57.5
G1 F1500 X63.14 Y57.327 E164.93844
G1 X63.25 Y57.188 E164.95731
G1 X63.431 Y57.1 E164.97873
G1 X108.5 Y57.1 E169.77553
G1 X108.673 Y57.14 E169.79443
G1 X108.812 Y57.25 E169.81329
G1 X108.9 Y57.431 E169.83472
G1 X108.9 Y162.5 E181.01746
G1 X108.861 Y162.673 E181.03634
G1 X108.75 Y162.812 E181.05527
G1 X108.569 Y162.9 E181.07669
G1 X63.5 Y162.9 E185.8735
G1 X63.327 Y162.861 E185.89237
G1 X63.188 Y162.75 E185.9113
G1 X63.1 Y162.569 E185.93272
G1 X63.1 Y57.5 E197.11547
G1 F1500 E192.11547
G0 F7500 X62.835 Y57.5
G0 X62.847 Y56.847
G0 X109.153 Y56.847
G0 X110.3 Y57.5
G1 F1500 E197.11547
G1 X110.34 Y57.193 E197.14842
G1 X110.457 Y56.907 E197.18131
G1 X110.643 Y56.66 E197.21422
G1 X110.886 Y56.469 E197.24712
G1 X111.17 Y56.346 E197.28006
G1 X111.5 Y56.3 E197.31552
G1 X156.5 Y56.3 E202.10498
G1 X156.807 Y56.34 E202.13793
G1 X157.093 Y56.457 E202.17082
G1 X157.34 Y56.643 E202.20373
G1 X157.531 Y56.886 E202.23662
G1 X157.654 Y57.17 E202.26956
G1 X157.7 Y57.5 E202.30502
G1 X157.7 Y162.5 E213.48043
G1 X157.66 Y162.807 E213.51338
G1 X157.543 Y163.093 E213.54627
G1 X157.357 Y163.34 E213.57918
G1 X157.114 Y163.531 E213.61207
G1 X156.83 Y163.654 E213.64501
G1 X156.5 Y163.7 E213.68048
G1 X111.5 Y163.7 E218.46994
G1 X111.193 Y163.66 E218.50289
G1 X110.907 Y163.543 E218.53578
G1 X110.66 Y163.357 E218.56868
G1 X110.469 Y163.114 E218.60158
G1 X110.346 Y162.83 E218.63452
G1 X110.3 Y162.5 E218.66998
G1 X110.3 Y57.5 E229.84539
G0 F7500 X111.1 Y57.5
G1 F1500 X111.14 Y57.327 E229.86429
G1 X111.25 Y57.188 E229.88315
G1 X111.431 Y57.1 E229.90457
G1 X156.5 Y57.1 E234.70138
G1 X156.673 Y57.14 E234.72028
G1 X156.812 Y57.25 E234.73914
G1 X156.9 Y57.431 E234.76056
G1 X156.9 Y162.5 E245.94331
G1 X156.861 Y162.673 E245.96219
G1 X156.75 Y162.812 E245.98112
G1 X156.569 Y162.9 E246.00254
G1 X111.5 Y162.9 E250.79934
G1 X111.327 Y162.861 E250.81822
G1 X111.188 Y162.75 E250.83715
G1 X111.1 Y162.569 E250.85857
G1 X111.1 Y57.5 E262.04132
G1 F1500 E257.04132
;MESH:Enclosure-Cover.stl
G0 F7500 X107.686 Y58.314
G0 X106.83 Y59.17
G1 F1500 E262.04132
G0 F7500 X107.3 Y58.7
;TYPE:WALL-INNER
G1 F1500 X64.7 Y58.7 E266.57534
G1 X64.7 Y161.3 E277.49531
G1 X107.3 Y161.3 E282.02933
G1 X107.3 Y80 E290.68229
G1 X107.3 Y58.7 E292.9493
G0 F7500 X106.83 Y59.17
G0 X107.63 Y58.37
G0 X108.1 Y57.9
;TYPE:WALL-OUTER
G1 F1500 X63.9 Y57.9 E297.65361
G1 X63.9 Y162.1 E308.74387
G1 X108.1 Y162.1 E313.44818
G1 X108.1 Y80 E322.18629
G1 X108.1 Y57.9 E324.53844
G0 F7500 X107.63 Y58.37
G0 X106.83 Y59.17
G0 X107.139 Y58.921
;TYPE:FILL
G1 F1500 X79.75 Y161.14 E335.80163
G0 F7500 X80.599 Y161.14
G1 F1500 X107.139 Y154.028 E338.72601
G0 F7500 X106.8 Y154.028
G0 X106.8 Y151.651
G0 X107.139 Y151.651
G1 F1500 X104.596 Y161.14 E339.77159
G0 F7500 X104.596 Y160.8
G0 X103.198 Y160.8
G0 X103.198 Y161.139
G1 F1500 X64.859 Y122.799 E345.54238
G0 F7500 X65.2 Y122.799
G0 X65.2 Y123.981
G0 X64.86 Y123.981
G1 F1500 X82.309 Y58.858 E352.71807
G1 X82.378 Y58.86
G1 X107.14 Y83.621 E356.44512
G0 F7500 X107.139 Y84.458
G1 F1500 X64.859 Y95.786 E361.1038
G1 X64.859 Y95.646
G1 X107.14 Y137.927 E367.46786
G0 F7500 X106.8 Y137.927
G0 X106.8 Y139.12
G0 X107.139 Y139.12
G1 F1500 X64.859 Y150.449 E372.12657
G0 F7500 X64.859 Y149.952
G1 F1500 X76.045 Y161.139 E373.81034
G0 F7500 X76.045 Y160.8
G0 X74.78 Y160.8
G0 X74.78 Y161.14
G1 F1500 X102.187 Y58.858 E385.0805
G0 F7500 X102.743 Y58.86
G1 F1500 X107.14 Y63.257 E385.74233
G0 F7500 X106.8 Y63.257
G0 X106.8 Y64.58
G0 X107.139 Y64.58
G1 F1500 X64.859 Y75.909 E390.40104
G0 F7500 X64.859 Y75.282
G1 F1500 X107.14 Y117.562 E396.76502
G0 F7500 X106.8 Y117.562
G0 X106.8 Y119.243
G0 X107.139 Y119.243
G1 F1500 X64.859 Y130.572 E401.42373
G0 F7500 X64.859 Y129.587
G1 F1500 X96.41 Y161.139 E406.1728
G0 F7500 X96.41 Y160.8
G0 X94.658 Y160.8
G0 X94.658 Y161.14
G1 F1500 X107.139 Y114.559 E411.30541
G1 X107.139 Y114.274
G1 X64.859 Y125.602 E415.96409
G0 F7500 X65.2 Y125.602
G0 X65.2 Y120.633
G0 X64.859 Y120.633
G1 F1500 X107.138 Y109.304 E420.6227
G0 F7500 X106.8 Y109.304
G0 X106.8 Y110.774
G0 X107.14 Y110.774
G1 F1500 X64.859 Y68.493 E426.98676
G1 X64.86 Y68.344
G1 X67.401 Y58.859 E428.03187
G0 F7500 X67.401 Y59.2
G0 X68.802 Y59.2
G0 X68.802 Y58.86
G1 F1500 X107.14 Y97.198 E433.80243
G0 F7500 X106.8 Y97.198
G0 X106.8 Y96.013
G0 X107.139 Y96.013
G1 F1500 X89.688 Y161.139 E440.97848
G1 X89.622 Y161.139
G1 X64.859 Y136.376 E444.70577
G0 F7500 X64.859 Y135.541
G1 F1500 X107.139 Y124.212 E449.36447
G1 X107.14 Y124.351
G1 X64.859 Y82.07 E455.72853
G0 F7500 X65.2 Y82.07
G0 X65.2 Y80.879
G0 X64.859 Y80.879
G1 F1500 X107.139 Y69.55 E460.38724
G0 F7500 X107.14 Y70.045
G1 F1500 X95.955 Y58.86 E462.07079
G0 F7500 X95.955 Y59.2
G0 X97.217 Y59.2
G0 X97.217 Y58.859
G1 F1500 X69.811 Y161.14 E473.34082
G0 F7500 X69.257 Y161.139
G1 F1500 X64.859 Y156.74 E474.00287
G0 F7500 X65.2 Y156.74
G0 X65.2 Y155.418
G0 X64.859 Y155.418
G1 F1500 X107.138 Y144.09 E478.66145
G0 F7500 X107.14 Y144.715
G1 F1500 X64.859 Y102.435 E485.02543
G0 F7500 X65.2 Y102.435
G0 X65.2 Y100.756
G0 X64.859 Y100.756
G1 F1500 X107.139 Y89.427 E489.68414
G0 F7500 X107.14 Y90.409
G1 F1500 X75.59 Y58.86 E494.43291
G0 F7500 X75.59 Y59.2
G0 X77.34 Y59.2
G0 X77.34 Y58.858
G1 F1500 X64.86 Y105.435 E499.56508
G1 X64.859 Y105.725
G1 X107.139 Y94.396 E504.22379
G0 F7500 X106.8 Y94.396
G0 X106.8 Y99.366
G0 X107.139 Y99.366
G1 F1500 X64.859 Y110.694 E508.88247
G0 F7500 X65.2 Y110.694
G0 X65.2 Y109.223
G0 X64.859 Y109.223
G1 F1500 X107.14 Y151.503 E515.24646
G0 F7500 X106.8 Y151.503
G0 X106.8 Y149.059
G0 X107.139 Y149.059
G1 F1500 X64.859 Y160.388 E519.90516
G0 F7500 X64.86 Y161.073
G1 F1500 X92.248 Y58.859 E531.16781
G0 F7500 X91.399 Y58.859
G1 F1500 X64.859 Y65.971 E534.09219
G0 F7500 X65.2 Y65.971
G0 X65.2 Y61.705
G0 X64.859 Y61.705
G1 F1500 X107.14 Y103.986 E540.45625
G1 X107.139 Y104.335
G1 X64.859 Y115.664 E545.11496
G1 X64.859 Y116.011
G1 X107.14 Y158.292 E551.47902
G0 F7500 X107.139 Y158.998
G1 F1500 X99.145 Y161.139 E552.35982
G0 F7500 X99.627 Y161.14
G1 F1500 X107.139 Y133.105 E555.44892
G0 F7500 X106.8 Y133.105
G0 X106.8 Y134.151
G0 X107.139 Y134.151
G1 F1500 X64.859 Y145.48 E560.10762
G0 F7500 X65.2 Y145.48
G0 X65.2 Y143.164
G0 X64.859 Y143.164
G1 F1500 X82.834 Y161.139 E562.81319
G0 F7500 X82.834 Y160.8
G0 X84.719 Y160.8
G0 X84.719 Y161.139
G1 F1500 X107.139 Y77.467 E572.03276
G0 F7500 X107.14 Y76.833
G1 F1500 X89.166 Y58.86 E574.7381
G0 F7500 X89.166 Y59.2
G0 X87.279 Y59.2
G0 X87.279 Y58.859
G1 F1500 X64.86 Y142.527 E583.95722
G0 F7500 X65.2 Y142.527
G0 X65.2 Y140.51
G0 X64.859 Y140.51
G1 F1500 X107.139 Y129.182 E588.6159
G0 F7500 X106.8 Y129.182
G0 X106.8 Y131.139
G0 X107.14 Y131.139
G1 F1500 X64.859 Y88.858 E594.97996
G0 F7500 X65.2 Y88.858
G0 X65.2 Y90.817
G0 X64.859 Y90.817
G1 F1500 X107.138 Y79.488 E599.63857
G0 F7500 X106.8 Y79.488
G0 X106.8 Y74.519
G0 X107.139 Y74.519
G1 F1500 X64.859 Y85.848 E604.29728
G0 F7500 X65.2 Y85.848
G0 X65.2 Y86.89
G0 X64.86 Y86.89
G1 F1500 X72.371 Y58.858 E607.38603
G0 F7500 X72.853 Y58.859
G1 F1500 X64.859 Y61.001 E608.26687
G0 F7500 X65.2 Y61.001
G0 X65.2 Y70.94
G0 X64.859 Y70.94
G1 F1500 X107.139 Y59.611 E612.92558
G0 F7500 X106.1 Y59.9
G1 F1500 E607.92558
;MESH:Enclosure-Base.stl
G0 F7500 X107.68 Y59.17
G0 X109.165 Y59.17
G0 X110.835 Y59.17
G0 X112.32 Y59.17
G0 X113.17 Y59.17
G1 F1500 E612.92558
G0 F7500 X112.7 Y58.7
;TYPE:WALL-INNER
G1 F1500 X112.7 Y161.3 E623.84554
G1 X155.3 Y161.3 E628.37957
G1 X155.3 Y80 E637.03252
G1 X155.3 Y58.7 E639.29953
G1 X112.7 Y58.7 E643.83355
G0 F7500 X113.17 Y59.17
G0 X112.37 Y58.37
G0 X111.9 Y57.9
;TYPE:WALL-OUTER
G1 F1500 X111.9 Y162.1 E654.92381
G1 X156.1 Y162.1 E659.62813
G1 X156.1 Y80 E668.36623
G1 X156.1 Y57.9 E670.71839
G1 X111.9 Y57.9 E675.4227
G0 F7500 X112.37 Y58.37
G0 X113.2 Y61.001
G0 X112.859 Y61.001
;TYPE:FILL
G1 F1500 X120.853 Y58.859 E676.30354
G0 F7500 X120.371 Y58.859
G1 F1500 X112.859 Y86.894 E679.39263
G0 F7500 X113.2 Y86.894
G0 X113.2 Y85.847
G0 X112.859 Y85.847
G1 F1500 X155.139 Y74.519 E684.05131
G0 F7500 X154.8 Y74.519
G0 X154.8 Y76.834
G0 X155.139 Y76.834
G1 F1500 X137.165 Y58.86 E686.75672
G0 F7500 X137.165 Y59.2
G0 X135.279 Y59.2
G0 X135.279 Y58.859
G1 F1500 X112.859 Y142.53 E695.97619
G0 F7500 X112.859 Y143.165
G1 F1500 X130.832 Y161.139 E698.68153
G0 F7500 X130.832 Y160.8
G0 X132.72 Y160.8
G0 X132.72 Y161.14
G1 F1500 X155.139 Y77.471 E707.90076
G0 F7500 X154.8 Y77.471
G0 X154.8 Y79.488
G0 X155.138 Y79.488
G1 F1500 X112.859 Y90.817 E712.55936
G0 F7500 X113.2 Y90.817
G0 X113.2 Y88.859
G0 X112.859 Y88.859
G1 F1500 X155.139 Y131.14 E718.92335
G0 F7500 X154.8 Y131.14
G0 X154.8 Y129.181
G0 X155.138 Y129.181
G1 F1500 X112.86 Y140.51 E723.58185
G0 F7500 X113.2 Y140.51
G0 X113.2 Y136.377
G0 X112.859 Y136.377
G1 F1500 X137.62 Y161.139 E727.3089
G1 X137.689 Y161.139
G1 X155.139 Y96.017 E734.48452
G0 F7500 X154.8 Y96.017
G0 X154.8 Y97.199
G0 X155.139 Y97.199
G1 F1500 X116.8 Y58.86 E740.25523
G0 F7500 X116.8 Y59.2
G0 X115.402 Y59.2
G0 X115.402 Y58.858
G1 F1500 X112.859 Y68.348 E741.30091
G1 X112.859 Y68.495
G1 X155.139 Y110.776 E747.6649
G0 F7500 X154.8 Y110.776
G0 X154.8 Y109.304
G0 X155.138 Y109.304
