;FLAVOR:Marlin
;TIME:1485
;Filament used: 1.00994m
;Layer height: 0.24
;MINX:107.897
;MINY:107.897
;MINZ:0.24
;MAXX:127.103
;MAXY:127.103
;MAXZ:29.84
;Generated with Cura_SteamEngine 4.8.0
M140 S100
M105
M190 S100
M104 S240
M105
M109 S240
M82 ;absolute extrusion mode
; Ender 3 Custom Start G-code
G92 E0 ; Reset Extruder
G28 ; Home all axes
G1 Z2.0 F3000 ; Move Z Axis up little to prevent scratching of Heat Bed
G1 X0.1 Y20 Z0.3 F5000.0 ; Move to start position
G1 X0.1 Y200.0 Z0.3 F1500.0 E15 ; Draw the first line
G1 X0.4 Y200.0 Z0.3 F5000.0 ; Move to side a little
G1 X0.4 Y20 Z0.3 F1500.0 E30 ; Draw the second line
G92 E0 ; Reset Extruder
G1 Z2.0 F3000 ; Move Z Axis up little to prevent scratching of Heat Bed
G1 X5 Y20 Z0.3 F5000.0 ; Move over to prevent blob squish
G92 E0
G92 E0
G1 F2700 E-5
;LAYER_COUNT:108
;LAYER:0
M107
G0 F1200 X109.595 Y109.907 Z0.24
;TYPE:SKIRT
G1 F2700 E0
G1 F1200 X109.916 Y109.587 E0.0424
G1 X110.221 Y109.313 E0.08075
G1 X110.283 Y109.263 E0.0882
G1 X110.655 Y108.998 E0.13093
G1 X111.043 Y108.754 E0.1738
G1 X111.375 Y108.567 E0.20945
G1 X111.445 Y108.532 E0.21677
G1 X111.903 Y108.338 E0.2633
G1 X112.341 Y108.185 E0.3067
G1 X112.807 Y108.054 E0.35198
G1 X112.886 Y108.037 E0.35954
G1 X113.264 Y107.975 E0.39537
G1 X113.711 Y107.924 E0.43746
G1 X113.992 Y107.902 E0.46382
G1 X114.192 Y107.897 E0.48254
G1 X120.808 Y107.897 E1.10142
G1 X121.289 Y107.924 E1.14649
G1 X121.736 Y107.975 E1.18858
G1 X122.114 Y108.037 E1.22441
G1 X122.193 Y108.054 E1.23197
G1 X122.659 Y108.185 E1.27725
G1 X123.097 Y108.338 E1.32065
G1 X123.555 Y108.532 E1.36718
G1 X123.623 Y108.566 E1.37429
G1 X123.954 Y108.752 E1.40981
G1 X124.344 Y108.997 E1.45289
G1 X124.687 Y109.239 E1.49216
G1 X124.749 Y109.288 E1.49955
G1 X125.093 Y109.595 E1.54268
G1 X125.413 Y109.916 E1.58508
G1 X125.687 Y110.221 E1.62343
G1 X125.737 Y110.283 E1.63088
G1 X126.002 Y110.655 E1.67361
G1 X126.246 Y111.043 E1.71648
G1 X126.433 Y111.375 E1.75213
G1 X126.468 Y111.445 E1.75945
G1 X126.662 Y111.903 E1.80598
G1 X126.815 Y112.341 E1.84938
G1 X126.941 Y112.786 E1.89264
G1 X126.958 Y112.863 E1.90002
G1 X127.025 Y113.263 E1.93796
G1 X127.076 Y113.711 E1.98013
G1 X127.098 Y113.997 E2.00697
G1 X127.103 Y114.192 E2.02521
G1 X127.103 Y120.804 E2.64373
G1 X127.076 Y121.281 E2.68842
G1 X127.025 Y121.732 E2.73088
G1 X126.966 Y122.097 E2.76546
G1 X126.95 Y122.173 E2.77273
G1 X126.817 Y122.654 E2.81941
G1 X126.664 Y123.093 E2.8629
G1 X126.469 Y123.553 E2.90964
G1 X126.434 Y123.623 E2.91696
G1 X126.248 Y123.954 E2.95248
G1 X126.003 Y124.344 E2.99556
G1 X125.761 Y124.687 E3.03483
G1 X125.712 Y124.749 E3.04222
G1 X125.405 Y125.093 E3.08535
G1 X125.084 Y125.413 E3.12775
G1 X124.779 Y125.687 E3.1661
G1 X124.717 Y125.737 E3.17355
G1 X124.345 Y126.002 E3.21628
G1 X123.957 Y126.246 E3.25915
G1 X123.625 Y126.433 E3.2948
G1 X123.555 Y126.468 E3.30212
G1 X123.097 Y126.662 E3.34865
G1 X122.659 Y126.815 E3.39205
G1 X122.193 Y126.946 E3.43733
G1 X122.114 Y126.963 E3.44489
G1 X121.736 Y127.025 E3.48072
G1 X121.289 Y127.076 E3.5228
G1 X121.008 Y127.098 E3.54917
G1 X120.808 Y127.103 E3.56789
G1 X114.191 Y127.103 E4.18687
G1 X113.956 Y127.096 E4.20886
G1 X113.7 Y127.075 E4.23289
G1 X113.253 Y127.023 E4.27498
G1 X112.893 Y126.964 E4.30911
G1 X112.813 Y126.947 E4.31676
G1 X112.33 Y126.811 E4.3637
G1 X111.895 Y126.658 E4.40683
G1 X111.526 Y126.507 E4.44413
G1 X111.456 Y126.474 E4.45137
G1 X111.031 Y126.24 E4.49675
G1 X110.643 Y125.994 E4.53973
G1 X110.36 Y125.797 E4.57198
G1 X110.296 Y125.748 E4.57952
G1 X109.896 Y125.396 E4.62937
G1 X109.575 Y125.072 E4.67203
G1 X109.315 Y124.781 E4.70854
G1 X109.264 Y124.718 E4.71612
G1 X108.989 Y124.333 E4.76038
G1 X108.745 Y123.943 E4.80341
G1 X108.534 Y123.558 E4.84448
G1 X108.5 Y123.487 E4.85184
G1 X108.331 Y123.077 E4.89333
G1 X108.182 Y122.646 E4.93598
G1 X108.055 Y122.192 E4.98008
G1 X108.038 Y122.113 E4.98764
G1 X107.977 Y121.74 E5.023
G1 X107.925 Y121.289 E5.06547
G1 X107.902 Y121.003 E5.09231
G1 X107.897 Y120.803 E5.11102
G1 X107.897 Y114.192 E5.72944
G1 X107.924 Y113.711 E5.77451
G1 X107.975 Y113.264 E5.81659
G1 X108.034 Y112.903 E5.85081
G1 X108.05 Y112.827 E5.85807
G1 X108.183 Y112.346 E5.90476
G1 X108.336 Y111.907 E5.94825
G1 X108.531 Y111.447 E5.99498
G1 X108.566 Y111.377 E6.0023
G1 X108.752 Y111.046 E6.03782
G1 X108.997 Y110.656 E6.08091
G1 X109.239 Y110.313 E6.12017
G1 X109.288 Y110.251 E6.12757
G1 X109.595 Y109.907 E6.1707
G0 X110.018 Y110.332
G1 X110.339 Y110.012 E6.21309
G1 X110.597 Y109.78 E6.24555
G1 X110.659 Y109.73 E6.253
G1 X110.974 Y109.505 E6.28921
G1 X111.362 Y109.261 E6.33209
G1 X111.643 Y109.103 E6.36225
G1 X111.713 Y109.068 E6.36957
G1 X112.101 Y108.905 E6.40893
G1 X112.539 Y108.752 E6.45233
G1 X112.933 Y108.641 E6.49063
G1 X113.012 Y108.624 E6.49818
G1 X113.332 Y108.571 E6.52853
G1 X113.779 Y108.52 E6.57061
G1 X114.192 Y108.497 E6.60931
G1 X120.808 Y108.497 E7.22819
G1 X121.221 Y108.52 E7.26689
G1 X121.668 Y108.571 E7.30897
G1 X121.988 Y108.624 E7.33931
G1 X122.067 Y108.641 E7.34687
G1 X122.461 Y108.752 E7.38517
G1 X122.899 Y108.905 E7.42857
G1 X123.287 Y109.068 E7.46793
G1 X123.355 Y109.102 E7.47504
G1 X123.634 Y109.26 E7.50504
G1 X124.024 Y109.505 E7.54812
G1 X124.315 Y109.71 E7.58142
G1 X124.377 Y109.759 E7.58881
G1 X124.668 Y110.018 E7.62525
G1 X124.988 Y110.339 E7.66765
G1 X125.22 Y110.597 E7.70011
G1 X125.27 Y110.659 E7.70756
G1 X125.495 Y110.974 E7.74377
G1 X125.739 Y111.362 E7.78665
G1 X125.897 Y111.643 E7.8168
G1 X125.932 Y111.713 E7.82412
G1 X126.095 Y112.101 E7.86349
G1 X126.248 Y112.539 E7.90689
G1 X126.355 Y112.916 E7.94355
G1 X126.372 Y112.993 E7.95093
G1 X126.429 Y113.331 E7.98299
G1 X126.48 Y113.779 E8.02517
G1 X126.503 Y114.192 E8.06386
G1 X126.503 Y120.804 E8.68238
G1 X126.48 Y121.214 E8.72079
G1 X126.429 Y121.665 E8.76325
G1 X126.379 Y121.974 E8.79253
G1 X126.363 Y122.05 E8.7998
G1 X126.25 Y122.456 E8.83922
G1 X126.097 Y122.895 E8.88271
G1 X125.933 Y123.285 E8.92228
G1 X125.898 Y123.355 E8.9296
G1 X125.74 Y123.634 E8.9596
G1 X125.495 Y124.024 E9.00268
G1 X125.29 Y124.315 E9.03598
G1 X125.241 Y124.377 E9.04337
G1 X124.982 Y124.668 E9.07981
G1 X124.661 Y124.988 E9.12221
G1 X124.403 Y125.22 E9.15467
G1 X124.341 Y125.27 E9.16212
G1 X124.026 Y125.495 E9.19833
G1 X123.638 Y125.739 E9.24121
G1 X123.357 Y125.897 E9.27136
G1 X123.287 Y125.932 E9.27868
G1 X122.899 Y126.095 E9.31805
G1 X122.461 Y126.248 E9.36145
G1 X122.067 Y126.359 E9.39974
G1 X121.988 Y126.376 E9.4073
G1 X121.668 Y126.429 E9.43764
G1 X121.221 Y126.48 E9.47973
G1 X120.808 Y126.503 E9.51842
G1 X114.191 Y126.503 E10.1374
G1 X113.77 Y126.479 E10.17685
G1 X113.323 Y126.427 E10.21895
G1 X113.018 Y126.377 E10.24786
G1 X112.938 Y126.36 E10.25551
G1 X112.529 Y126.245 E10.29525
G1 X112.094 Y126.092 E10.33839
G1 X111.782 Y125.964 E10.36993
G1 X111.712 Y125.931 E10.37717
G1 X111.352 Y125.733 E10.41561
G1 X110.964 Y125.487 E10.45858
G1 X110.725 Y125.32 E10.48586
G1 X110.661 Y125.271 E10.4934
G1 X110.323 Y124.974 E10.53549
G1 X110.002 Y124.65 E10.57815
G1 X109.781 Y124.403 E10.60915
G1 X109.73 Y124.34 E10.61674
G1 X109.497 Y124.014 E10.65422
G1 X109.253 Y123.624 E10.69725
G1 X109.075 Y123.299 E10.73192
G1 X109.041 Y123.228 E10.73928
G1 X108.898 Y122.881 E10.77439
G1 X108.749 Y122.45 E10.81705
G1 X108.642 Y122.066 E10.85434
G1 X108.625 Y121.987 E10.8619
G1 X108.573 Y121.671 E10.89185
G1 X108.521 Y121.22 E10.93432
G1 X108.497 Y120.803 E10.97339
G1 X108.497 Y114.192 E11.59181
G1 X108.52 Y113.779 E11.63051
G1 X108.571 Y113.332 E11.67259
G1 X108.621 Y113.026 E11.7016
G1 X108.637 Y112.95 E11.70886
G1 X108.75 Y112.544 E11.74829
G1 X108.903 Y112.105 E11.79177
G1 X109.067 Y111.715 E11.83135
G1 X109.102 Y111.645 E11.83867
G1 X109.26 Y111.366 E11.86866
G1 X109.505 Y110.976 E11.91175
G1 X109.71 Y110.685 E11.94505
G1 X109.759 Y110.623 E11.95244
G1 X110.018 Y110.332 E11.98888
G0 X110.442 Y110.757
G1 X110.763 Y110.437 E12.03128
G1 X110.974 Y110.247 E12.05784
G1 X111.036 Y110.197 E12.06529
G1 X111.294 Y110.013 E12.09493
G1 X111.682 Y109.769 E12.13781
G1 X111.912 Y109.64 E12.16248
G1 X111.982 Y109.605 E12.1698
G1 X112.299 Y109.471 E12.20199
G1 X112.737 Y109.318 E12.24539
G1 X113.059 Y109.227 E12.27669
G1 X113.138 Y109.21 E12.28425
G1 X113.4 Y109.167 E12.30909
G1 X113.847 Y109.116 E12.35118
G1 X114.192 Y109.097 E12.3835
G1 X120.808 Y109.097 E13.00238
G1 X121.153 Y109.116 E13.03471
G1 X121.6 Y109.167 E13.07679
G1 X121.862 Y109.21 E13.10163
G1 X121.941 Y109.227 E13.10919
G1 X122.263 Y109.318 E13.14049
G1 X122.701 Y109.471 E13.18389
G1 X123.018 Y109.605 E13.21608
G1 X123.086 Y109.639 E13.22319
G1 X123.315 Y109.768 E13.24778
G1 X123.705 Y110.013 E13.29086
G1 X123.943 Y110.181 E13.31812
G1 X124.005 Y110.23 E13.32551
G1 X124.243 Y110.442 E13.35532
G1 X124.563 Y110.763 E13.39772
G1 X124.753 Y110.974 E13.42428
G1 X124.803 Y111.036 E13.43173
G1 X124.987 Y111.294 E13.46138
G1 X125.231 Y111.682 E13.50425
G1 X125.36 Y111.912 E13.52892
G1 X125.395 Y111.982 E13.53624
G1 X125.529 Y112.299 E13.56844
G1 X125.682 Y112.737 E13.61184
G1 X125.77 Y113.045 E13.6418
G1 X125.787 Y113.122 E13.64918
G1 X125.833 Y113.399 E13.67544
G1 X125.884 Y113.847 E13.71762
G1 X125.903 Y114.192 E13.74994
G1 X125.903 Y120.804 E14.36846
G1 X125.884 Y121.146 E14.4005
G1 X125.833 Y121.597 E14.44296
G1 X125.792 Y121.85 E14.46693
G1 X125.776 Y121.926 E14.4742
G1 X125.684 Y122.259 E14.50651
G1 X125.531 Y122.698 E14.55
G1 X125.396 Y123.016 E14.58232
G1 X125.361 Y123.086 E14.58964
G1 X125.232 Y123.315 E14.61423
G1 X124.987 Y123.705 E14.65731
G1 X124.819 Y123.943 E14.68456
G1 X124.77 Y124.005 E14.69195
G1 X124.558 Y124.243 E14.72177
G1 X124.237 Y124.563 E14.76417
G1 X124.026 Y124.753 E14.79073
G1 X123.964 Y124.803 E14.79818
G1 X123.706 Y124.987 E14.82782
G1 X123.318 Y125.231 E14.8707
G1 X123.088 Y125.36 E14.89537
G1 X123.018 Y125.395 E14.90269
G1 X122.701 Y125.529 E14.93488
G1 X122.263 Y125.682 E14.97828
G1 X121.941 Y125.773 E15.00958
G1 X121.862 Y125.79 E15.01714
G1 X121.6 Y125.833 E15.04198
G1 X121.153 Y125.884 E15.08406
G1 X120.808 Y125.903 E15.11639
G1 X114.191 Y125.903 E15.73537
G1 X113.839 Y125.883 E15.76835
G1 X113.392 Y125.831 E15.81044
G1 X113.143 Y125.79 E15.83405
G1 X113.063 Y125.773 E15.8417
G1 X112.728 Y125.679 E15.87425
G1 X112.293 Y125.526 E15.91738
G1 X112.038 Y125.421 E15.94318
G1 X111.968 Y125.388 E15.95042
G1 X111.673 Y125.226 E15.9819
G1 X111.285 Y124.98 E16.02488
G1 X111.026 Y124.795 E16.05465
G1 X110.749 Y124.551 E16.08918
G1 X110.428 Y124.227 E16.13185
G1 X110.247 Y124.026 E16.15715
G1 X110.196 Y123.963 E16.16473
G1 X110.006 Y123.696 E16.19539
G1 X109.762 Y123.306 E16.23842
G1 X109.616 Y123.04 E16.26681
G1 X109.582 Y122.969 E16.27417
G1 X109.465 Y122.685 E16.3029
G1 X109.316 Y122.254 E16.34556
G1 X109.228 Y121.94 E16.37607
G1 X109.211 Y121.861 E16.38362
G1 X109.169 Y121.602 E16.40817
G1 X109.117 Y121.151 E16.45064
G1 X109.097 Y120.803 E16.48324
G1 X109.097 Y114.192 E17.10166
G1 X109.116 Y113.847 E17.13399
G1 X109.167 Y113.4 E17.17607
G1 X109.208 Y113.15 E17.19977
G1 X109.224 Y113.074 E17.20703
G1 X109.316 Y112.741 E17.23935
G1 X109.469 Y112.302 E17.28284
G1 X109.604 Y111.984 E17.31516
G1 X109.639 Y111.914 E17.32248
G1 X109.768 Y111.685 E17.34706
G1 X110.013 Y111.295 E17.39015
G1 X110.181 Y111.057 E17.4174
G1 X110.23 Y110.995 E17.42479
G1 X110.442 Y110.757 E17.45461
G0 X110.865 Y111.182
G1 X111.186 Y110.862 E17.49701
G1 X111.413 Y110.664 E17.52518
G1 X111.613 Y110.521 E17.54818
G1 X112.001 Y110.277 E17.59106
G1 X112.25 Y110.142 E17.61755
G1 X112.496 Y110.037 E17.64257
G1 X112.934 Y109.884 E17.68597
G1 X113.185 Y109.814 E17.71035
G1 X113.468 Y109.764 E17.73723
G1 X113.915 Y109.713 E17.77932
G1 X114.192 Y109.697 E17.80527
G1 X120.808 Y109.697 E18.42416
G1 X121.085 Y109.713 E18.45012
G1 X121.532 Y109.764 E18.4922
G1 X121.815 Y109.814 E18.51909
G1 X122.066 Y109.884 E18.54346
G1 X122.504 Y110.037 E18.58686
G1 X122.75 Y110.142 E18.61188
G1 X122.996 Y110.276 E18.63809
G1 X123.386 Y110.521 E18.68117
G1 X123.633 Y110.7 E18.7097
G1 X123.818 Y110.865 E18.73289
G1 X124.138 Y111.186 E18.77529
G1 X124.336 Y111.413 E18.80347
G1 X124.479 Y111.613 E18.82647
G1 X124.723 Y112.001 E18.86934
G1 X124.858 Y112.25 E18.89584
G1 X124.963 Y112.496 E18.92086
G1 X125.116 Y112.934 E18.96426
G1 X125.201 Y113.251 E18.99496
G1 X125.237 Y113.466 E19.01535
G1 X125.288 Y113.914 E19.05753
G1 X125.303 Y114.192 E19.08357
G1 X125.303 Y120.804 E19.70209
G1 X125.288 Y121.079 E19.72785
G1 X125.237 Y121.53 E19.77031
G1 X125.189 Y121.803 E19.79624
G1 X125.117 Y122.061 E19.82129
G1 X124.964 Y122.5 E19.86478
G1 X124.859 Y122.748 E19.88998
G1 X124.724 Y122.996 E19.91639
G1 X124.479 Y123.386 E19.95947
G1 X124.3 Y123.633 E19.98801
G1 X124.135 Y123.818 E20.0112
G1 X123.814 Y124.138 E20.0536
G1 X123.587 Y124.336 E20.08177
G1 X123.387 Y124.479 E20.10477
G1 X122.999 Y124.723 E20.14765
G1 X122.75 Y124.858 E20.17414
G1 X122.504 Y124.963 E20.19916
G1 X122.066 Y125.116 E20.24256
G1 X121.815 Y125.186 E20.26694
G1 X121.532 Y125.236 E20.29382
G1 X121.085 Y125.287 E20.33591
G1 X120.808 Y125.303 E20.36186
G1 X114.191 Y125.303 E20.98084
G1 X113.908 Y125.287 E21.00736
G1 X113.461 Y125.235 E21.04946
G1 X113.187 Y125.186 E21.07549
G1 X112.927 Y125.113 E21.10076
G1 X112.492 Y124.96 E21.14389
G1 X112.224 Y124.846 E21.17113
G1 X111.995 Y124.72 E21.19558
G1 X111.607 Y124.474 E21.23856
G1 X111.39 Y124.318 E21.26356
G1 X111.175 Y124.129 E21.29034
G1 X110.854 Y123.805 E21.333
G1 X110.663 Y123.585 E21.36026
G1 X110.515 Y123.378 E21.38406
G1 X110.271 Y122.988 E21.42709
G1 X110.123 Y122.71 E21.45655
G1 X110.032 Y122.489 E21.47891
G1 X109.883 Y122.058 E21.52157
G1 X109.815 Y121.814 E21.54527
G1 X109.765 Y121.534 E21.57187
G1 X109.713 Y121.083 E21.61434
G1 X109.697 Y120.803 E21.64057
G1 X109.697 Y114.192 E22.259
G1 X109.713 Y113.915 E22.28495
G1 X109.764 Y113.468 E22.32704
G1 X109.811 Y113.197 E22.35276
G1 X109.883 Y112.939 E22.37782
G1 X110.036 Y112.5 E22.42131
G1 X110.141 Y112.252 E22.4465
G1 X110.276 Y112.004 E22.47292
G1 X110.521 Y111.614 E22.516
G1 X110.7 Y111.367 E22.54453
G1 X110.865 Y111.182 E22.56772
G0 X111.289 Y111.607
G1 X111.61 Y111.287 E22.61012
G1 X111.932 Y111.029 E22.64872
G1 X112.32 Y110.785 E22.69159
G1 X112.694 Y110.604 E22.73046
G1 X113.132 Y110.451 E22.77386
G1 X113.39 Y110.384 E22.7988
G1 X113.536 Y110.36 E22.81264
G1 X113.983 Y110.309 E22.85472
G1 X114.192 Y110.297 E22.87431
G1 X120.808 Y110.297 E23.49319
G1 X121.017 Y110.309 E23.51278
G1 X121.464 Y110.36 E23.55486
G1 X121.868 Y110.451 E23.5936
G1 X122.306 Y110.604 E23.637
G1 X122.55 Y110.712 E23.66196
G1 X122.677 Y110.784 E23.67562
G1 X123.067 Y111.029 E23.7187
G1 X123.393 Y111.289 E23.75771
G1 X123.713 Y111.61 E23.80011
G1 X123.971 Y111.932 E23.83871
G1 X124.215 Y112.32 E23.88158
G1 X124.396 Y112.694 E23.92045
G1 X124.549 Y113.132 E23.96385
G1 X124.615 Y113.381 E23.98795
G1 X124.64 Y113.534 E24.00245
G1 X124.691 Y113.982 E24.04463
G1 X124.703 Y114.192 E24.0643
G1 X124.703 Y120.804 E24.68282
G1 X124.692 Y121.012 E24.7023
G1 X124.641 Y121.463 E24.74476
G1 X124.55 Y121.864 E24.78322
G1 X124.397 Y122.303 E24.82671
G1 X124.288 Y122.55 E24.85197
G1 X124.216 Y122.677 E24.86562
G1 X123.971 Y123.067 E24.90871
G1 X123.711 Y123.393 E24.94771
G1 X123.39 Y123.713 E24.99011
G1 X123.068 Y123.971 E25.02871
G1 X122.68 Y124.215 E25.07158
G1 X122.306 Y124.396 E25.11045
G1 X121.868 Y124.549 E25.15385
G1 X121.61 Y124.616 E25.17879
G1 X121.464 Y124.64 E25.19263
G1 X121.017 Y124.691 E25.23471
G1 X120.808 Y124.703 E25.2543
G1 X114.191 Y124.703 E25.87328
G1 X113.978 Y124.691 E25.89323
G1 X113.531 Y124.639 E25.93533
G1 X113.126 Y124.547 E25.97418
G1 X112.691 Y124.394 E26.01732
G1 X112.316 Y124.213 E26.05627
G1 X111.928 Y123.967 E26.09924
G1 X111.601 Y123.707 E26.13832
G1 X111.28 Y123.383 E26.18099
G1 X111.023 Y123.06 E26.2196
G1 X110.779 Y122.67 E26.26263
G1 X110.599 Y122.293 E26.30171
G1 X110.45 Y121.862 E26.34437
G1 X110.385 Y121.609 E26.36881
G1 X110.361 Y121.465 E26.38246
G1 X110.309 Y121.014 E26.42493
G1 X110.297 Y120.803 E26.4447
G1 X110.297 Y114.192 E27.06312
G1 X110.309 Y113.983 E27.0827
G1 X110.36 Y113.536 E27.12479
G1 X110.45 Y113.136 E27.16314
G1 X110.603 Y112.697 E27.20663
