;FLAVOR:Marlin
;TIME:5197
;Filament used: 14.536m
;Layer height: 0.4
;MINX:52.4
;MINY:33.9
;MINZ:0.4
;MAXX:182.6
;MAXY:188.1
;MAXZ:20
;Generated with Cura_SteamEngine 4.11.0
M140 S100
M105
M190 S100
M104 S240
M105
M109 S240
M82 ;absolute extrusion mode
; Ender 3 Custom Start G-code
G92 E0 ; Reset Extruder
G28 ; Home all axes
G1 Z2.0 F3000 ; Move Z Axis up little to prevent scratching of Heat Bed
G1 X0.1 Y20 Z0.3 F5000.0 ; Move to start position
G1 X0.1 Y200.0 Z0.3 F1500.0 E15 ; Draw the first line
G1 X0.4 Y200.0 Z0.3 F5000.0 ; Move to side a little
G1 X0.4 Y20 Z0.3 F1500.0 E30 ; Draw the second line
G92 E0 ; Reset Extruder
G1 Z2.0 F3000 ; Move Z Axis up little to prevent scratching of Heat Bed
G1 X5 Y20 Z0.3 F5000.0 ; Move over to prevent blob squish
G92 E0
G92 E0
G1 F2700 E-5
;LAYER_COUNT:50
;LAYER:0
M107
G0 F6000 X64.254 Y36.177 Z0.4
;TYPE:SKIRT
G1 F2700 E0
G1 F1200 X64.522 Y35.712 E0.07926
G1 X64.954 Y35.188 E0.17955
G1 X65.188 Y34.954 E0.22842
G1 X65.595 Y34.605 E0.30759
G1 X66.049 Y34.319 E0.38683
G1 X66.54 Y34.104 E0.46598
G1 X67.058 Y33.964 E0.54522
G1 X67.734 Y33.9 E0.6455
G1 X117.266 Y33.9 E7.96014
G1 X117.801 Y33.94 E8.03936
G1 X118.324 Y34.059 E8.11857
G1 X118.823 Y34.254 E8.19769
G1 X119.288 Y34.522 E8.27695
G1 X119.812 Y34.954 E8.37723
G1 X120 Y35.142 E8.4165
G1 X120.188 Y34.954 E8.45576
G1 X120.595 Y34.605 E8.53494
G1 X121.049 Y34.319 E8.61417
G1 X121.54 Y34.104 E8.69333
G1 X122.058 Y33.964 E8.77257
G1 X122.734 Y33.9 E8.87284
G1 X172.266 Y33.9 E16.18748
G1 X172.801 Y33.94 E16.26671
G1 X173.324 Y34.059 E16.34592
G1 X173.823 Y34.254 E16.42503
G1 X174.288 Y34.522 E16.50429
G1 X174.812 Y34.954 E16.60458
G1 X175.046 Y35.188 E16.65345
G1 X175.395 Y35.595 E16.73262
G1 X175.681 Y36.049 E16.81186
G1 X175.896 Y36.54 E16.89102
G1 X176.036 Y37.058 E16.97026
G1 X176.1 Y37.734 E17.07053
G1 X176.1 Y156.9 E34.66837
G1 X178.766 Y156.9 E35.06207
G1 X179.301 Y156.94 E35.1413
G1 X179.824 Y157.059 E35.22051
G1 X180.323 Y157.254 E35.29962
G1 X180.788 Y157.522 E35.37888
G1 X181.312 Y157.954 E35.47917
G1 X181.546 Y158.188 E35.52804
G1 X181.895 Y158.595 E35.60722
G1 X182.181 Y159.049 E35.68645
G1 X182.396 Y159.54 E35.76561
G1 X182.536 Y160.058 E35.84485
G1 X182.6 Y160.734 E35.94512
G1 X182.6 Y184.266 E39.42021
G1 X182.56 Y184.801 E39.49944
G1 X182.441 Y185.324 E39.57865
G1 X182.246 Y185.823 E39.65776
G1 X181.978 Y186.288 E39.73702
G1 X181.546 Y186.812 E39.83731
G1 X181.312 Y187.046 E39.88618
G1 X180.905 Y187.395 E39.96535
G1 X180.451 Y187.681 E40.04459
G1 X179.96 Y187.896 E40.12375
G1 X179.442 Y188.036 E40.20299
G1 X178.766 Y188.1 E40.30326
G1 X56.234 Y188.1 E58.39818
G1 X55.699 Y188.06 E58.4774
G1 X55.176 Y187.941 E58.55661
G1 X54.677 Y187.746 E58.63573
G1 X54.212 Y187.478 E58.71498
G1 X53.688 Y187.046 E58.81527
G1 X53.454 Y186.812 E58.86414
G1 X53.105 Y186.405 E58.94332
G1 X52.819 Y185.951 E59.02256
G1 X52.604 Y185.46 E59.10171
G1 X52.464 Y184.942 E59.18095
G1 X52.4 Y184.266 E59.28123
G1 X52.4 Y160.734 E62.75631
G1 X52.44 Y160.199 E62.83554
G1 X52.559 Y159.676 E62.91475
G1 X52.754 Y159.177 E62.99387
G1 X53.022 Y158.712 E63.07312
G1 X53.454 Y158.188 E63.17341
G1 X53.688 Y157.954 E63.22228
G1 X54.095 Y157.605 E63.30146
G1 X54.549 Y157.319 E63.38069
G1 X55.04 Y157.104 E63.45985
G1 X55.558 Y156.964 E63.53909
G1 X56.234 Y156.9 E63.63936
G1 X63.9 Y156.9 E64.77144
G1 X63.9 Y37.734 E82.36928
G1 X63.94 Y37.199 E82.44851
G1 X64.059 Y36.676 E82.52772
G1 X64.254 Y36.177 E82.60683
G0 F6000 X65.053 Y36.374
G1 F1200 X65.316 Y35.981 E82.67666
G1 X65.52 Y35.754 E82.72173
G1 X65.754 Y35.52 E82.7706
G1 X66.116 Y35.215 E82.84051
G1 X66.523 Y34.975 E82.91028
G1 X66.965 Y34.808 E82.98006
G1 X67.429 Y34.717 E83.04989
G1 X67.734 Y34.7 E83.095
G1 X117.266 Y34.7 E90.40963
G1 X117.737 Y34.74 E90.47944
G1 X118.195 Y34.859 E90.54932
G1 X118.626 Y35.053 E90.61912
G1 X119.019 Y35.316 E90.68895
G1 X119.246 Y35.52 E90.73402
G1 X119.48 Y35.754 E90.78289
G1 X119.785 Y36.116 E90.85279
G1 X120.003 Y36.485 E90.91609
G1 X120.053 Y36.374 E90.93406
G1 X120.316 Y35.981 E91.0039
G1 X120.52 Y35.754 E91.04897
G1 X120.754 Y35.52 E91.09784
G1 X121.116 Y35.215 E91.16774
G1 X121.523 Y34.975 E91.23751
G1 X121.965 Y34.808 E91.30729
G1 X122.429 Y34.717 E91.37712
G1 X122.734 Y34.7 E91.42223
G1 X172.266 Y34.7 E98.73687
G1 X172.737 Y34.74 E98.80667
G1 X173.195 Y34.859 E98.87655
G1 X173.626 Y35.053 E98.94635
G1 X174.019 Y35.316 E99.01618
G1 X174.246 Y35.52 E99.06125
G1 X174.48 Y35.754 E99.11012
G1 X174.785 Y36.116 E99.18003
G1 X175.025 Y36.523 E99.2498
G1 X175.192 Y36.965 E99.31958
G1 X175.283 Y37.429 E99.3894
G1 X175.3 Y37.734 E99.43451
G1 X175.3 Y157.266 E117.0864
G1 X175.263 Y157.7 E117.15073
G1 X178.766 Y157.7 E117.66803
G1 X179.237 Y157.74 E117.73784
G1 X179.695 Y157.859 E117.80772
G1 X180.126 Y158.053 E117.87752
G1 X180.519 Y158.316 E117.94735
G1 X180.746 Y158.52 E117.99242
G1 X180.98 Y158.754 E118.04129
G1 X181.285 Y159.116 E118.11119
G1 X181.525 Y159.523 E118.18097
G1 X181.692 Y159.965 E118.25074
G1 X181.783 Y160.429 E118.32057
G1 X181.8 Y160.734 E118.36568
G1 X181.8 Y184.266 E121.84077
G1 X181.76 Y184.737 E121.91057
G1 X181.641 Y185.195 E121.98046
G1 X181.447 Y185.626 E122.05025
G1 X181.184 Y186.019 E122.12009
G1 X180.98 Y186.246 E122.16516
G1 X180.746 Y186.48 E122.21403
G1 X180.384 Y186.785 E122.28393
G1 X179.977 Y187.025 E122.3537
G1 X179.535 Y187.192 E122.42348
G1 X179.071 Y187.283 E122.49331
G1 X178.766 Y187.3 E122.53842
G1 X56.234 Y187.3 E140.63333
G1 X55.763 Y187.26 E140.70314
G1 X55.305 Y187.141 E140.77302
G1 X54.874 Y186.947 E140.84282
G1 X54.481 Y186.684 E140.91265
G1 X54.254 Y186.48 E140.95772
G1 X54.02 Y186.246 E141.00659
G1 X53.715 Y185.884 E141.07649
G1 X53.475 Y185.477 E141.14627
G1 X53.308 Y185.035 E141.21604
G1 X53.217 Y184.571 E141.28587
G1 X53.2 Y184.266 E141.33098
G1 X53.2 Y160.734 E144.80607
G1 X53.24 Y160.263 E144.87587
G1 X53.359 Y159.805 E144.94575
G1 X53.553 Y159.374 E145.01555
G1 X53.816 Y158.981 E145.08539
G1 X54.02 Y158.754 E145.13046
G1 X54.254 Y158.52 E145.17932
G1 X54.616 Y158.215 E145.24923
G1 X55.023 Y157.975 E145.319
G1 X55.465 Y157.808 E145.38878
G1 X55.929 Y157.717 E145.45861
G1 X56.234 Y157.7 E145.50372
G1 X64.742 Y157.7 E146.76014
G1 X64.717 Y157.571 E146.77954
G1 X64.7 Y157.266 E146.82465
G1 X64.7 Y37.734 E164.47654
G1 X64.74 Y37.263 E164.54634
G1 X64.859 Y36.805 E164.61622
G1 X65.053 Y36.374 E164.68602
G0 F6000 X65.658 Y36.955
G1 F1200 X65.85 Y36.604 E164.74511
G1 X66.086 Y36.32 E164.79964
G1 X66.32 Y36.086 E164.84851
G1 X66.629 Y35.833 E164.90748
G1 X66.982 Y35.647 E164.9664
G1 X67.366 Y35.534 E165.02552
G1 X67.734 Y35.5 E165.08009
G1 X117.266 Y35.5 E172.39473
G1 X117.664 Y35.54 E172.4538
G1 X118.045 Y35.658 E172.5127
G1 X118.396 Y35.85 E172.57178
G1 X118.68 Y36.086 E172.62631
G1 X118.914 Y36.32 E172.67518
G1 X119.167 Y36.629 E172.73416
G1 X119.353 Y36.982 E172.79308
G1 X119.466 Y37.366 E172.85219
G1 X119.5 Y37.734 E172.90677
G1 X119.5 Y157.266 E190.55866
G1 X119.46 Y157.664 E190.61773
G1 X119.342 Y158.045 E190.67663
G1 X119.15 Y158.396 E190.73571
G1 X119.064 Y158.5 E190.75564
G1 X120.939 Y158.5 E191.03253
G1 X120.833 Y158.371 E191.05719
G1 X120.647 Y158.018 E191.11611
G1 X120.534 Y157.634 E191.17522
G1 X120.5 Y157.266 E191.2298
G1 X120.5 Y37.734 E208.88169
G1 X120.54 Y37.336 E208.94076
G1 X120.658 Y36.955 E208.99966
G1 X120.85 Y36.604 E209.05874
G1 X121.086 Y36.32 E209.11327
G1 X121.32 Y36.086 E209.16214
G1 X121.629 Y35.833 E209.22111
G1 X121.982 Y35.647 E209.28004
G1 X122.366 Y35.534 E209.33915
G1 X122.734 Y35.5 E209.39372
G1 X172.266 Y35.5 E216.70836
G1 X172.664 Y35.54 E216.76743
G1 X173.045 Y35.658 E216.82633
G1 X173.396 Y35.85 E216.88542
G1 X173.68 Y36.086 E216.93995
G1 X173.914 Y36.32 E216.98882
G1 X174.167 Y36.629 E217.04779
G1 X174.353 Y36.982 E217.10672
G1 X174.466 Y37.366 E217.16583
G1 X174.5 Y37.734 E217.2204
G1 X174.5 Y157.266 E234.87229
G1 X174.46 Y157.664 E234.93136
G1 X174.342 Y158.045 E234.99026
G1 X174.15 Y158.396 E235.04934
G1 X174.064 Y158.5 E235.06927
G1 X178.766 Y158.5 E235.76364
G1 X179.164 Y158.54 E235.82271
G1 X179.545 Y158.658 E235.88161
G1 X179.896 Y158.85 E235.94069
G1 X180.18 Y159.086 E235.99522
G1 X180.414 Y159.32 E236.04409
G1 X180.667 Y159.629 E236.10307
G1 X180.853 Y159.982 E236.16199
G1 X180.966 Y160.366 E236.2211
G1 X181 Y160.734 E236.27568
G1 X181 Y184.266 E239.75077
G1 X180.96 Y184.664 E239.80984
G1 X180.842 Y185.045 E239.86874
G1 X180.65 Y185.396 E239.92782
G1 X180.414 Y185.68 E239.98235
G1 X180.18 Y185.914 E240.03122
G1 X179.871 Y186.167 E240.0902
G1 X179.518 Y186.353 E240.14912
G1 X179.134 Y186.466 E240.20823
G1 X178.766 Y186.5 E240.26281
G1 X56.234 Y186.5 E258.35772
G1 X55.836 Y186.46 E258.41679
G1 X55.455 Y186.342 E258.47569
G1 X55.104 Y186.15 E258.53477
G1 X54.82 Y185.914 E258.58931
G1 X54.586 Y185.68 E258.63817
G1 X54.333 Y185.371 E258.69715
G1 X54.147 Y185.018 E258.75607
G1 X54.034 Y184.634 E258.81519
G1 X54 Y184.266 E258.86976
G1 X54 Y160.734 E262.34485
G1 X54.04 Y160.336 E262.40392
G1 X54.158 Y159.955 E262.46282
G1 X54.35 Y159.604 E262.5219
G1 X54.586 Y159.32 E262.57643
G1 X54.82 Y159.086 E262.6253
G1 X55.129 Y158.833 E262.68428
G1 X55.482 Y158.647 E262.7432
G1 X55.866 Y158.534 E262.80231
G1 X56.234 Y158.5 E262.85689
G1 X65.939 Y158.5 E264.29007
G1 X65.833 Y158.371 E264.31473
G1 X65.647 Y158.018 E264.37365
G1 X65.534 Y157.634 E264.43277
G1 X65.5 Y157.266 E264.48734
G1 X65.5 Y37.734 E282.13923
G1 X65.54 Y37.336 E282.1983
G1 X65.658 Y36.955 E282.2572
G0 F6000 X66.457 Y37.141
G1 F1200 X66.651 Y36.885 E282.30463
G1 X66.885 Y36.651 E282.3535
G1 X67.13 Y36.463 E282.39911
G1 X67.415 Y36.343 E282.44477
G1 X67.734 Y36.3 E282.49231
G1 X117.266 Y36.3 E289.80695
G1 X117.573 Y36.34 E289.85267
G1 X117.859 Y36.457 E289.8983
G1 X118.115 Y36.651 E289.94573
G1 X118.349 Y36.885 E289.9946
G1 X118.537 Y37.13 E290.04021
G1 X118.657 Y37.415 E290.08587
G1 X118.7 Y37.734 E290.13341
G1 X118.7 Y157.266 E307.7853
G1 X118.66 Y157.573 E307.83102
G1 X118.543 Y157.859 E307.87665
G1 X118.349 Y158.115 E307.92408
G1 X118.115 Y158.349 E307.97295
G1 X117.87 Y158.537 E308.01856
G1 X117.585 Y158.657 E308.06422
G1 X117.266 Y158.7 E308.11176
G1 X67.734 Y158.7 E315.42639
G1 X67.427 Y158.66 E315.47211
G1 X67.141 Y158.543 E315.51775
G1 X66.885 Y158.349 E315.56518
G1 X66.651 Y158.115 E315.61405
G1 X66.463 Y157.87 E315.65965
G1 X66.343 Y157.585 E315.70532
G1 X66.3 Y157.266 E315.75285
G1 X66.3 Y37.734 E333.40474
G1 X66.34 Y37.427 E333.45046
G1 X66.457 Y37.141 E333.49609
G0 F6000 X67.14 Y37.561
G1 F1200 X67.217 Y37.451 E333.51592
G1 X67.451 Y37.217 E333.56479
G1 X67.602 Y37.123 E333.59106
G1 X67.734 Y37.1 E333.61085
G1 X117.266 Y37.1 E340.92548
G1 X117.439 Y37.14 E340.95171
G1 X117.549 Y37.217 E340.97153
G1 X117.783 Y37.451 E341.0204
G1 X117.877 Y37.602 E341.04667
G1 X117.9 Y37.734 E341.06646
G1 X117.9 Y157.266 E358.71835
G1 X117.861 Y157.439 E358.74453
G1 X117.783 Y157.549 E358.76445
G1 X117.549 Y157.783 E358.81332
G1 X117.398 Y157.877 E358.83958
G1 X117.266 Y157.9 E358.85937
G1 X67.734 Y157.9 E366.17401
G1 X67.561 Y157.861 E366.2002
G1 X67.451 Y157.783 E366.22011
G1 X67.217 Y157.549 E366.26898
G1 X67.123 Y157.398 E366.29525
G1 X67.1 Y157.266 E366.31503
G1 X67.1 Y37.734 E383.96692
G1 X67.14 Y37.561 E383.99314
G1 F2700 E378.99314
G0 F6000 X66.936 Y37.358
G0 X67.46 Y36.839
G0 X117.54 Y36.839
G0 X121.3 Y37.734
G1 F2700 E383.99314
G1 F1200 X121.34 Y37.427 E384.03886
G1 X121.457 Y37.141 E384.0845
G1 X121.651 Y36.885 E384.13193
G1 X121.885 Y36.651 E384.1808
G1 X122.13 Y36.463 E384.2264
G1 X122.415 Y36.343 E384.27207
G1 X122.734 Y36.3 E384.31961
G1 X172.266 Y36.3 E391.63424
G1 X172.573 Y36.34 E391.67996
G1 X172.859 Y36.457 E391.7256
G1 X173.115 Y36.651 E391.77303
G1 X173.349 Y36.885 E391.8219
G1 X173.537 Y37.13 E391.8675
G1 X173.657 Y37.415 E391.91317
G1 X173.7 Y37.734 E391.9607
G1 X173.7 Y157.266 E409.61259
G1 X173.66 Y157.573 E409.65831
G1 X173.543 Y157.859 E409.70394
G1 X173.349 Y158.115 E409.75138
G1 X173.115 Y158.349 E409.80025
G1 X172.87 Y158.537 E409.84585
G1 X172.585 Y158.657 E409.89152
G1 X172.266 Y158.7 E409.93905
G1 X122.734 Y158.7 E417.25369
G1 X122.427 Y158.66 E417.29941
G1 X122.141 Y158.543 E417.34504
G1 X121.885 Y158.349 E417.39248
G1 X121.651 Y158.115 E417.44135
G1 X121.463 Y157.87 E417.48695
G1 X121.343 Y157.585 E417.53262
G1 X121.3 Y157.266 E417.58015
G1 X121.3 Y37.734 E435.23204
G0 F6000 X122.1 Y37.734
G1 F1200 X122.14 Y37.561 E435.25826
G1 X122.217 Y37.451 E435.27809
G1 X122.451 Y37.217 E435.32696
G1 X122.602 Y37.123 E435.35323
G1 X122.734 Y37.1 E435.37301
G1 X172.266 Y37.1 E442.68765
G1 X172.439 Y37.14 E442.71387
G1 X172.549 Y37.217 E442.7337
G1 X172.783 Y37.451 E442.78257
G1 X172.877 Y37.602 E442.80884
G1 X172.9 Y37.734 E442.82862
G1 X172.9 Y157.266 E460.48051
G1 X172.861 Y157.439 E460.5067
G1 X172.783 Y157.549 E460.52661
G1 X172.549 Y157.783 E460.57548
G1 X172.398 Y157.877 E460.60175
G1 X172.266 Y157.9 E460.62154
G1 X122.734 Y157.9 E467.93618
G1 X122.561 Y157.861 E467.96236
G1 X122.451 Y157.783 E467.98228
G1 X122.217 Y157.549 E468.03115
G1 X122.123 Y157.398 E468.05741
G1 X122.1 Y157.266 E468.0772
G1 X122.1 Y37.734 E485.72909
G1 F2700 E480.72909
G0 F6000 X121.835 Y37.734
G0 X117.54 Y36.839
G0 X67.46 Y36.839
G0 X66.839 Y37.46
G0 X56.234 Y159.3
G1 F2700 E485.72909
G1 F1200 X178.766 Y159.3 E503.824
G1 X179.073 Y159.34 E503.86972
G1 X179.359 Y159.457 E503.91535
G1 X179.615 Y159.651 E503.96279
G1 X179.849 Y159.885 E504.01166
G1 X180.037 Y160.13 E504.05726
G1 X180.157 Y160.415 E504.10293
G1 X180.2 Y160.734 E504.15046
G1 X180.2 Y184.266 E507.62555
G1 X180.16 Y184.573 E507.67127
G1 X180.043 Y184.859 E507.7169
G1 X179.849 Y185.115 E507.76434
G1 X179.615 Y185.349 E507.81321
G1 X179.37 Y185.537 E507.85881
G1 X179.085 Y185.657 E507.90448
G1 X178.766 Y185.7 E507.95201
G1 X56.234 Y185.7 E526.04692
G1 X55.927 Y185.66 E526.09264
G1 X55.641 Y185.543 E526.13828
G1 X55.385 Y185.349 E526.18571
G1 X55.151 Y185.115 E526.23458
G1 X54.963 Y184.87 E526.28018
G1 X54.843 Y184.585 E526.32585
G1 X54.8 Y184.266 E526.37338
G1 X54.8 Y160.734 E529.84847
G1 X54.84 Y160.427 E529.89419
G1 X54.957 Y160.141 E529.93982
G1 X55.151 Y159.885 E529.98726
G1 X55.385 Y159.651 E530.03613
G1 X55.63 Y159.463 E530.08173
G1 X55.915 Y159.343 E530.1274
G1 X56.234 Y159.3 E530.17493
G0 F6000 X56.234 Y160.1
G1 F1200 X178.766 Y160.1 E548.26985
G1 X178.939 Y160.14 E548.29607
G1 X179.049 Y160.217 E548.3159
G1 X179.283 Y160.451 E548.36477
G1 X179.377 Y160.602 E548.39103
G1 X179.4 Y160.734 E548.41082
G1 X179.4 Y184.266 E551.88591
G1 X179.361 Y184.439 E551.9121
G1 X179.283 Y184.549 E551.93201
G1 X179.049 Y184.783 E551.98088
G1 X178.898 Y184.877 E552.00715
G1 X178.766 Y184.9 E552.02693
G1 X56.234 Y184.9 E570.12185
G1 X56.061 Y184.861 E570.14803
G1 X55.951 Y184.783 E570.16795
G1 X55.717 Y184.549 E570.21682
G1 X55.623 Y184.398 E570.24308
G1 X55.6 Y184.266 E570.26287
G1 X55.6 Y160.734 E573.73796
G1 X55.64 Y160.561 E573.76418
G1 X55.717 Y160.451 E573.78401
G1 X55.951 Y160.217 E573.83288
G1 X56.102 Y160.123 E573.85915
G1 X56.234 Y160.1 E573.87893
G1 F2700 E568.87893
;MESH:enclosure_base.stl
G0 F6000 X56.234 Y159.835
G0 X66.835 Y156.686
G0 X68.314 Y156.686
G1 F2700 E573.87893
G0 F6000 X67.9 Y157.1
;TYPE:WALL-OUTER
G1 F1200 X67.9 Y37.9 E591.48179
G1 X117.1 Y37.9 E598.7474
G1 X117.1 Y157.1 E616.35026
G1 X67.9 Y157.1 E623.61587
G0 F6000 X68.37 Y156.63
G0 X68.7 Y156.3
;TYPE:WALL-INNER
G1 F1200 X68.7 Y38.7 E640.98245
G1 X116.3 Y38.7 E648.01178
G1 X116.3 Y156.3 E665.37836
G1 X68.7 Y156.3 E672.40769
G1 F2700 E667.40769
G0 F6000 X93.18 Y155.89
G0 X93.18 Y133.18
;TYPE:SKIN
G1 F2700 E672.40769
G1 F1200 X91.82 Y133.18 E672.60853
G1 X91.82 Y61.82 E683.14662
G1 X93.18 Y61.82 E683.34746
G1 X93.18 Y133.18 E693.88554
G0 F6000 X93.98 Y133.98
G1 F1200 X91.02 Y133.98 E694.32266
G1 X91.02 Y61.02 E705.09703
G1 X93.98 Y61.02 E705.53415
G1 X93.98 Y133.98 E716.30852
G0 F6000 X94.78 Y134.78
G1 F1200 X90.22 Y134.78 E716.98191
G1 X90.22 Y60.22 E727.99256
G1 X94.78 Y60.22 E728.66596
G1 X94.78 Y134.78 E739.67661
G0 F6000 X95.58 Y135.58
G1 F1200 X89.42 Y135.58 E740.58629
G1 X89.42 Y59.42 E751.83321
G1 X95.58 Y59.42 E752.74289
G1 X95.58 Y135.58 E763.98982
G0 F6000 X96.38 Y136.38
