;FLAVOR:Marlin
;TIME:9948
;Filament used: 8.51232m
;Layer height: 0.24
;MINX:62.806
;MINY:82.805
;MINZ:0.24
;MAXX:172.194
;MAXY:152.194
;MAXZ:9.76
;Generated with Cura_SteamEngine 4.8.0
M140 S100
M105
M190 S100
M104 S240
M105
M109 S240
M82 ;absolute extrusion mode
; Ender 3 Custom Start G-code
G92 E0 ; Reset Extruder
G28 ; Home all axes
G1 Z2.0 F3000 ; Move Z Axis up little to prevent scratching of Heat Bed
G1 X0.1 Y20 Z0.3 F5000.0 ; Move to start position
G1 X0.1 Y200.0 Z0.3 F1500.0 E15 ; Draw the first line
G1 X0.4 Y200.0 Z0.3 F5000.0 ; Move to side a little
G1 X0.4 Y20 Z0.3 F1500.0 E30 ; Draw the second line
G92 E0 ; Reset Extruder
G1 Z2.0 F3000 ; Move Z Axis up little to prevent scratching of Heat Bed
G1 X5 Y20 Z0.3 F5000.0 ; Move over to prevent blob squish
G92 E0
G92 E0
G1 F2700 E-5
;LAYER_COUNT:35
;LAYER:0
M107
G0 F1200 X72.194 Y93.195 Z0.24
;TYPE:SKIRT
G1 F2700 E0
G1 F1200 X72.195 Y108.806 E1.46032
G1 X75.727 Y108.805 E1.79072
G1 X76.284 Y108.845 E1.84295
G1 X76.76 Y108.944 E1.88843
G1 X77.015 Y109.014 E1.91317
G1 X77.542 Y109.2 E1.96545
G1 X78.036 Y109.459 E2.01762
G1 X78.555 Y109.844 E2.07807
G1 X78.759 Y110.023 E2.10346
G1 X79.151 Y110.42 E2.15565
G1 X79.483 Y110.869 E2.20789
G1 X79.805 Y111.52 E2.27583
G1 X79.805 Y93.194 E3.99012
G1 X72.194 Y93.195 E4.70208
G0 X71.594 Y92.595
G1 X71.595 Y109.406 E6.27465
G1 X75.727 Y109.405 E6.66118
G1 X76.239 Y109.445 E6.70922
G1 X76.602 Y109.523 E6.74395
G1 X76.857 Y109.593 E6.76868
G1 X77.34 Y109.767 E6.81671
G1 X77.79 Y110.014 E6.86473
G1 X78.16 Y110.295 E6.90819
G1 X78.364 Y110.474 E6.93358
G1 X78.722 Y110.841 E6.98154
G1 X79.019 Y111.26 E7.02958
G1 X79.281 Y111.806 E7.08623
G1 X79.383 Y112.081 E7.11367
G1 X79.524 Y112.575 E7.16172
G1 X79.57 Y112.871 E7.18974
G1 X79.594 Y113.263 E7.22648
G1 X79.595 Y113.722 E7.26942
G1 X79.556 Y114.234 E7.31745
G1 X79.474 Y114.614 E7.35382
G1 X79.403 Y114.869 E7.37858
G1 X79.227 Y115.352 E7.42667
G1 X78.979 Y115.801 E7.47465
G1 X78.705 Y116.16 E7.5169
G1 X78.527 Y116.363 E7.54215
G1 X78.16 Y116.721 E7.59011
G1 X77.741 Y117.018 E7.63815
G1 X77.195 Y117.281 E7.69484
G1 X76.923 Y117.382 E7.72199
G1 X76.47 Y117.495 E7.76566
G1 X76.602 Y117.523 E7.77828
G1 X76.857 Y117.593 E7.80302
G1 X77.34 Y117.767 E7.85104
G1 X77.79 Y118.014 E7.89906
G1 X78.16 Y118.295 E7.94252
G1 X78.364 Y118.474 E7.96791
G1 X78.722 Y118.841 E8.01587
G1 X79.019 Y119.26 E8.06391
G1 X79.281 Y119.806 E8.12056
G1 X79.383 Y120.081 E8.148
G1 X79.524 Y120.575 E8.19606
G1 X79.57 Y120.871 E8.22408
G1 X79.594 Y121.263 E8.26082
G1 X79.595 Y121.722 E8.30375
G1 X79.556 Y122.234 E8.35179
G1 X79.474 Y122.614 E8.38815
G1 X79.403 Y122.869 E8.41291
G1 X79.227 Y123.352 E8.461
G1 X78.979 Y123.801 E8.50898
G1 X78.705 Y124.16 E8.55123
G1 X78.527 Y124.363 E8.57649
G1 X78.16 Y124.721 E8.62445
G1 X77.741 Y125.018 E8.67249
G1 X77.195 Y125.281 E8.72918
G1 X76.923 Y125.382 E8.75632
G1 X76.21 Y125.559 E8.82504
G1 X76.165 Y125.565 E8.82929
G1 X75.73 Y125.594 E8.87007
G1 X71.594 Y125.595 E9.25697
G1 X71.595 Y142.406 E10.82954
G1 X80.406 Y142.405 E11.65376
G1 X80.405 Y92.594 E16.31328
G1 X71.594 Y92.595 E17.1375
G0 X70.994 Y91.995
G1 X70.995 Y110.006 E18.82232
G1 X75.727 Y110.005 E19.26498
G1 X76.19 Y110.045 E19.30845
G1 X76.443 Y110.101 E19.33269
G1 X76.698 Y110.171 E19.35742
G1 X77.133 Y110.332 E19.40081
G1 X77.535 Y110.565 E19.44428
G1 X77.764 Y110.746 E19.47158
G1 X77.968 Y110.925 E19.49697
G1 X78.289 Y111.26 E19.54037
G1 X78.548 Y111.645 E19.58378
G1 X78.718 Y112.015 E19.62187
G1 X78.82 Y112.29 E19.6493
G1 X78.969 Y112.902 E19.70823
G1 X78.974 Y112.943 E19.71209
G1 X78.994 Y113.264 E19.74217
G1 X78.995 Y113.723 E19.78511
G1 X78.956 Y114.186 E19.82858
G1 X78.896 Y114.453 E19.85418
G1 X78.825 Y114.708 E19.87894
G1 X78.663 Y115.143 E19.92236
G1 X78.428 Y115.544 E19.96584
G1 X78.254 Y115.764 E19.99207
G1 X78.076 Y115.967 E20.01733
G1 X77.741 Y116.289 E20.0608
G1 X77.356 Y116.548 E20.1042
G1 X76.986 Y116.718 E20.14229
G1 X76.714 Y116.819 E20.16943
G1 X76.131 Y116.964 E20.22563
G1 X76.086 Y116.97 E20.22988
G1 X75.729 Y116.994 E20.26335
G1 X68.492 Y116.994 E20.94033
G1 X68.2 Y116.978 E20.96768
G1 X67.823 Y116.937 E21.00316
G1 X67.419 Y116.862 E21.04159
G1 X67.205 Y116.798 E21.06249
G1 X66.857 Y116.678 E21.09692
G1 X66.561 Y116.555 E21.12691
G1 X66.53 Y116.54 E21.13013
G1 X66.256 Y116.388 E21.15944
G1 X65.945 Y116.19 E21.19393
G1 X65.71 Y116.022 E21.22095
G1 X65.455 Y115.796 E21.25282
G1 X65.197 Y115.537 E21.28702
G1 X65.017 Y115.338 E21.31212
G1 X64.995 Y115.311 E21.31538
G1 X64.81 Y115.054 E21.345
G1 X64.611 Y114.741 E21.3797
G1 X64.459 Y114.468 E21.40893
G1 X64.444 Y114.437 E21.41215
G1 X64.32 Y114.137 E21.44252
G1 X64.201 Y113.79 E21.47683
G1 X64.121 Y113.509 E21.50416
G1 X64.114 Y113.478 E21.50713
G1 X64.064 Y113.173 E21.53605
G1 X64.022 Y112.784 E21.57265
G1 X64.006 Y112.494 E21.59981
G1 X64.006 Y89.492 E23.75152
G1 X64.022 Y89.2 E23.77887
G1 X64.063 Y88.823 E23.81435
G1 X64.138 Y88.419 E23.85278
G1 X64.202 Y88.207 E23.8735
G1 X64.321 Y87.861 E23.90773
G1 X64.444 Y87.563 E23.93788
G1 X64.459 Y87.532 E23.94111
G1 X64.611 Y87.259 E23.97033
G1 X64.81 Y86.946 E24.00503
G1 X64.957 Y86.737 E24.02893
G1 X64.978 Y86.71 E24.03213
G1 X65.204 Y86.455 E24.06401
G1 X65.463 Y86.197 E24.0982
G1 X65.662 Y86.017 E24.1233
G1 X65.689 Y85.995 E24.12656
G1 X65.945 Y85.81 E24.15611
G1 X66.256 Y85.612 E24.1906
G1 X66.528 Y85.461 E24.2197
G1 X66.561 Y85.445 E24.22313
G1 X66.863 Y85.32 E24.2537
G1 X67.21 Y85.201 E24.28802
G1 X67.491 Y85.121 E24.31535
G1 X67.522 Y85.114 E24.31832
G1 X67.829 Y85.063 E24.34743
G1 X68.22 Y85.021 E24.38422
G1 X68.508 Y85.006 E24.4112
G1 X84.491 Y85.005 E25.90631
G1 X84.777 Y85.02 E25.9331
G1 X85.171 Y85.062 E25.97017
G1 X85.581 Y85.138 E26.00918
G1 X85.795 Y85.202 E26.03007
G1 X86.143 Y85.322 E26.0645
G1 X86.28 Y85.379 E26.07838
G1 X86.463 Y85.197 E26.10253
G1 X86.662 Y85.017 E26.12763
G1 X86.689 Y84.995 E26.13089
G1 X86.945 Y84.81 E26.16043
G1 X87.256 Y84.612 E26.19492
G1 X87.528 Y84.461 E26.22402
G1 X87.561 Y84.445 E26.22745
G1 X87.863 Y84.32 E26.25803
G1 X88.21 Y84.201 E26.29234
G1 X88.491 Y84.121 E26.31967
G1 X88.522 Y84.114 E26.32265
G1 X88.829 Y84.063 E26.35176
G1 X89.22 Y84.021 E26.38854
G1 X89.508 Y84.006 E26.41552
G1 X112.508 Y84.006 E28.56704
G1 X112.807 Y84.023 E28.59505
G1 X113.184 Y84.065 E28.63054
G1 X113.499 Y84.119 E28.66043
G1 X113.795 Y84.202 E28.68919
G1 X114.143 Y84.322 E28.72362
G1 X114.437 Y84.444 E28.7534
G1 X114.466 Y84.458 E28.75641
G1 X114.741 Y84.611 E28.78585
G1 X115.054 Y84.81 E28.82055
G1 X115.263 Y84.957 E28.84445
G1 X115.29 Y84.978 E28.84765
G1 X115.545 Y85.204 E28.87952
G1 X115.803 Y85.463 E28.91372
G1 X115.983 Y85.662 E28.93882
G1 X116.005 Y85.689 E28.94208
G1 X116.19 Y85.945 E28.97162
G1 X116.388 Y86.256 E29.00611
G1 X116.525 Y86.499 E29.03221
G1 X116.54 Y86.529 E29.03534
G1 X116.679 Y86.86 E29.06893
G1 X116.799 Y87.21 E29.10354
G1 X116.879 Y87.491 E29.13087
G1 X116.886 Y87.522 E29.13384
G1 X116.936 Y87.827 E29.16275
G1 X116.978 Y88.216 E29.19935
G1 X116.994 Y88.506 E29.22652
G1 X116.995 Y95.729 E29.90219
G1 X116.955 Y96.191 E29.94557
G1 X116.898 Y96.446 E29.97001
G1 X116.828 Y96.7 E29.99466
G1 X116.667 Y97.136 E30.03814
G1 X116.433 Y97.537 E30.08157
G1 X116.254 Y97.764 E30.10861
G1 X116.075 Y97.968 E30.134
G1 X115.74 Y98.289 E30.1774
G1 X115.355 Y98.548 E30.2208
G1 X114.983 Y98.719 E30.2591
G1 X114.71 Y98.82 E30.28633
G1 X114.13 Y98.964 E30.34223
G1 X114.085 Y98.97 E30.34648
G1 X113.734 Y98.994 E30.37939
G1 X113.278 Y98.995 E30.42205
G1 X112.815 Y98.956 E30.46551
G1 X112.55 Y98.897 E30.49091
G1 X112.294 Y98.826 E30.51576
G1 X111.859 Y98.664 E30.55918
G1 X111.458 Y98.429 E30.60266
G1 X111.236 Y98.254 E30.6291
G1 X111.033 Y98.076 E30.65436
G1 X110.711 Y97.741 E30.69782
G1 X110.452 Y97.356 E30.74123
G1 X110.283 Y96.988 E30.77911
G1 X110.181 Y96.714 E30.80646
G1 X110.031 Y96.099 E30.86568
G1 X110.026 Y96.058 E30.86954
G1 X110.006 Y95.732 E30.90009
G1 X110.005 Y90.994 E31.3433
G1 X91.994 Y90.995 E33.02813
G1 X91.995 Y101.006 E33.9646
G1 X143.006 Y101.005 E38.73638
G1 X143.005 Y90.994 E39.67285
G1 X124.994 Y90.995 E41.35767
G1 X124.995 Y95.728 E41.80042
G1 X124.955 Y96.191 E41.84389
G1 X124.898 Y96.446 E41.86833
G1 X124.828 Y96.7 E41.89298
G1 X124.667 Y97.136 E41.93645
G1 X124.433 Y97.537 E41.97988
G1 X124.254 Y97.764 E42.00693
G1 X124.075 Y97.968 E42.03231
G1 X123.74 Y98.289 E42.07572
G1 X123.355 Y98.548 E42.11912
G1 X122.983 Y98.719 E42.15742
G1 X122.71 Y98.82 E42.18465
G1 X122.13 Y98.964 E42.24055
G1 X122.085 Y98.97 E42.2448
G1 X121.734 Y98.994 E42.27771
G1 X121.278 Y98.995 E42.32037
G1 X120.815 Y98.956 E42.36383
G1 X120.55 Y98.897 E42.38923
G1 X120.294 Y98.826 E42.41408
G1 X119.859 Y98.664 E42.4575
G1 X119.458 Y98.429 E42.50098
G1 X119.236 Y98.254 E42.52742
G1 X119.033 Y98.076 E42.55268
G1 X118.711 Y97.741 E42.59614
G1 X118.452 Y97.356 E42.63955
G1 X118.283 Y96.988 E42.67743
G1 X118.181 Y96.714 E42.70478
G1 X118.031 Y96.099 E42.76399
G1 X118.026 Y96.058 E42.76786
G1 X118.006 Y95.731 E42.7985
G1 X118.006 Y88.492 E43.47567
G1 X118.022 Y88.2 E43.50303
G1 X118.063 Y87.823 E43.5385
G1 X118.138 Y87.419 E43.57694
G1 X118.202 Y87.207 E43.59765
G1 X118.321 Y86.861 E43.63188
G1 X118.444 Y86.563 E43.66204
G1 X118.459 Y86.532 E43.66526
G1 X118.611 Y86.259 E43.69449
G1 X118.81 Y85.946 E43.72918
G1 X118.957 Y85.737 E43.75309
G1 X118.978 Y85.71 E43.75629
G1 X119.204 Y85.455 E43.78816
G1 X119.463 Y85.197 E43.82236
G1 X119.662 Y85.017 E43.84746
G1 X119.689 Y84.995 E43.85072
G1 X119.945 Y84.81 E43.88026
G1 X120.256 Y84.612 E43.91475
G1 X120.528 Y84.461 E43.94385
G1 X120.561 Y84.445 E43.94728
G1 X120.863 Y84.32 E43.97786
G1 X121.21 Y84.201 E44.01217
G1 X121.491 Y84.121 E44.0395
G1 X121.522 Y84.114 E44.04248
G1 X121.829 Y84.063 E44.07159
G1 X122.22 Y84.021 E44.10837
G1 X122.508 Y84.006 E44.13535
G1 X145.491 Y84.005 E46.28527
G1 X145.777 Y84.02 E46.31207
G1 X146.171 Y84.062 E46.34913
G1 X146.581 Y84.138 E46.38814
G1 X146.795 Y84.202 E46.40903
G1 X147.143 Y84.322 E46.44347
G1 X147.437 Y84.444 E46.47324
G1 X147.466 Y84.458 E46.47625
G1 X147.741 Y84.611 E46.50569
G1 X148.054 Y84.81 E46.54039
G1 X148.263 Y84.957 E46.56429
G1 X148.29 Y84.978 E46.56749
G1 X148.545 Y85.204 E46.59936
G1 X148.72 Y85.379 E46.62251
G1 X148.863 Y85.32 E46.63699
G1 X149.21 Y85.201 E46.6713
G1 X149.491 Y85.121 E46.69863
G1 X149.522 Y85.114 E46.7016
G1 X149.829 Y85.063 E46.73072
G1 X150.22 Y85.021 E46.7675
G1 X150.508 Y85.006 E46.79448
G1 X166.491 Y85.005 E48.2896
G1 X166.777 Y85.02 E48.31639
G1 X167.171 Y85.062 E48.35345
G1 X167.581 Y85.138 E48.39246
G1 X167.795 Y85.202 E48.41335
G1 X168.143 Y85.322 E48.44779
G1 X168.437 Y85.444 E48.47756
G1 X168.466 Y85.458 E48.48057
G1 X168.741 Y85.611 E48.51001
G1 X169.054 Y85.81 E48.54471
G1 X169.263 Y85.957 E48.56861
G1 X169.29 Y85.978 E48.57181
G1 X169.545 Y86.204 E48.60368
G1 X169.803 Y86.463 E48.63788
G1 X169.983 Y86.662 E48.66298
G1 X170.005 Y86.689 E48.66624
G1 X170.19 Y86.945 E48.69579
G1 X170.388 Y87.256 E48.73027
G1 X170.525 Y87.499 E48.75637
G1 X170.54 Y87.529 E48.75951
G1 X170.679 Y87.86 E48.79309
G1 X170.799 Y88.21 E48.8277
G1 X170.879 Y88.491 E48.85503
G1 X170.886 Y88.522 E48.858
G1 X170.936 Y88.827 E48.88692
G1 X170.978 Y89.216 E48.92352
G1 X170.994 Y89.506 E48.95068
G1 X170.994 Y145.508 E54.18934
G1 X170.978 Y145.8 E54.2167
G1 X170.937 Y146.177 E54.25217
G1 X170.862 Y146.581 E54.29061
G1 X170.798 Y146.793 E54.31133
G1 X170.679 Y147.139 E54.34555
G1 X170.556 Y147.437 E54.37571
G1 X170.541 Y147.468 E54.37893
G1 X170.389 Y147.741 E54.40816
G1 X170.19 Y148.054 E54.44286
G1 X170.043 Y148.263 E54.46676
G1 X170.022 Y148.29 E54.46996
G1 X169.796 Y148.545 E54.50183
G1 X169.537 Y148.803 E54.53603
G1 X169.338 Y148.983 E54.56113
G1 X169.311 Y149.005 E54.56439
G1 X169.055 Y149.19 E54.59393
G1 X168.744 Y149.388 E54.62842
G1 X168.472 Y149.539 E54.65752
G1 X168.439 Y149.555 E54.66095
G1 X168.137 Y149.68 E54.69153
G1 X167.79 Y149.799 E54.72584
G1 X167.509 Y149.879 E54.75318
G1 X167.478 Y149.886 E54.75615
G1 X167.171 Y149.937 E54.78526
G1 X166.78 Y149.979 E54.82205
G1 X166.492 Y149.994 E54.84902
G1 X150.492 Y149.994 E56.34573
G1 X150.2 Y149.978 E56.37309
G1 X149.823 Y149.937 E56.40856
G1 X149.419 Y149.862 E56.447
G1 X149.205 Y149.798 E56.46789
G1 X148.857 Y149.678 E56.50233
G1 X148.72 Y149.621 E56.51621
G1 X148.537 Y149.803 E56.54035
G1 X148.338 Y149.983 E56.56545
G1 X148.311 Y150.005 E56.56871
G1 X148.055 Y150.19 E56.59825
G1 X147.744 Y150.388 E56.63274
G1 X147.472 Y150.539 E56.66184
G1 X147.439 Y150.555 E56.66527
G1 X147.137 Y150.68 E56.69585
G1 X146.79 Y150.799 E56.73016
G1 X146.509 Y150.879 E56.75749
G1 X146.478 Y150.886 E56.76047
G1 X146.171 Y150.937 E56.78958
G1 X145.78 Y150.979 E56.82637
G1 X145.492 Y150.994 E56.85334
G1 X89.492 Y150.994 E62.09181
G1 X89.2 Y150.978 E62.11917
G1 X88.823 Y150.937 E62.15464
G1 X88.419 Y150.862 E62.19308
G1 X88.205 Y150.798 E62.21398
G1 X87.857 Y150.678 E62.24841
G1 X87.561 Y150.555 E62.27839
G1 X87.53 Y150.54 E62.28162
G1 X87.256 Y150.388 E62.31093
G1 X86.945 Y150.19 E62.34542
G1 X86.71 Y150.022 E62.37244
G1 X86.455 Y149.796 E62.40431
G1 X86.28 Y149.621 E62.42746
G1 X86.137 Y149.68 E62.44193
G1 X85.79 Y149.799 E62.47625
G1 X85.509 Y149.879 E62.50358
G1 X85.478 Y149.886 E62.50655
G1 X85.171 Y149.937 E62.53566
G1 X84.78 Y149.979 E62.57245
G1 X84.492 Y149.994 E62.59943
G1 X68.492 Y149.994 E64.09613
G1 X68.2 Y149.978 E64.12349
G1 X67.823 Y149.937 E64.15896
G1 X67.419 Y149.862 E64.1974
G1 X67.205 Y149.798 E64.2183
G1 X66.857 Y149.678 E64.25273
G1 X66.561 Y149.555 E64.28271
G1 X66.53 Y149.54 E64.28594
G1 X66.256 Y149.388 E64.31525
G1 X65.945 Y149.19 E64.34973
G1 X65.71 Y149.022 E64.37676
G1 X65.455 Y148.796 E64.40863
G1 X65.197 Y148.537 E64.44283
G1 X65.017 Y148.338 E64.46793
G1 X64.995 Y148.311 E64.47119
G1 X64.81 Y148.054 E64.50081
G1 X64.611 Y147.741 E64.5355
G1 X64.459 Y147.468 E64.56473
G1 X64.444 Y147.437 E64.56795
G1 X64.32 Y147.137 E64.59832
G1 X64.201 Y146.79 E64.63264
G1 X64.121 Y146.509 E64.65997
G1 X64.114 Y146.478 E64.66294
G1 X64.064 Y146.173 E64.69185
G1 X64.022 Y145.784 E64.72845
G1 X64.006 Y145.494 E64.75562
G1 X64.006 Y122.492 E66.90732
G1 X64.022 Y122.2 E66.93468
G1 X64.063 Y121.823 E66.97015
G1 X64.138 Y121.419 E67.00859
G1 X64.202 Y121.207 E67.02931
G1 X64.321 Y120.861 E67.06353
G1 X64.444 Y120.563 E67.09369
G1 X64.459 Y120.532 E67.09691
G1 X64.611 Y120.259 E67.12614
G1 X64.81 Y119.946 E67.16084
G1 X64.957 Y119.737 E67.18474
G1 X64.978 Y119.71 E67.18794
G1 X65.204 Y119.455 E67.21981
G1 X65.463 Y119.197 E67.25401
G1 X65.662 Y119.017 E67.27911
G1 X65.689 Y118.995 E67.28237
G1 X65.945 Y118.81 E67.31191
G1 X66.256 Y118.612 E67.3464
G1 X66.528 Y118.461 E67.3755
G1 X66.561 Y118.445 E67.37893
G1 X66.863 Y118.32 E67.40951
G1 X67.21 Y118.201 E67.44382
G1 X67.491 Y118.121 E67.47116
G1 X67.522 Y118.114 E67.47413
G1 X67.829 Y118.063 E67.50324
G1 X68.22 Y118.021 E67.54003
G1 X68.508 Y118.006 E67.567
G1 X75.728 Y118.005 E68.24239
G1 X76.19 Y118.045 E68.28577
G1 X76.443 Y118.101 E68.31001
G1 X76.698 Y118.171 E68.33475
G1 X77.133 Y118.332 E68.37814
G1 X77.535 Y118.565 E68.4216
G1 X77.764 Y118.746 E68.44891
G1 X77.968 Y118.925 E68.47429
G1 X78.289 Y119.26 E68.51769
G1 X78.548 Y119.645 E68.5611
G1 X78.718 Y120.015 E68.59919
G1 X78.82 Y120.29 E68.62663
G1 X78.969 Y120.902 E68.68555
G1 X78.974 Y120.943 E68.68941
G1 X78.994 Y121.264 E68.7195
G1 X78.995 Y121.723 E68.76243
G1 X78.956 Y122.186 E68.8059
G1 X78.896 Y122.453 E68.8315
G1 X78.825 Y122.708 E68.85626
G1 X78.663 Y123.143 E68.89968
G1 X78.428 Y123.544 E68.94316
G1 X78.254 Y123.764 E68.9694
G1 X78.076 Y123.967 E68.99465
G1 X77.741 Y124.289 E69.03812
G1 X77.356 Y124.548 E69.08153
G1 X76.986 Y124.718 E69.11961
G1 X76.714 Y124.819 E69.14676
G1 X76.131 Y124.964 E69.20295
G1 X76.086 Y124.97 E69.2072
G1 X75.73 Y124.994 E69.24058
G1 X70.994 Y124.995 E69.6836
G1 X70.995 Y143.006 E71.36843
G1 X81.006 Y143.005 E72.3049
G1 X81.005 Y91.994 E77.07668
G1 X70.994 Y91.995 E78.01315
G0 X70.394 Y91.622
G1 X70.395 Y110.387 E79.7685
G1 X70.44 Y110.57 E79.78613
G1 X70.616 Y110.606 E79.80294
G1 X75.728 Y110.605 E80.28113
G1 X76.284 Y110.68 E80.33361
G1 X76.539 Y110.75 E80.35835
