;FLAVOR:Marlin
;TIME:784
;Filament used: 0.308241m
;Layer height: 0.16
;MINX:105.845
;MINY:75.7
;MINZ:0.2
;MAXX:129.153
;MAXY:100.153
;MAXZ:10.88
;Generated with Cura_SteamEngine 4.8.0
M140 S70
M105
M190 S70
M104 S210
M105
M109 S210
M82 ;absolute extrusion mode
; Ender 3 Custom Start G-code
G92 E0 ; Reset Extruder
G28 ; Home all axes
G1 Z2.0 F3000 ; Move Z Axis up little to prevent scratching of Heat Bed
G1 X0.1 Y20 Z0.3 F5000.0 ; Move to start position
G1 X0.1 Y200.0 Z0.3 F1500.0 E15 ; Draw the first line
G1 X0.4 Y200.0 Z0.3 F5000.0 ; Move to side a little
G1 X0.4 Y20 Z0.3 F1500.0 E30 ; Draw the second line
G92 E0 ; Reset Extruder
G1 Z2.0 F3000 ; Move Z Axis up little to prevent scratching of Heat Bed
G1 X5 Y20 Z0.3 F5000.0 ; Move over to prevent blob squish
G92 E0
G92 E0
G1 F2700 E-5
;LAYER_COUNT:56
;LAYER:0
M107
;MESH:LEDAcidv3.stl
G0 F3000 X116.503 Y85.002 Z0.2
;TYPE:WALL-INNER
G1 F2700 E0
G1 F1200 X116.503 Y78.997 E0.29959
G1 X113.998 Y78.997 E0.42457
G1 X113.998 Y85.002 E0.72416
G1 X116.503 Y85.002 E0.84913
G0 F3000 X116.103 Y84.602
G1 F1200 X116.103 Y79.397 E1.10881
G1 X114.398 Y79.397 E1.19387
G1 X114.398 Y84.602 E1.45355
G1 X116.103 Y84.602 E1.53861
G0 F3000 X115.703 Y84.202
;TYPE:WALL-OUTER
G1 F1200 X115.703 Y79.797 E1.75838
G1 X114.798 Y79.797 E1.80353
G1 X114.798 Y84.202 E2.0233
G1 X115.703 Y84.202 E2.06845
G1 F2700 E-2.93155
G0 F3000 X116.003 Y84.202
G0 X114.553 Y85.192
G0 X114.554 Y86.063
G0 X114.981 Y86.177
G0 X115.336 Y86.401
G0 X115.605 Y86.7
G0 X115.793 Y87.109
G0 X115.844 Y87.529
G0 X115.774 Y87.946
G0 X115.621 Y88.254
G0 X114.553 Y89.51
;TYPE:WALL-INNER
G1 F2700 E2.06845
G1 F1200 X115.135 Y89.373 E2.09828
G1 X115.644 Y89.083 E2.1275
G1 X116.051 Y88.652 E2.15708
G1 X116.314 Y88.122 E2.1866
G1 X116.411 Y87.542 E2.21594
G1 X116.338 Y86.954 E2.2455
G1 X116.079 Y86.388 E2.27655
G1 X115.701 Y85.967 E2.30478
G1 X115.209 Y85.658 E2.33376
G1 X114.638 Y85.503 E2.36328
G1 X114.047 Y85.518 E2.39278
G1 X113.488 Y85.707 E2.42222
G1 X113.006 Y86.047 E2.45164
G1 X112.644 Y86.516 E2.4812
G1 X112.438 Y87.064 E2.51041
G1 X112.39 Y87.653 E2.53989
G1 X112.517 Y88.197 E2.56776
G1 X112.664 Y88.505 E2.58479
G1 X112.957 Y88.903 E2.60944
G1 X113.444 Y89.274 E2.63999
G1 X113.971 Y89.462 E2.6679
G1 X114.553 Y89.51 E2.69704
G0 F3000 X114.523 Y89.106
G1 F1200 X114.987 Y88.997 E2.72082
G1 X115.394 Y88.765 E2.74419
G1 X115.719 Y88.421 E2.7678
G1 X115.929 Y87.997 E2.79141
G1 X116.007 Y87.533 E2.81488
G1 X115.949 Y87.064 E2.83846
G1 X115.741 Y86.61 E2.86337
G1 X115.441 Y86.276 E2.88577
G1 X115.047 Y86.028 E2.909
G1 X114.59 Y85.904 E2.93262
G1 X114.118 Y85.916 E2.95618
G1 X113.671 Y86.067 E2.97971
G1 X113.286 Y86.339 E3.00323
G1 X112.997 Y86.713 E3.02681
G1 X112.832 Y87.152 E3.05021
G1 X112.794 Y87.623 E3.07379
G1 X112.897 Y88.064 E3.09638
G1 X113.009 Y88.299 E3.10937
G1 X113.245 Y88.62 E3.12924
G1 X113.637 Y88.918 E3.15381
G1 X114.056 Y89.068 E3.17601
G1 X114.523 Y89.106 E3.19939
G0 F3000 X114.493 Y88.702
;TYPE:WALL-OUTER
G1 F1200 X114.839 Y88.621 E3.21712
G1 X115.144 Y88.447 E3.23464
G1 X115.387 Y88.19 E3.25228
G1 X115.544 Y87.872 E3.26998
G1 X115.603 Y87.524 E3.28759
G1 X115.56 Y87.174 E3.30518
G1 X115.403 Y86.832 E3.32395
G1 X115.181 Y86.585 E3.34052
G1 X114.884 Y86.398 E3.35803
G1 X114.542 Y86.305 E3.37571
G1 X114.189 Y86.314 E3.39333
G1 X113.854 Y86.427 E3.41097
G1 X113.566 Y86.631 E3.42858
G1 X113.35 Y86.91 E3.44618
G1 X113.226 Y87.24 E3.46377
G1 X113.198 Y87.593 E3.48143
G1 X113.277 Y87.931 E3.49875
G1 X113.354 Y88.093 E3.5077
G1 X113.533 Y88.336 E3.52276
G1 X113.83 Y88.562 E3.54138
G1 X114.141 Y88.674 E3.55787
G1 X114.493 Y88.702 E3.57548
G0 F3000 X114.526 Y89.14
G1 F2700 E-1.42452
G0 F3000 X114.993 Y89.601
G0 X115.931 Y90.569
G0 X116.503 Y96.003
;TYPE:WALL-INNER
G1 F2700 E3.57548
G1 F1200 X116.503 Y89.997 E3.87513
G1 X113.998 Y89.997 E4.0001
G1 X113.998 Y96.003 E4.29974
G1 X116.503 Y96.003 E4.42472
G0 F3000 X116.103 Y95.603
G1 F1200 X116.103 Y90.397 E4.68444
G1 X114.398 Y90.397 E4.76951
G1 X114.398 Y95.603 E5.02924
G1 X116.103 Y95.603 E5.1143
G0 F3000 X115.703 Y95.203
;TYPE:WALL-OUTER
G1 F1200 X115.703 Y90.797 E5.33411
G1 X114.798 Y90.797 E5.37927
G1 X114.798 Y95.203 E5.59908
G1 X115.703 Y95.203 E5.64423
G1 F2700 E0.64423
G0 F3000 X116.003 Y95.203
G0 X116.699 Y96.199
G0 X117 Y98.5
;TYPE:WALL-INNER
G1 F2700 E5.64423
G1 F1200 X107.5 Y98.5 E6.11819
G1 X107.5 Y89.234 E6.58047
G1 X107.589 Y89.193 E6.58536
G1 X108.031 Y88.806 E6.61467
G1 X108.31 Y88.358 E6.641
G1 X108.342 Y88.308 E6.64396
G1 X108.497 Y87.738 E6.67343
G1 X108.482 Y87.147 E6.70293
G1 X108.293 Y86.588 E6.73237
G1 X107.953 Y86.106 E6.76179
G1 X107.5 Y85.756 E6.79035
G1 X107.5 Y76.5 E7.25214
G1 X117 Y76.5 E7.72609
G1 X117 Y98.5 E8.82368
G0 F3000 X117.4 Y98.9
G1 F1200 X107.1 Y98.9 E9.33755
G1 X107.1 Y88.978 E9.83256
G1 X107.369 Y88.854 E9.84734
G1 X107.723 Y88.544 E9.87081
G1 X107.972 Y88.146 E9.89423
G1 X108.096 Y87.69 E9.91781
G1 X108.084 Y87.218 E9.94137
G1 X107.933 Y86.771 E9.96491
G1 X107.661 Y86.386 E9.98842
G1 X107.287 Y86.097 E10.012
G1 X107.1 Y86.026 E10.02198
G1 X107.1 Y76.1 E10.51719
G1 X117.4 Y76.1 E11.03106
G1 X117.4 Y98.9 E12.16856
G1 F2700 E7.16856
G0 F3000 X128.03 Y99.03
G0 X128.3 Y99.3
;TYPE:WALL-OUTER
G1 F2700 E12.16856
G1 F1200 X106.7 Y99.3 E13.24619
G1 X106.7 Y88.675 E13.77627
G1 X106.849 Y88.653 E13.78378
G1 X107.149 Y88.515 E13.80026
G1 X107.415 Y88.282 E13.8179
G1 X107.602 Y87.984 E13.83545
G1 X107.695 Y87.642 E13.85314
G1 X107.686 Y87.289 E13.87075
G1 X107.573 Y86.954 E13.88839
G1 X107.369 Y86.666 E13.906
G1 X107.09 Y86.45 E13.9236
G1 X106.764 Y86.327 E13.94099
G1 X106.7 Y86.319 E13.9442
G1 X106.7 Y75.7 E14.47399
G1 X128.3 Y75.7 E15.55162
G1 X128.3 Y76.3 E15.58155
G1 X117.8 Y76.3 E16.1054
G1 X117.8 Y98.7 E17.22294
G1 X128.3 Y98.7 E17.74678
G1 X128.3 Y99.3 E17.77672
G0 F3000 X128.03 Y99.03
G0 X117.572 Y98.928
G0 X116.89 Y98.11
G0 X116.61 Y98.11
;TYPE:SKIN
G1 F1200 X107.89 Y98.11 E18.21176
G1 X107.89 Y89.448 E18.64391
G1 X108.331 Y89.061 E18.67318
G1 X108.703 Y88.466 E18.70819
G1 X108.889 Y87.785 E18.74341
G1 X108.87 Y87.078 E18.7787
G1 X108.644 Y86.409 E18.81393
G1 X108.238 Y85.833 E18.84908
G1 X107.89 Y85.565 E18.871
G1 X107.89 Y76.89 E19.30379
G1 X116.61 Y76.89 E19.73884
G1 X116.61 Y78.607 E19.8245
G1 X113.608 Y78.607 E19.97427
G1 X113.608 Y85.255 E20.30594
G1 X113.309 Y85.356 E20.32168
G1 X112.733 Y85.762 E20.35684
G1 X112.299 Y86.325 E20.39231
G1 X112.054 Y86.978 E20.4271
G1 X111.996 Y87.682 E20.46234
G1 X112.147 Y88.327 E20.49539
G1 X112.328 Y88.706 E20.51635
G1 X112.676 Y89.18 E20.54569
G1 X113.256 Y89.621 E20.58204
G1 X113.608 Y89.746 E20.60067
G1 X113.608 Y96.393 E20.93229
G1 X116.61 Y96.393 E21.08206
G1 X116.61 Y98.11 E21.16772
G0 F3000 X116.89 Y98.11
G0 X116.89 Y89.607
G0 X116.61 Y89.607
G1 F1200 X115.512 Y89.607 E21.2225
G1 X115.888 Y89.393 E21.24409
G1 X116.375 Y88.878 E21.27945
G1 X116.61 Y88.403 E21.30589
G1 X116.61 Y89.607 E21.36596
G1 F2700 E16.36596
G0 F3000 X116.89 Y89.607
G0 X116.79 Y86.726
G0 X116.52 Y86.849
G0 X116.61 Y86.611
G1 F2700 E21.36596
G1 F1200 X116.409 Y86.172 E21.39004
G1 X115.955 Y85.666 E21.42396
G1 X115.518 Y85.392 E21.44969
G1 X116.61 Y85.392 E21.50417
G1 X116.61 Y86.611 E21.56499
G1 F2700 E16.56499
G0 F3000 X116.355 Y86.726
G0 X115.826 Y85.82
G0 X116.79 Y85.82
G0 X116.89 Y77.417
G0 X116.449 Y77.417
G1 F2700 E21.56499
G1 F1200 X116.082 Y77.049 E21.59092
G0 F3000 X115.516 Y77.049
G1 F1200 X116.449 Y77.983 E21.65678
G0 F3000 X116.347 Y78.446
G1 F1200 X114.95 Y77.049 E21.75535
G0 F3000 X114.385 Y77.049
G1 F1200 X115.781 Y78.446 E21.85388
G0 F3000 X115.215 Y78.446
G1 F1200 X113.819 Y77.049 E21.95241
G0 F3000 X113.253 Y77.049
G1 F1200 X114.65 Y78.446 E22.05098
G0 F3000 X114.084 Y78.446
G1 F1200 X112.688 Y77.049 E22.14951
G0 F3000 X112.122 Y77.049
G1 F1200 X113.518 Y78.446 E22.24804
G0 F3000 X113.447 Y78.94
G1 F1200 X111.556 Y77.049 E22.38146
G0 F3000 X110.991 Y77.049
G1 F1200 X113.447 Y79.506 E22.55478
G0 F3000 X113.447 Y80.072
G1 F1200 X110.425 Y77.049 E22.76803
G0 F3000 X109.859 Y77.049
G1 F1200 X113.447 Y80.637 E23.02118
G0 F3000 X113.447 Y81.203
G1 F1200 X109.293 Y77.049 E23.31427
G0 F3000 X108.728 Y77.049
G1 F1200 X113.447 Y81.769 E23.64726
G0 F3000 X113.447 Y82.334
G1 F1200 X108.162 Y77.049 E24.02014
G0 F3000 X108.049 Y77.502
G1 F1200 X113.447 Y82.9 E24.401
G0 F3000 X113.447 Y83.466
G1 F1200 X108.049 Y78.068 E24.78186
G0 F3000 X108.049 Y78.633
G1 F1200 X113.447 Y84.031 E25.16272
G0 F3000 X113.447 Y84.597
G1 F1200 X108.049 Y79.199 E25.54357
G0 F3000 X108.049 Y79.765
G1 F1200 X113.43 Y85.146 E25.92323
G0 F3000 X113.055 Y85.337
G1 F1200 X108.049 Y80.33 E26.27647
G0 F3000 X108.049 Y80.896
G1 F1200 X112.724 Y85.571 E26.60632
G0 F3000 X112.451 Y85.864
G1 F1200 X108.049 Y81.462 E26.9169
G0 F3000 X108.049 Y82.027
G1 F1200 X112.205 Y86.183 E27.21013
G0 F3000 X112.032 Y86.576
G1 F1200 X108.049 Y82.593 E27.49115
G0 F3000 X108.049 Y83.159
G1 F1200 X111.891 Y87.001 E27.76222
G0 F3000 X111.848 Y87.523
G1 F1200 X108.049 Y83.724 E28.03026
G0 F3000 X108.049 Y84.29
G1 F1200 X111.949 Y88.19 E28.30543
G1 F2700 E23.30543
G0 F3000 X112.38 Y88.092
G0 X113.93 Y89.65
G0 X113.888 Y90.254
G0 X113.447 Y90.254
G1 F2700 E28.30543
G1 F1200 X108.049 Y84.856 E28.68629
G0 F3000 X108.049 Y85.422
G1 F1200 X108.333 Y85.706 E28.70633
G0 F3000 X108.362 Y85.735
G1 F1200 X113.447 Y90.82 E29.0651
G0 F3000 X113.447 Y91.385
G1 F1200 X108.984 Y86.922 E29.37999
G0 F3000 X109.041 Y87.545
G1 F1200 X113.447 Y91.951 E29.69086
G0 F3000 X113.447 Y92.517
G1 F1200 X108.98 Y88.05 E30.00603
G0 F3000 X108.859 Y88.494
G1 F1200 X113.447 Y93.082 E30.32974
G0 F3000 X113.447 Y93.648
G1 F1200 X108.649 Y88.85 E30.66826
G0 F3000 X108.425 Y89.192
G1 F1200 X113.447 Y94.214 E31.02259
G0 F3000 X113.447 Y94.779
G1 F1200 X108.123 Y89.456 E31.39819
G0 F3000 X108.048 Y89.946
G1 F1200 X113.447 Y95.345 E31.77912
G0 F3000 X113.447 Y95.911
G1 F1200 X108.048 Y90.512 E32.16005
G0 F3000 X108.048 Y91.078
G1 F1200 X113.447 Y96.476 E32.54094
G0 F3000 X113.523 Y96.553
G1 F1200 X114.92 Y97.949 E32.63947
G0 F3000 X115.486 Y97.949
G1 F1200 X114.089 Y96.553 E32.738
G0 F3000 X114.655 Y96.553
G1 F1200 X116.051 Y97.949 E32.8365
G0 F3000 X116.449 Y97.781
G1 F1200 X115.22 Y96.553 E32.92318
G0 F3000 X115.786 Y96.553
G1 F1200 X116.449 Y97.215 E32.96992
G0 F3000 X116.449 Y96.65
G1 F1200 X116.352 Y96.553 E32.97676
G1 F2700 E27.97676
G0 F3000 X116.352 Y96.113
G0 X114.354 Y96.193
G0 X114.354 Y98.29
G0 X114.354 Y97.949
G1 F2700 E32.97676
G1 F1200 X108.048 Y91.643 E33.42168
G0 F3000 X108.048 Y92.209
G1 F1200 X113.789 Y97.949 E33.82671
G0 F3000 X113.223 Y97.949
G1 F1200 X108.048 Y92.775 E34.1918
G0 F3000 X108.048 Y93.34
G1 F1200 X112.657 Y97.949 E34.51699
G0 F3000 X112.091 Y97.949
G1 F1200 X108.048 Y93.906 E34.80224
G0 F3000 X108.048 Y94.472
G1 F1200 X111.526 Y97.949 E35.0476
G0 F3000 X110.96 Y97.949
G1 F1200 X108.048 Y95.037 E35.25306
G0 F3000 X108.048 Y95.603
G1 F1200 X110.394 Y97.949 E35.41858
G0 F3000 X109.829 Y97.949
G1 F1200 X108.048 Y96.169 E35.5442
G0 F3000 X108.048 Y96.735
G1 F1200 X109.263 Y97.949 E35.62989
G0 F3000 X108.697 Y97.949
G1 F1200 X108.048 Y97.3 E35.67568
G0 F3000 X108.048 Y97.866
G1 F1200 X108.132 Y97.949 E35.68157
G0 F3000 X108.132 Y98.39
G0 X116.818 Y98.318
G0 X116.89 Y89.296
G0 X116.449 Y89.296
G1 F1200 X116.32 Y89.167 E35.69068
G1 F2700 E30.69068
G0 F3000 X116.002 Y88.865
G0 X116.241 Y86.282
G0 X116.79 Y86.282
G0 X116.89 Y85.902
G0 X116.449 Y85.902
G1 F2700 E35.69068
G1 F1200 X116.121 Y85.574 E35.71382
G0 F3000 X116.662 Y84.983
;TYPE:SKIN
G1 F1200 X116.839 Y85.161 E35.72008
G0 F3000 X116.839 Y84.878
G1 F1200 X116.662 Y84.7 E35.72634
G0 F3000 X116.839 Y84.595
G1 F1200 X116.662 Y84.417 E35.7326
G0 F3000 X116.839 Y84.312
G1 F1200 X116.662 Y84.135 E35.73885
G0 F3000 X116.839 Y84.029
G1 F1200 X116.662 Y83.852 E35.74509
G0 F3000 X116.839 Y83.746
G1 F1200 X116.662 Y83.569 E35.75134
G0 F3000 X116.839 Y83.464
G1 F1200 X116.662 Y83.286 E35.7576
G0 F3000 X116.839 Y83.181
G1 F1200 X116.662 Y83.003 E35.76386
G0 F3000 X116.839 Y82.898
G1 F1200 X116.662 Y82.72 E35.77012
G0 F3000 X116.839 Y82.615
G1 F1200 X116.662 Y82.438 E35.77637
G0 F3000 X116.839 Y82.332
G1 F1200 X116.662 Y82.155 E35.78261
G0 F3000 X116.839 Y82.049
G1 F1200 X116.662 Y81.872 E35.78885
G0 F3000 X116.839 Y81.766
G1 F1200 X116.662 Y81.589 E35.7951
G0 F3000 X116.839 Y81.484
G1 F1200 X116.662 Y81.306 E35.80136
G0 F3000 X116.839 Y81.201
G1 F1200 X116.662 Y81.023 E35.80762
G0 F3000 X116.839 Y80.918
G1 F1200 X116.662 Y80.74 E35.81388
G0 F3000 X116.839 Y80.635
G1 F1200 X116.662 Y80.458 E35.82013
G0 F3000 X116.839 Y80.352
G1 F1200 X116.662 Y80.175 E35.82637
G0 F3000 X116.839 Y80.069
G1 F1200 X116.662 Y79.892 E35.83262
G0 F3000 X116.839 Y79.787
G1 F1200 X116.662 Y79.609 E35.83888
G0 F3000 X116.839 Y79.504
G1 F1200 X116.662 Y79.326 E35.84514
G0 F3000 X116.839 Y79.221
G1 F1200 X116.662 Y79.043 E35.8514
G0 F3000 X116.839 Y78.938
G1 F1200 X116.683 Y78.782 E35.8569
G0 F3000 X116.683 Y78.887
G0 X115.931 Y84.43
G0 X115.143 Y85.112
G0 X115.143 Y85.162
G1 F1200 X115.344 Y85.363 E35.864
G0 F3000 X115.183 Y85.484
G1 F1200 X114.861 Y85.162 E35.87536
G0 F3000 X114.794 Y85.378
G1 F1200 X114.578 Y85.162 E35.88298
G0 F3000 X114.478 Y85.345
G1 F1200 X114.295 Y85.162 E35.88943
G0 F3000 X114.203 Y85.353
G1 F1200 X114.012 Y85.162 E35.89617
G0 F3000 X113.949 Y85.382
G1 F1200 X113.782 Y85.215 E35.90206
G1 F2700 E30.90206
G0 F3000 X113.888 Y85.142
G0 X116.414 Y85.192
G0 X115.826 Y85.82
G0 X116.414 Y86.854
G0 X116.511 Y86.812
G1 F2700 E35.90206
G1 F1200 X116.839 Y87.141 E35.91365
G0 F3000 X116.839 Y87.423
G1 F1200 X116.516 Y87.1 E35.92504
G0 F3000 X116.556 Y87.423
G1 F1200 X116.839 Y87.706 E35.93503
G0 F3000 X116.839 Y87.989
G1 F1200 X116.546 Y87.696 E35.94536
G0 F3000 X116.505 Y87.938
G1 F1200 X116.839 Y88.272 E35.95715
G0 F3000 X116.89 Y88.272
G0 X116.89 Y86.858
G0 X116.839 Y86.858
G1 F1200 X116.742 Y86.761 E35.96057
G1 F2700 E30.96057
G0 F3000 X116.89 Y86.761
G0 X116.79 Y89.887
G0 X116.662 Y89.791
G1 F2700 E35.96057
G1 F1200 X116.838 Y89.968 E35.96679
G0 F3000 X116.662 Y90.074
G1 F1200 X116.838 Y90.251 E35.97302
G0 F3000 X116.662 Y90.357
G1 F1200 X116.838 Y90.534 E35.97925
G0 F3000 X116.662 Y90.64
G1 F1200 X116.838 Y90.817 E35.98547
G0 F3000 X116.662 Y90.923
G1 F1200 X116.838 Y91.1 E35.9917
G0 F3000 X116.662 Y91.206
G1 F1200 X116.838 Y91.382 E35.99791
G0 F3000 X116.662 Y91.489
G1 F1200 X116.838 Y91.665 E36.00412
G0 F3000 X116.662 Y91.771
G1 F1200 X116.838 Y91.948 E36.01035
G0 F3000 X116.662 Y92.054
G1 F1200 X116.838 Y92.231 E36.01657
G0 F3000 X116.662 Y92.337
G1 F1200 X116.838 Y92.514 E36.0228
G0 F3000 X116.662 Y92.62
G1 F1200 X116.838 Y92.797 E36.02902
G0 F3000 X116.662 Y92.903
G1 F1200 X116.838 Y93.08 E36.03525
G0 F3000 X116.662 Y93.186
G1 F1200 X116.838 Y93.362 E36.04146
G0 F3000 X116.662 Y93.468
G1 F1200 X116.838 Y93.645 E36.04769
G0 F3000 X116.662 Y93.751
G1 F1200 X116.838 Y93.928 E36.05391
G0 F3000 X116.662 Y94.034
G1 F1200 X116.838 Y94.211 E36.06014
G0 F3000 X116.662 Y94.317
G1 F1200 X116.838 Y94.494 E36.06637
G0 F3000 X116.662 Y94.6
G1 F1200 X116.838 Y94.777 E36.07259
G0 F3000 X116.662 Y94.883
G1 F1200 X116.838 Y95.059 E36.0788
G0 F3000 X116.662 Y95.165
G1 F1200 X116.838 Y95.342 E36.08503
G0 F3000 X116.662 Y95.448
G1 F1200 X116.838 Y95.625 E36.09126
G0 F3000 X116.662 Y95.731
G1 F1200 X116.838 Y95.908 E36.09748
G0 F3000 X116.662 Y96.014
G1 F1200 X116.838 Y96.191 E36.10371
G1 F2700 E31.10371
G0 F3000 X116.89 Y96.191
G0 X116.79 Y89.887
G0 X115.293 Y89.887
G0 X115.293 Y89.837
G1 F2700 E36.10371
G1 F1200 X115.02 Y89.564 E36.11334
G0 F3000 X115.237 Y89.498
G1 F1200 X115.325 Y89.586 E36.11644
G0 F3000 X115.01 Y89.837
G1 F1200 X114.791 Y89.618 E36.12417
G0 F3000 X114.727 Y89.837
G1 F1200 X114.561 Y89.671 E36.13003
G0 F3000 X114.444 Y89.837
G1 F1200 X114.252 Y89.645 E36.1368
G0 F3000 X114.161 Y89.837
G1 F1200 X113.943 Y89.619 E36.14449
G0 F3000 X113.781 Y89.74
G1 F1200 X113.878 Y89.837 E36.14791
G1 F2700 E31.14791
G0 F3000 X113.888 Y89.887
G0 X116.685 Y89.815
G0 X118.665 Y89.787
G0 X129.153 Y97.847
G0 X129.153 Y100.153
G0 X105.847 Y100.153
G0 X105.845 Y87.937
G0 X106.828 Y87.54
G0 X108.708 Y87.763
G0 X107.39 Y85.894
G1 F2700 E36.14791
