;FLAVOR:Marlin
;TIME:572
;Filament used: 0.214899m
;Layer height: 0.16
;MINX:95.75
;MINY:95.5
;MINZ:0.2
;MAXX:139.244
;MAXY:139.5
;MAXZ:10.96
;Generated with Cura_SteamEngine 4.8.0
M140 S70
M105
M190 S70
M104 S210
M105
M109 S210
M82 ;absolute extrusion mode
; Ender 3 Custom Start G-code
G92 E0 ; Reset Extruder
G28 ; Home all axes
G1 Z2.0 F3000 ; Move Z Axis up little to prevent scratching of Heat Bed
G1 X0.1 Y20 Z0.3 F5000.0 ; Move to start position
G1 X0.1 Y200.0 Z0.3 F1500.0 E15 ; Draw the first line
G1 X0.4 Y200.0 Z0.3 F5000.0 ; Move to side a little
G1 X0.4 Y20 Z0.3 F1500.0 E30 ; Draw the second line
G92 E0 ; Reset Extruder
G1 Z2.0 F3000 ; Move Z Axis up little to prevent scratching of Heat Bed
G1 X5 Y20 Z0.3 F5000.0 ; Move over to prevent blob squish
G92 E0
G92 E0
G1 F2700 E-5
;LAYER_COUNT:56
;LAYER:0
M107
G0 F3000 X98.948 Y98.764 Z0.2
;TYPE:SKIRT
G1 F2700 E0
G1 F1200 X99.636 Y98.127 E0.03742
G1 X100.376 Y97.551 E0.07485
G1 X101.162 Y97.039 E0.11229
G1 X101.989 Y96.597 E0.14972
G1 X102.851 Y96.227 E0.18715
G1 X103.741 Y95.931 E0.22459
G1 X104.653 Y95.713 E0.26202
G1 X105.58 Y95.572 E0.29944
G1 X106.451 Y95.513 E0.33428
G1 X106.772 Y95.504 E0.3471
G1 X107.08 Y95.5 E0.35939
G1 X127.543 Y95.5 E1.17612
G1 X128.399 Y95.511 E1.21028
G1 X129.335 Y95.565 E1.2477
G1 X130.263 Y95.697 E1.28511
G1 X131.177 Y95.909 E1.32256
G1 X132.069 Y96.198 E1.35999
G1 X132.934 Y96.561 E1.39743
G1 X133.764 Y96.997 E1.43485
G1 X134.555 Y97.502 E1.4723
G1 X135.299 Y98.073 E1.50973
G1 X135.992 Y98.705 E1.54717
G1 X136.629 Y99.393 E1.58459
G1 X137.204 Y100.134 E1.62203
G1 X137.715 Y100.92 E1.65944
G1 X138.157 Y101.748 E1.6969
G1 X138.526 Y102.61 E1.73433
G1 X138.821 Y103.5 E1.77175
G1 X139.039 Y104.412 E1.80918
G1 X139.179 Y105.34 E1.84663
G1 X139.237 Y106.198 E1.88096
G1 X139.241 Y106.339 E1.88659
G1 X139.243 Y106.835 E1.90638
G1 X139.237 Y107.194 E1.92071
G1 X139.186 Y108.087 E1.95641
G1 X139.13 Y108.651 E1.97903
G1 X138.914 Y111.199 E2.0811
G1 X138.771 Y113.739 E2.18263
G1 X138.7 Y116.264 E2.28345
G1 X138.7 Y118.787 E2.38415
G1 X138.771 Y121.283 E2.48381
G1 X138.913 Y123.785 E2.58383
G1 X139.13 Y126.316 E2.68522
G1 X139.17 Y126.716 E2.70126
G1 X139.198 Y127.036 E2.71408
G1 X139.235 Y127.651 E2.73867
G1 X139.24 Y127.811 E2.74506
G1 X139.244 Y128.286 E2.76402
G1 X139.24 Y128.622 E2.77743
G1 X139.189 Y129.558 E2.81485
G1 X139.058 Y130.487 E2.85229
G1 X138.849 Y131.401 E2.88971
G1 X138.563 Y132.294 E2.92714
G1 X138.201 Y133.16 E2.9646
G1 X137.767 Y133.991 E3.00202
G1 X137.264 Y134.783 E3.03947
G1 X136.695 Y135.528 E3.07688
G1 X136.065 Y136.223 E3.11432
G1 X135.378 Y136.861 E3.15174
G1 X134.639 Y137.439 E3.18919
G1 X133.854 Y137.951 E3.22659
G1 X133.027 Y138.395 E3.26406
G1 X132.166 Y138.767 E3.30149
G1 X131.277 Y139.064 E3.3389
G1 X130.365 Y139.284 E3.37634
G1 X129.438 Y139.426 E3.41377
G1 X128.549 Y139.487 E3.44934
G1 X128.228 Y139.496 E3.46216
G1 X127.92 Y139.5 E3.47445
G1 X107.315 Y139.499 E4.29684
G1 X106.617 Y139.49 E4.3247
G1 X105.681 Y139.438 E4.36212
G1 X104.752 Y139.306 E4.39957
G1 X103.838 Y139.096 E4.437
G1 X102.945 Y138.809 E4.47443
G1 X102.08 Y138.446 E4.51187
G1 X101.249 Y138.012 E4.54929
G1 X100.458 Y137.508 E4.58673
G1 X99.713 Y136.938 E4.62417
G1 X99.019 Y136.307 E4.6616
G1 X98.382 Y135.62 E4.699
G1 X97.805 Y134.88 E4.73645
G1 X97.293 Y134.094 E4.77389
G1 X96.85 Y133.267 E4.81133
G1 X96.479 Y132.406 E4.84875
G1 X96.183 Y131.516 E4.88619
G1 X95.964 Y130.604 E4.92362
G1 X95.823 Y129.677 E4.96105
G1 X95.763 Y128.788 E4.99661
G1 X95.754 Y128.455 E5.0099
G1 X95.75 Y128.158 E5.02176
G1 X95.751 Y119.072 E5.3844
G1 X95.756 Y118.717 E5.39857
G1 X95.751 Y115.829 E5.51384
G1 X95.75 Y107.174 E5.85928
G1 X95.76 Y106.36 E5.89177
G1 X95.813 Y105.424 E5.92919
G1 X95.945 Y104.495 E5.96664
G1 X96.156 Y103.581 E6.00408
G1 X96.444 Y102.689 E6.04149
G1 X96.807 Y101.824 E6.07893
G1 X97.242 Y100.993 E6.11636
G1 X97.746 Y100.203 E6.15376
G1 X98.316 Y99.458 E6.1912
G1 X98.948 Y98.764 E6.22867
G0 F3000 X99.339 Y98.939
G1 F1200 X100.024 Y98.323 E6.26544
G1 X100.76 Y97.77 E6.30218
G1 X101.541 Y97.282 E6.33894
G1 X102.361 Y96.864 E6.37567
G1 X103.215 Y96.519 E6.41243
G1 X104.095 Y96.249 E6.44917
G1 X104.995 Y96.057 E6.4859
G1 X105.909 Y95.943 E6.52266
G1 X106.462 Y95.913 E6.54477
G1 X106.783 Y95.904 E6.55758
G1 X107.08 Y95.9 E6.56944
G1 X127.543 Y95.9 E7.38616
G1 X128.393 Y95.911 E7.42009
G1 X129.312 Y95.964 E7.45683
G1 X130.223 Y96.097 E7.49357
G1 X131.119 Y96.308 E7.53031
G1 X131.993 Y96.596 E7.56704
G1 X132.84 Y96.959 E7.60382
G1 X133.651 Y97.394 E7.64055
G1 X134.421 Y97.898 E7.67728
G1 X135.145 Y98.467 E7.71404
G1 X135.817 Y99.097 E7.7508
G1 X136.432 Y99.782 E7.78754
G1 X136.985 Y100.518 E7.82428
G1 X137.472 Y101.299 E7.86102
G1 X137.889 Y102.12 E7.89777
G1 X138.234 Y102.974 E7.93453
G1 X138.503 Y103.854 E7.97126
G1 X138.695 Y104.755 E8.00803
G1 X138.808 Y105.668 E8.04475
G1 X138.837 Y106.209 E8.06637
G1 X138.841 Y106.35 E8.072
G1 X138.844 Y106.828 E8.09108
G1 X138.838 Y107.187 E8.10541
G1 X138.788 Y108.048 E8.13983
G1 X138.736 Y108.574 E8.16093
G1 X138.511 Y111.213 E8.26664
G1 X138.371 Y113.706 E8.3663
G1 X138.3 Y116.253 E8.46799
G1 X138.3 Y118.765 E8.56825
G1 X138.373 Y121.316 E8.67011
G1 X138.516 Y123.843 E8.77113
G1 X138.731 Y126.349 E8.87151
G1 X138.772 Y126.751 E8.88764
G1 X138.8 Y127.071 E8.90046
G1 X138.835 Y127.664 E8.92417
G1 X138.84 Y127.824 E8.93056
G1 X138.844 Y128.281 E8.9488
G1 X138.84 Y128.617 E8.96221
G1 X138.789 Y129.536 E8.99895
G1 X138.659 Y130.448 E9.03572
G1 X138.45 Y131.344 E9.07244
G1 X138.164 Y132.219 E9.10918
G1 X137.803 Y133.066 E9.14593
G1 X137.37 Y133.879 E9.18269
G1 X136.868 Y134.651 E9.21944
G1 X136.301 Y135.376 E9.25618
G1 X135.673 Y136.049 E9.29292
G1 X134.989 Y136.666 E9.32968
G1 X134.254 Y137.22 E9.36642
G1 X133.474 Y137.709 E9.40316
G1 X132.654 Y138.129 E9.43993
G1 X131.801 Y138.475 E9.47667
G1 X130.922 Y138.746 E9.51339
G1 X130.022 Y138.94 E9.55013
G1 X129.108 Y139.055 E9.5869
G1 X128.538 Y139.087 E9.60968
G1 X128.217 Y139.096 E9.6225
G1 X127.92 Y139.1 E9.63436
G1 X107.32 Y139.099 E10.45655
G1 X106.622 Y139.09 E10.48441
G1 X105.703 Y139.038 E10.52115
G1 X104.792 Y138.907 E10.55788
G1 X103.896 Y138.697 E10.59461
G1 X103.021 Y138.41 E10.63136
G1 X102.174 Y138.048 E10.66813
G1 X101.362 Y137.614 E10.70488
G1 X100.591 Y137.112 E10.7416
G1 X99.866 Y136.544 E10.77835
G1 X99.193 Y135.915 E10.81512
G1 X98.578 Y135.231 E10.85183
G1 X98.024 Y134.496 E10.88857
G1 X97.536 Y133.715 E10.92532
G1 X97.117 Y132.895 E10.96208
G1 X96.771 Y132.042 E10.99882
G1 X96.501 Y131.162 E11.03556
G1 X96.308 Y130.261 E11.07233
G1 X96.194 Y129.348 E11.10905
G1 X96.163 Y128.777 E11.13188
G1 X96.154 Y128.444 E11.14517
G1 X96.15 Y128.158 E11.15659
G1 X96.151 Y119.077 E11.51903
G1 X96.156 Y118.721 E11.53324
G1 X96.151 Y115.823 E11.64891
G1 X96.15 Y107.174 E11.99411
G1 X96.16 Y106.366 E12.02636
G1 X96.212 Y105.446 E12.06314
G1 X96.344 Y104.535 E12.09988
G1 X96.555 Y103.639 E12.13662
G1 X96.842 Y102.764 E12.17337
G1 X97.205 Y101.918 E12.21011
G1 X97.639 Y101.106 E12.24686
G1 X98.142 Y100.335 E12.2836
G1 X98.711 Y99.611 E12.32036
G1 X99.339 Y98.939 E12.35706
G0 F3000 X99.731 Y99.117
G1 F1200 X100.412 Y98.524 E12.39311
G1 X101.144 Y97.994 E12.42918
G1 X101.919 Y97.531 E12.46521
G1 X102.732 Y97.138 E12.50125
G1 X103.577 Y96.818 E12.53731
G1 X104.446 Y96.575 E12.57333
G1 X105.334 Y96.409 E12.60938
G1 X106.473 Y96.313 E12.655
G1 X106.794 Y96.304 E12.66782
G1 X107.08 Y96.3 E12.67924
G1 X127.543 Y96.3 E13.49596
G1 X128.387 Y96.311 E13.52965
G1 X129.289 Y96.364 E13.56571
G1 X130.182 Y96.496 E13.60174
G1 X131.06 Y96.707 E13.63778
G1 X131.916 Y96.995 E13.67383
G1 X132.743 Y97.357 E13.70986
G1 X133.535 Y97.792 E13.74592
G1 X134.286 Y98.294 E13.78197
G1 X134.989 Y98.861 E13.81802
G1 X135.639 Y99.488 E13.85407
G1 X136.231 Y100.17 E13.89011
G1 X136.761 Y100.901 E13.92615
G1 X137.223 Y101.677 E13.96219
G1 X137.616 Y102.49 E13.99824
G1 X137.934 Y103.335 E14.03427
G1 X138.177 Y104.205 E14.07032
G1 X138.342 Y105.093 E14.10637
G1 X138.437 Y106.221 E14.15155
G1 X138.441 Y106.362 E14.15718
G1 X138.444 Y106.821 E14.1755
G1 X138.438 Y107.18 E14.18983
G1 X138.39 Y108.009 E14.22298
G1 X138.334 Y108.578 E14.24579
G1 X138.114 Y111.158 E14.34914
G1 X137.971 Y113.707 E14.45104
G1 X137.9 Y116.242 E14.55226
G1 X137.9 Y118.777 E14.65343
G1 X137.973 Y121.315 E14.75477
G1 X138.117 Y123.863 E14.85663
G1 X138.336 Y126.426 E14.9593
G1 X138.373 Y126.786 E14.97374
G1 X138.401 Y127.106 E14.98656
G1 X138.435 Y127.676 E15.00935
G1 X138.44 Y127.836 E15.01574
G1 X138.444 Y128.276 E15.0333
G1 X138.44 Y128.612 E15.04672
G1 X138.39 Y129.514 E15.08277
G1 X138.259 Y130.408 E15.11883
G1 X138.05 Y131.286 E15.15486
G1 X137.765 Y132.143 E15.1909
G1 X137.404 Y132.971 E15.22695
G1 X136.972 Y133.764 E15.263
G1 X136.472 Y134.516 E15.29904
G1 X135.906 Y135.22 E15.33509
G1 X135.281 Y135.872 E15.37114
G1 X134.601 Y136.466 E15.40718
G1 X133.87 Y136.997 E15.44324
G1 X133.096 Y137.462 E15.47928
G1 X132.283 Y137.856 E15.51533
G1 X131.439 Y138.177 E15.55137
G1 X130.57 Y138.422 E15.58741
G1 X129.682 Y138.589 E15.62347
G1 X128.527 Y138.687 E15.66974
G1 X128.206 Y138.696 E15.68255
G1 X127.92 Y138.7 E15.69397
G1 X107.325 Y138.699 E16.51596
G1 X106.627 Y138.69 E16.54382
G1 X105.726 Y138.639 E16.57984
G1 X104.832 Y138.507 E16.61591
G1 X103.954 Y138.298 E16.65193
G1 X103.097 Y138.011 E16.688
G1 X102.27 Y137.65 E16.72402
G1 X101.477 Y137.217 E16.76008
G1 X100.726 Y136.716 E16.79611
G1 X100.022 Y136.15 E16.83216
G1 X99.371 Y135.524 E16.86821
G1 X98.778 Y134.843 E16.90425
G1 X98.248 Y134.112 E16.94029
G1 X97.784 Y133.337 E16.97634
G1 X97.39 Y132.524 E17.0124
G1 X97.07 Y131.68 E17.04842
G1 X96.826 Y130.81 E17.08449
G1 X96.66 Y129.922 E17.12054
G1 X96.563 Y128.767 E17.1668
G1 X96.554 Y128.434 E17.1801
G1 X96.55 Y128.158 E17.19112
G1 X96.551 Y119.083 E17.55332
G1 X96.556 Y118.727 E17.56753
G1 X96.551 Y115.816 E17.68371
G1 X96.55 Y107.174 E18.02864
G1 X96.56 Y106.371 E18.06069
G1 X96.612 Y105.469 E18.09675
G1 X96.744 Y104.576 E18.13278
G1 X96.954 Y103.698 E18.16881
G1 X97.241 Y102.841 E18.20488
G1 X97.603 Y102.014 E18.24091
G1 X98.036 Y101.222 E18.27694
G1 X98.538 Y100.471 E18.31299
G1 X99.105 Y99.767 E18.34907
G1 X99.731 Y99.117 E18.38509
G1 F2700 E13.38509
;MESH:LEDAcid.stl
G0 F3000 X107.164 Y105.835
G0 X107.164 Y106.914
G0 X116.568 Y107.682
G0 X116.568 Y108.816
G0 X114.065 Y108.816
G0 X114.819 Y114.431
G0 X116.352 Y114.603
;TYPE:WALL-INNER
G1 F2700 E18.38509
G1 F1200 X116.352 Y109.398 E18.59283
G1 X114.647 Y109.398 E18.66088
G1 X114.647 Y114.603 E18.86862
G1 X116.352 Y114.603 E18.93667
G0 F3000 X115.952 Y114.203
;TYPE:WALL-OUTER
G1 F1200 X115.952 Y109.798 E19.11249
G1 X115.047 Y109.798 E19.14861
G1 X115.047 Y114.203 E19.32442
G1 X115.952 Y114.203 E19.36054
G0 F3000 X116.252 Y114.203
G0 X116.568 Y115.185
G0 X116.551 Y116.402
G0 X116.014 Y117.974
G0 X115.858 Y118.278
G0 X114.764 Y119.511
;TYPE:WALL-INNER
G1 F1200 X115.346 Y119.388 E19.38428
G1 X115.864 Y119.105 E19.40784
G1 X116.278 Y118.684 E19.43141
G1 X116.363 Y118.521 E19.43874
G1 X116.55 Y118.159 E19.45501
G1 X116.655 Y117.608 E19.47739
G1 X116.632 Y117.166 E19.49506
G1 X116.462 Y116.621 E19.51784
G1 X116.361 Y116.475 E19.52493
G1 X116.126 Y116.134 E19.54146
G1 X115.669 Y115.765 E19.5649
G1 X115.125 Y115.545 E19.58832
G1 X114.535 Y115.49 E19.61197
G1 X113.959 Y115.61 E19.63546
G1 X113.475 Y115.869 E19.65737
G1 X113.095 Y116.226 E19.67818
G1 X112.82 Y116.67 E19.69902
G1 X112.659 Y117.22 E19.72189
G1 X112.66 Y117.811 E19.74548
G1 X112.838 Y118.379 E19.76924
G1 X113.174 Y118.866 E19.79285
G1 X113.631 Y119.235 E19.8163
G1 X114.175 Y119.455 E19.83972
G1 X114.764 Y119.511 E19.86333
G0 F3000 X114.741 Y119.107
G1 F1200 X115.206 Y119.009 E19.8823
G1 X115.62 Y118.782 E19.90114
G1 X115.951 Y118.446 E19.91997
G1 X116.168 Y118.027 E19.9388
G1 X116.253 Y117.581 E19.95692
G1 X116.235 Y117.237 E19.97067
G1 X116.098 Y116.798 E19.98902
G1 X115.83 Y116.409 E20.00788
G1 X115.464 Y116.114 E20.02664
G1 X115.029 Y115.938 E20.04537
G1 X114.558 Y115.894 E20.06425
G1 X114.097 Y115.99 E20.08304
G1 X113.71 Y116.197 E20.10056
G1 X113.407 Y116.481 E20.11714
G1 X113.189 Y116.834 E20.1337
G1 X113.059 Y117.277 E20.15212
G1 X113.06 Y117.749 E20.17096
G1 X113.202 Y118.202 E20.18991
G1 X113.47 Y118.591 E20.20876
G1 X113.836 Y118.886 E20.22752
G1 X114.271 Y119.062 E20.24625
G1 X114.741 Y119.107 E20.2651
G0 F3000 X114.719 Y118.703
;TYPE:WALL-OUTER
G1 F1200 X115.066 Y118.63 E20.27925
G1 X115.376 Y118.46 E20.29336
G1 X115.624 Y118.208 E20.30747
G1 X115.786 Y117.895 E20.32154
G1 X115.851 Y117.554 E20.33539
G1 X115.838 Y117.308 E20.34523
G1 X115.734 Y116.975 E20.35915
G1 X115.534 Y116.684 E20.37324
G1 X115.259 Y116.463 E20.38732
G1 X114.933 Y116.331 E20.40136
G1 X114.581 Y116.298 E20.41547
G1 X114.235 Y116.37 E20.42958
G1 X113.945 Y116.525 E20.4427
G1 X113.719 Y116.736 E20.45504
G1 X113.558 Y116.998 E20.46732
G1 X113.459 Y117.334 E20.4813
G1 X113.46 Y117.687 E20.49539
G1 X113.566 Y118.025 E20.50952
G1 X113.766 Y118.316 E20.52362
G1 X114.041 Y118.537 E20.5377
G1 X114.367 Y118.669 E20.55174
G1 X114.719 Y118.703 E20.56585
G0 F3000 X114.743 Y119.142
G0 X116.549 Y118.597
G0 X116.559 Y119.287
G0 X116.352 Y125.603
;TYPE:WALL-INNER
G1 F1200 X116.352 Y120.398 E20.77359
G1 X114.647 Y120.398 E20.84164
G1 X114.647 Y125.603 E21.04939
G1 X116.352 Y125.603 E21.11744
G0 F3000 X115.952 Y125.203
;TYPE:WALL-OUTER
G1 F1200 X115.952 Y120.798 E21.29325
G1 X115.047 Y120.798 E21.32937
G1 X115.047 Y125.203 E21.50518
G1 X115.952 Y125.203 E21.5413
G0 F3000 X116.252 Y125.203
G0 X116.507 Y125.997
G0 X116.75 Y127.5
;TYPE:WALL-INNER
G1 F1200 X107.75 Y127.5 E21.90051
G1 X107.75 Y119.239 E22.23023
G1 X107.8 Y119.218 E22.23239
G1 X108.255 Y118.836 E22.2561
G1 X108.576 Y118.343 E22.27958
G1 X108.741 Y117.78 E22.303
G1 X108.74 Y117.189 E22.32659
G1 X108.562 Y116.621 E22.35034
G1 X108.226 Y116.134 E22.37396
G1 X107.769 Y115.765 E22.3974
G1 X107.75 Y115.757 E22.39823
G1 X107.75 Y107.5 E22.72778
G1 X116.75 Y107.5 E23.08699
G1 X116.75 Y108.998 E23.14678
G1 X114.247 Y108.998 E23.24668
G1 X114.247 Y115.003 E23.48635
G1 X116.75 Y115.003 E23.58625
G1 X116.75 Y116.443 E23.64372
G1 X116.75 Y116.621 E23.64989
G1 X116.75 Y117.166 E23.66083
G1 X116.75 Y117.608 E23.66554
G1 X116.75 Y118.159 E23.67362
G1 X116.75 Y118.567 E23.68596
G1 X116.75 Y119.998 E23.74307
G1 X114.247 Y119.998 E23.84297
G1 X114.247 Y126.003 E24.08264
G1 X116.75 Y126.003 E24.18255
G1 X116.75 Y127.5 E24.24229
G0 F3000 X117.15 Y127.9
G1 F1200 X107.35 Y127.9 E24.63343
G1 X107.35 Y118.974 E24.98969
G1 X107.589 Y118.873 E25.00004
G1 X107.952 Y118.568 E25.01897
G1 X108.209 Y118.174 E25.03774
G1 X108.341 Y117.723 E25.0565
G1 X108.34 Y117.251 E25.07534
G1 X108.198 Y116.798 E25.09428
G1 X107.93 Y116.409 E25.11314
G1 X107.564 Y116.114 E25.1319
G1 X107.35 Y116.028 E25.14111
G1 X107.35 Y107.1 E25.49744
G1 X117.15 Y107.1 E25.88858
G1 X117.15 Y127.9 E26.71875
G1 F2700 E21.71875
G0 F3000 X117.336 Y128.086
G0 X118.403 Y127.347
G0 X128.903 Y127.347
G0 X128.903 Y129.153
G0 X128.05 Y129.165
G0 X128.05 Y128.3
;TYPE:WALL-OUTER
G1 F2700 E26.71875
G1 F1200 X106.95 Y128.3 E27.5609
G1 X106.95 Y118.678 E27.94494
G1 X107.055 Y118.664 E27.94916
G1 X107.378 Y118.528 E27.96315
G1 X107.649 Y118.3 E27.97729
G1 X107.842 Y118.005 E27.99136
G1 X107.941 Y117.666 E28.00545
G1 X107.94 Y117.313 E28.01954
G1 X107.834 Y116.975 E28.03368
G1 X107.634 Y116.684 E28.04777
G1 X107.359 Y116.463 E28.06185
G1 X107.036 Y116.332 E28.07576
G1 X106.95 Y116.321 E28.07922
G1 X106.95 Y106.7 E28.46322
G1 X128.05 Y106.7 E29.30537
G1 X128.05 Y106.8 E29.30936
G1 X117.55 Y106.8 E29.72843
G1 X117.55 Y128.2 E30.58256
G1 X128.05 Y128.2 E31.00163
G1 X128.05 Y128.3 E31.00562
G1 F2700 E26.00562
G0 F3000 X128.05 Y129.165
G0 X117.336 Y129.165
G0 X117.336 Y128.086
G0 X116.64 Y127.11
G0 X116.36 Y127.11
;TYPE:SKIN
G1 F2700 E31.00562
G1 F1200 X108.14 Y127.11 E31.3337
G1 X108.14 Y119.441 E31.63979
G1 X108.55 Y119.097 E31.66115
G1 X108.934 Y118.507 E31.68925
G1 X109.131 Y117.836 E31.71716
G1 X109.13 Y117.129 E31.74537
G1 X108.917 Y116.448 E31.77385
G1 X108.515 Y115.866 E31.80209
G1 X108.14 Y115.563 E31.82133
G1 X108.14 Y107.89 E32.12757
