;FLAVOR:Marlin
;TIME:2367
;Filament used: 2.292m
;Layer height: 0.24
;MINX:73.6
;MINY:106.1
;MINZ:0.24
;MAXX:161.4
;MAXY:128.9
;MAXZ:9.72
;Generated with Cura_SteamEngine 4.8.0
M140 S100
M105
M190 S100
M104 S240
M105
M109 S240
M82 ;absolute extrusion mode
; Ender 3 Custom Start G-code
G92 E0 ; Reset Extruder
G28 ; Home all axes
G1 Z2.0 F3000 ; Move Z Axis up little to prevent scratching of Heat Bed
G1 X0.1 Y20 Z0.3 F5000.0 ; Move to start position
G1 X0.1 Y200.0 Z0.3 F1500.0 E15 ; Draw the first line
G1 X0.4 Y200.0 Z0.3 F5000.0 ; Move to side a little
G1 X0.4 Y20 Z0.3 F1500.0 E30 ; Draw the second line
G92 E0 ; Reset Extruder
G1 Z2.0 F3000 ; Move Z Axis up little to prevent scratching of Heat Bed
G1 X5 Y20 Z0.3 F5000.0 ; Move over to prevent blob squish
G92 E0
G92 E0
G1 F2700 E-5
;LAYER_COUNT:32
;LAYER:0
M107
G0 F1200 X78.674 Y107.253 Z0.24
;TYPE:SKIRT
G1 F2700 E0
G1 F1200 X79.124 Y106.923 E0.0522
G1 X79.447 Y106.74 E0.08693
G1 X79.802 Y106.561 E0.12412
G1 X80.317 Y106.346 E0.17632
G1 X80.95 Y106.191 E0.23729
G1 X81.216 Y106.149 E0.26248
G1 X81.817 Y106.101 E0.31888
G1 X82.358 Y106.1 E0.36948
G1 X82.784 Y106.123 E0.40939
G1 X82.821 Y106.127 E0.41287
G1 X83.31 Y106.211 E0.45929
G1 X83.707 Y106.306 E0.49747
G1 X84.239 Y106.475 E0.54969
G1 X84.603 Y106.641 E0.58711
G1 X84.672 Y106.677 E0.59439
G1 X85.147 Y106.97 E0.6466
G1 X85.468 Y107.229 E0.68518
G1 X85.772 Y107.501 E0.72334
G1 X86.161 Y107.902 E0.7756
G1 X86.393 Y108.208 E0.81152
G1 X86.436 Y108.271 E0.81866
G1 X86.717 Y108.754 E0.87093
G1 X86.874 Y109.121 E0.90827
G1 X87.017 Y109.509 E0.94695
G1 X87.172 Y110.046 E0.99924
G1 X87.239 Y110.47 E1.03939
G1 X87.246 Y110.54 E1.04597
G1 X87.261 Y111.098 E1.09819
G1 X87.229 Y111.457 E1.1319
G1 X87.174 Y111.859 E1.16986
G1 X87.06 Y112.401 E1.22167
G1 X87.05 Y112.436 E1.22507
G1 X86.921 Y112.814 E1.26244
G1 X85.506 Y116.35 E1.61871
G1 X89.494 Y116.35 E1.99176
G1 X88.081 Y112.822 E2.34727
G1 X87.96 Y112.472 E2.38191
G1 X87.95 Y112.438 E2.38523
G1 X87.829 Y111.875 E2.4391
G1 X87.772 Y111.465 E2.47782
G1 X87.735 Y110.908 E2.53004
G1 X87.759 Y110.497 E2.56855
G1 X87.767 Y110.425 E2.57533
G1 X87.868 Y109.876 E2.62754
G1 X87.983 Y109.51 E2.66343
G1 X88.125 Y109.124 E2.70191
G1 X88.355 Y108.615 E2.75415
G1 X88.564 Y108.271 E2.79181
G1 X88.607 Y108.208 E2.79894
G1 X88.954 Y107.771 E2.85114
G1 X89.228 Y107.501 E2.88713
G1 X89.532 Y107.229 E2.92528
G1 X89.973 Y106.887 E2.97749
G1 X90.328 Y106.677 E3.01607
G1 X90.397 Y106.641 E3.02335
G1 X90.909 Y106.419 E3.07556
G1 X91.293 Y106.306 E3.113
G1 X91.69 Y106.211 E3.15118
G1 X92.179 Y106.127 E3.1976
G1 X92.216 Y106.123 E3.20108
G1 X92.635 Y106.1 E3.24033
G1 X93.168 Y106.1 E3.29019
G1 X93.587 Y106.123 E3.32945
G1 X93.624 Y106.127 E3.33293
G1 X94.091 Y106.206 E3.37723
G1 X94.477 Y106.296 E3.41431
G1 X95.01 Y106.461 E3.4665
G1 X95.376 Y106.626 E3.50406
G1 X95.444 Y106.661 E3.51121
G1 X95.921 Y106.952 E3.56348
G1 X96.235 Y107.201 E3.60097
G1 X96.535 Y107.465 E3.63835
G1 X96.927 Y107.863 E3.69061
G1 X97.31 Y108.397 E3.75208
G1 X97.444 Y108.622 E3.77658
G1 X97.497 Y108.724 E3.78733
G1 X97.732 Y108.348 E3.82881
G1 X97.96 Y108.024 E3.86587
G1 X98.313 Y107.591 E3.91813
G1 X98.597 Y107.319 E3.95491
G1 X98.649 Y107.274 E3.96134
G1 X99.096 Y106.94 E4.01354
G1 X99.425 Y106.751 E4.04904
G1 X99.775 Y106.572 E4.08581
G1 X100.289 Y106.354 E4.13804
G1 X100.94 Y106.192 E4.20079
G1 X101.211 Y106.149 E4.22646
G1 X101.815 Y106.101 E4.28314
G1 X102.358 Y106.1 E4.33393
G1 X102.784 Y106.123 E4.37384
G1 X102.821 Y106.127 E4.37732
G1 X103.31 Y106.211 E4.42373
G1 X103.707 Y106.306 E4.46192
G1 X104.239 Y106.475 E4.51414
G1 X104.603 Y106.641 E4.55156
G1 X104.672 Y106.677 E4.55884
G1 X105.147 Y106.97 E4.61105
G1 X105.468 Y107.229 E4.64963
G1 X105.772 Y107.501 E4.68779
G1 X106.161 Y107.902 E4.74005
G1 X106.393 Y108.208 E4.77597
G1 X106.436 Y108.271 E4.78311
G1 X106.717 Y108.754 E4.83538
G1 X106.876 Y109.127 E4.87331
G1 X107.018 Y109.514 E4.91187
G1 X107.173 Y110.05 E4.96406
G1 X107.238 Y110.469 E5.00373
G1 X107.245 Y110.539 E5.01031
G1 X107.26 Y111.097 E5.06252
G1 X107.228 Y111.459 E5.09652
G1 X107.171 Y111.873 E5.13561
G1 X107.039 Y112.472 E5.19299
G1 X106.918 Y112.824 E5.22781
G1 X105.506 Y116.35 E5.58311
G1 X109.494 Y116.35 E5.95616
G1 X108.081 Y112.822 E6.31167
G1 X107.96 Y112.472 E6.34631
G1 X107.95 Y112.438 E6.34963
G1 X107.829 Y111.875 E6.4035
G1 X107.772 Y111.465 E6.44222
G1 X107.735 Y110.908 E6.49444
G1 X107.759 Y110.497 E6.53295
G1 X107.767 Y110.425 E6.53973
G1 X107.868 Y109.876 E6.59194
G1 X107.982 Y109.51 E6.6278
G1 X108.125 Y109.121 E6.66657
G1 X108.355 Y108.613 E6.71874
G1 X108.567 Y108.265 E6.75685
G1 X108.606 Y108.208 E6.76332
G1 X108.954 Y107.771 E6.81557
G1 X109.226 Y107.502 E6.85136
G1 X109.536 Y107.225 E6.89025
G1 X109.978 Y106.884 E6.94247
G1 X110.371 Y106.655 E6.98502
G1 X110.44 Y106.62 E6.99225
G1 X110.954 Y106.404 E7.04441
G1 X111.303 Y106.303 E7.0784
G1 X111.699 Y106.209 E7.11647
G1 X112.169 Y106.128 E7.16108
G1 X112.205 Y106.124 E7.16447
G1 X112.636 Y106.1 E7.20485
G1 X113.168 Y106.1 E7.25462
G1 X113.587 Y106.123 E7.29387
G1 X113.624 Y106.127 E7.29735
G1 X114.093 Y106.206 E7.34184
G1 X114.478 Y106.296 E7.37883
G1 X115.011 Y106.462 E7.43105
G1 X115.375 Y106.626 E7.46839
G1 X115.443 Y106.661 E7.47555
G1 X115.92 Y106.952 E7.52782
G1 X116.191 Y107.164 E7.56
G1 X116.486 Y107.416 E7.5963
G1 X116.884 Y107.808 E7.64855
G1 X117.088 Y108.061 E7.67895
G1 X117.125 Y108.111 E7.68477
G1 X117.497 Y108.728 E7.75217
G1 X117.723 Y108.361 E7.79249
G1 X117.951 Y108.035 E7.8297
G1 X118.303 Y107.601 E7.88197
G1 X118.609 Y107.309 E7.92154
G1 X118.665 Y107.261 E7.92844
G1 X119.114 Y106.929 E7.98067
G1 X119.447 Y106.74 E8.01649
G1 X119.802 Y106.561 E8.05368
G1 X120.317 Y106.346 E8.10589
G1 X120.95 Y106.191 E8.16685
G1 X121.216 Y106.149 E8.19204
G1 X121.817 Y106.101 E8.24844
G1 X122.354 Y106.1 E8.29867
G1 X122.78 Y106.123 E8.33858
G1 X122.817 Y106.127 E8.34206
G1 X123.297 Y106.209 E8.38761
G1 X123.698 Y106.304 E8.42616
G1 X124.231 Y106.471 E8.47841
G1 X124.603 Y106.641 E8.51667
G1 X124.672 Y106.677 E8.52395
G1 X125.147 Y106.97 E8.57616
G1 X125.468 Y107.229 E8.61474
G1 X125.772 Y107.501 E8.6529
G1 X126.161 Y107.902 E8.70516
G1 X126.393 Y108.208 E8.74108
G1 X126.436 Y108.271 E8.74822
G1 X126.717 Y108.754 E8.80049
G1 X126.874 Y109.121 E8.83783
G1 X127.017 Y109.509 E8.87651
G1 X127.172 Y110.046 E8.9288
G1 X127.239 Y110.47 E8.96895
G1 X127.246 Y110.54 E8.97553
G1 X127.261 Y111.098 E9.02775
G1 X127.229 Y111.457 E9.06147
G1 X127.174 Y111.859 E9.09942
G1 X127.06 Y112.401 E9.15123
G1 X127.05 Y112.436 E9.15464
G1 X126.921 Y112.814 E9.192
G1 X125.506 Y116.35 E9.54827
G1 X129.495 Y116.35 E9.92142
G1 X128.081 Y112.814 E10.27766
G1 X127.96 Y112.464 E10.3123
G1 X127.828 Y111.863 E10.36986
G1 X127.772 Y111.455 E10.40838
G1 X127.736 Y110.898 E10.4606
G1 X127.758 Y110.511 E10.49686
G1 X127.766 Y110.436 E10.50391
G1 X127.865 Y109.887 E10.55609
G1 X127.996 Y109.47 E10.59698
G1 X128.142 Y109.084 E10.63559
G1 X128.377 Y108.578 E10.68778
G1 X128.602 Y108.217 E10.72757
G1 X128.645 Y108.156 E10.73455
G1 X128.999 Y107.724 E10.78679
G1 X129.248 Y107.483 E10.81921
G1 X129.553 Y107.213 E10.85731
G1 X129.996 Y106.874 E10.9095
G1 X130.332 Y106.676 E10.94598
G1 X130.399 Y106.641 E10.95305
G1 X130.911 Y106.419 E11.00525
G1 X131.3 Y106.304 E11.0432
G1 X131.694 Y106.21 E11.08109
G1 X132.18 Y106.127 E11.12721
G1 X132.217 Y106.123 E11.13069
G1 X132.636 Y106.1 E11.16994
G1 X133.168 Y106.1 E11.21971
G1 X133.587 Y106.123 E11.25896
G1 X133.624 Y106.127 E11.26245
G1 X134.093 Y106.206 E11.30694
G1 X134.478 Y106.296 E11.34392
G1 X135.011 Y106.462 E11.39614
G1 X135.334 Y106.606 E11.42922
G1 X135.402 Y106.64 E11.43634
G1 X135.882 Y106.924 E11.48851
G1 X136.211 Y107.18 E11.5275
G1 X136.509 Y107.438 E11.56437
G1 X136.904 Y107.832 E11.61656
G1 X137.316 Y108.407 E11.68273
G1 X137.455 Y108.643 E11.70835
G1 X137.498 Y108.731 E11.71752
G1 X137.712 Y108.381 E11.75589
G1 X137.94 Y108.052 E11.79334
G1 X138.289 Y107.617 E11.84551
G1 X138.545 Y107.367 E11.87898
G1 X138.602 Y107.316 E11.88613
G1 X139.043 Y106.974 E11.93834
G1 X139.458 Y106.734 E11.98318
G1 X139.814 Y106.556 E12.02041
G1 X140.33 Y106.342 E12.07267
G1 X140.936 Y106.194 E12.13102
G1 X141.202 Y106.151 E12.15623
G1 X141.817 Y106.101 E12.21395
G1 X142.358 Y106.1 E12.26456
G1 X142.784 Y106.123 E12.30446
G1 X142.821 Y106.127 E12.30795
G1 X143.31 Y106.211 E12.35436
G1 X143.707 Y106.306 E12.39254
G1 X144.239 Y106.475 E12.44476
G1 X144.603 Y106.641 E12.48218
G1 X144.672 Y106.677 E12.48946
G1 X145.147 Y106.97 E12.54167
G1 X145.467 Y107.228 E12.58012
G1 X145.769 Y107.498 E12.61802
G1 X146.158 Y107.898 E12.67021
G1 X146.415 Y108.242 E12.71038
G1 X146.457 Y108.305 E12.71746
G1 X146.733 Y108.79 E12.76966
G1 X146.874 Y109.127 E12.80383
G1 X147.019 Y109.523 E12.84328
G1 X147.173 Y110.06 E12.89554
G1 X147.237 Y110.47 E12.93436
G1 X147.244 Y110.539 E12.94085
G1 X147.261 Y111.097 E12.99307
G1 X147.228 Y111.464 E13.02754
G1 X147.173 Y111.864 E13.06531
G1 X147.051 Y112.433 E13.11974
G1 X147.041 Y112.467 E13.12306
G1 X146.92 Y112.816 E13.15761
G1 X145.506 Y116.35 E13.51368
G1 X149.494 Y116.35 E13.88673
G1 X148.081 Y112.822 E14.24224
G1 X147.96 Y112.472 E14.27688
G1 X147.95 Y112.438 E14.2802
G1 X147.829 Y111.875 E14.33407
G1 X147.772 Y111.465 E14.37279
G1 X147.735 Y110.908 E14.42501
G1 X147.759 Y110.497 E14.46352
G1 X147.767 Y110.425 E14.47029
G1 X147.868 Y109.876 E14.52251
G1 X147.983 Y109.51 E14.5584
G1 X148.125 Y109.124 E14.59687
G1 X148.355 Y108.615 E14.64912
G1 X148.564 Y108.271 E14.68678
G1 X148.607 Y108.208 E14.69391
G1 X148.954 Y107.771 E14.74611
G1 X149.228 Y107.501 E14.78209
G1 X149.532 Y107.229 E14.82025
G1 X149.973 Y106.887 E14.87246
G1 X150.328 Y106.677 E14.91104
G1 X150.397 Y106.641 E14.91832
G1 X150.909 Y106.419 E14.97052
G1 X151.293 Y106.306 E15.00797
G1 X151.69 Y106.211 E15.04615
G1 X152.179 Y106.127 E15.09257
G1 X152.216 Y106.123 E15.09605
G1 X152.635 Y106.1 E15.1353
G1 X153.168 Y106.1 E15.18516
G1 X153.587 Y106.123 E15.22441
G1 X153.624 Y106.127 E15.2279
G1 X154.093 Y106.206 E15.27239
G1 X154.478 Y106.296 E15.30937
G1 X155.011 Y106.462 E15.36159
G1 X155.334 Y106.606 E15.39467
G1 X155.402 Y106.64 E15.40179
G1 X155.882 Y106.924 E15.45396
G1 X156.211 Y107.18 E15.49295
G1 X156.509 Y107.438 E15.52982
G1 X156.904 Y107.832 E15.58201
G1 X157.316 Y108.405 E15.64803
G1 X157.451 Y108.634 E15.6729
G1 X157.711 Y109.165 E15.72821
G1 X161.049 Y117.5 E16.5681
G1 X161.192 Y117.923 E16.60987
G1 X161.256 Y118.188 E16.63537
G1 X161.317 Y118.484 E16.66364
G1 X161.378 Y118.883 E16.7014
G1 X161.381 Y118.913 E16.70422
G1 X161.4 Y119.301 E16.74056
G1 X161.4 Y123.989 E17.17909
G1 X161.376 Y124.42 E17.21947
G1 X161.372 Y124.456 E17.22286
G1 X161.296 Y124.901 E17.26509
G1 X161.21 Y125.274 E17.3009
G1 X161.046 Y125.808 E17.35315
G1 X160.931 Y126.075 E17.38035
G1 X160.901 Y126.138 E17.38687
G1 X160.626 Y126.623 E17.43903
G1 X160.426 Y126.896 E17.47068
G1 X160.191 Y127.19 E17.50589
G1 X159.653 Y127.741 E17.57793
G1 X159.603 Y127.783 E17.58404
G1 X159.151 Y128.111 E17.63628
G1 X158.773 Y128.318 E17.6766
G1 X158.431 Y128.481 E17.71203
G1 X157.911 Y128.684 E17.76425
G1 X157.333 Y128.817 E17.81973
G1 X157.067 Y128.857 E17.8449
G1 X156.487 Y128.9 E17.8993
G1 X78.519 Y128.9 E25.19275
G1 X78.035 Y128.87 E25.23811
G1 X77.644 Y128.804 E25.27521
G1 X77.251 Y128.717 E25.31286
G1 X76.716 Y128.557 E25.36509
G1 X76.002 Y128.2 E25.43977
G1 X75.766 Y128.05 E25.46593
G1 X75.318 Y127.718 E25.51809
G1 X74.809 Y127.191 E25.58663
G1 X74.561 Y126.88 E25.62383
G1 X74.245 Y126.419 E25.67612
G1 X74.077 Y126.1 E25.70984
G1 X74.048 Y126.038 E25.71625
G1 X73.849 Y125.517 E25.76842
G1 X73.771 Y125.221 E25.79705
G1 X73.693 Y124.865 E25.83114
G1 X73.622 Y124.418 E25.87348
G1 X73.619 Y124.388 E25.8763
G1 X73.6 Y124 E25.91264
G1 X73.6 Y119.322 E26.35024
G1 X73.613 Y118.997 E26.38067
G1 X73.667 Y118.586 E26.41944
G1 X73.724 Y118.278 E26.44874
G1 X73.817 Y117.889 E26.48616
G1 X73.946 Y117.51 E26.52361
G1 X77.285 Y109.17 E27.36397
G1 X77.482 Y108.752 E27.40719
G1 X77.5 Y108.719 E27.41071
G1 X77.737 Y108.339 E27.4526
G1 X77.962 Y108.02 E27.48912
G1 X78.316 Y107.588 E27.54137
G1 X78.62 Y107.299 E27.5806
G1 X78.674 Y107.253 E27.58724
G0 X79.063 Y107.71
G1 X79.479 Y107.408 E27.63533
G1 X79.717 Y107.275 E27.66083
G1 X80.072 Y107.096 E27.69802
G1 X80.547 Y106.902 E27.74602
G1 X81.043 Y106.783 E27.79373
G1 X81.309 Y106.741 E27.81892
G1 X81.818 Y106.701 E27.86668
G1 X82.359 Y106.7 E27.91729
G1 X82.72 Y106.719 E27.95111
G1 X82.757 Y106.723 E27.95459
G1 X83.17 Y106.795 E27.99381
G1 X83.567 Y106.89 E28.03199
G1 X84.056 Y107.048 E28.08006
G1 X84.325 Y107.173 E28.10781
G1 X84.394 Y107.209 E28.11509
G1 X84.83 Y107.481 E28.16316
G1 X85.068 Y107.676 E28.19194
G1 X85.372 Y107.948 E28.2301
G1 X85.727 Y108.319 E28.27814
G1 X85.898 Y108.547 E28.3048
G1 X85.941 Y108.61 E28.31193
G1 X86.196 Y109.055 E28.35991
G1 X86.311 Y109.329 E28.38771
G1 X86.454 Y109.717 E28.42639
G1 X86.594 Y110.211 E28.47442
G1 X86.642 Y110.53 E28.50459
G1 X86.649 Y110.6 E28.51118
G1 X86.66 Y111.113 E28.55917
G1 X86.635 Y111.375 E28.58379
G1 X86.58 Y111.777 E28.62175
G1 X86.483 Y112.237 E28.66573
G1 X86.473 Y112.272 E28.66913
G1 X86.364 Y112.591 E28.70067
G1 X84.62 Y116.95 E29.13985
G1 X90.38 Y116.95 E29.67866
G1 X88.638 Y112.599 E30.11708
G1 X88.536 Y112.303 E30.14637
G1 X88.526 Y112.269 E30.14969
G1 X88.423 Y111.792 E30.19533
G1 X88.366 Y111.382 E30.23406
G1 X88.336 Y110.87 E30.28203
G1 X88.355 Y110.564 E30.31071
G1 X88.363 Y110.492 E30.31749
G1 X88.459 Y109.987 E30.36557
G1 X88.546 Y109.717 E30.39211
G1 X88.688 Y109.331 E30.43058
G1 X88.902 Y108.864 E30.47864
G1 X89.059 Y108.61 E30.50657
G1 X89.102 Y108.547 E30.51371
G1 X89.424 Y108.146 E30.56181
G1 X89.628 Y107.948 E30.58841
G1 X89.932 Y107.676 E30.62657
G1 X90.34 Y107.364 E30.67461
G1 X90.606 Y107.209 E30.70341
G1 X90.675 Y107.173 E30.71069
G1 X91.147 Y106.972 E30.75868
G1 X91.433 Y106.89 E30.78651
G1 X91.83 Y106.795 E30.8247
G1 X92.243 Y106.723 E30.86391
G1 X92.28 Y106.719 E30.8674
G1 X92.635 Y106.7 E30.90065
G1 X93.168 Y106.7 E30.95051
G1 X93.523 Y106.719 E30.98377
G1 X93.56 Y106.723 E30.98725
G1 X93.954 Y106.79 E31.02463
G1 X94.34 Y106.88 E31.06171
G1 X94.83 Y107.035 E31.10978
G1 X95.101 Y107.16 E31.1377
G1 X95.169 Y107.195 E31.14486
G1 X95.606 Y107.465 E31.19291
G1 X95.839 Y107.652 E31.22086
G1 X96.139 Y107.916 E31.25824
G1 X96.497 Y108.284 E31.30626
G1 X96.794 Y108.704 E31.35438
G1 X96.928 Y108.929 E31.37888
G1 X97.156 Y109.39 E31.42699
G1 X97.5 Y110.247 E31.51337
G1 X97.84 Y109.398 E31.59893
G1 X98.006 Y109.045 E31.63542
G1 X98.024 Y109.012 E31.63893
G1 X98.222 Y108.693 E31.67405
G1 X98.45 Y108.369 E31.71111
G1 X98.777 Y107.973 E31.75915
G1 X98.99 Y107.773 E31.78649
G1 X99.042 Y107.728 E31.79292
G1 X99.455 Y107.423 E31.84095
G1 X99.698 Y107.285 E31.86709
G1 X100.048 Y107.106 E31.90386
G1 X100.522 Y106.908 E31.95191
G1 X101.034 Y106.785 E32.00117
G1 X101.305 Y106.742 E32.02684
G1 X101.816 Y106.701 E32.07479
G1 X102.359 Y106.7 E32.12559
G1 X102.72 Y106.719 E32.1594
G1 X102.757 Y106.723 E32.16288
G1 X103.17 Y106.795 E32.2021
G1 X103.567 Y106.89 E32.24029
G1 X104.056 Y107.048 E32.28836
G1 X104.325 Y107.173 E32.31611
G1 X104.394 Y107.209 E32.32339
G1 X104.83 Y107.481 E32.37146
G1 X105.068 Y107.676 E32.40024
G1 X105.372 Y107.948 E32.4384
G1 X105.727 Y108.319 E32.48643
G1 X105.898 Y108.547 E32.51309
G1 X105.941 Y108.61 E32.52023
G1 X106.196 Y109.055 E32.5682
G1 X106.313 Y109.333 E32.59642
G1 X106.455 Y109.72 E32.63498
G1 X106.594 Y110.215 E32.68308
G1 X106.641 Y110.529 E32.71278
G1 X106.648 Y110.599 E32.71936
G1 X106.659 Y111.112 E32.76736
G1 X106.633 Y111.377 E32.79226
G1 X106.576 Y111.791 E32.83136
G1 X106.465 Y112.298 E32.87991
G1 X106.361 Y112.601 E32.90987
G1 X104.62 Y116.95 E33.34808
G1 X110.38 Y116.95 E33.8869
G1 X108.638 Y112.599 E34.32532
G1 X108.536 Y112.303 E34.3546
G1 X108.526 Y112.269 E34.35792
G1 X108.423 Y111.792 E34.40357
G1 X108.366 Y111.382 E34.44229
G1 X108.336 Y110.87 E34.49027
G1 X108.355 Y110.564 E34.51895
G1 X108.363 Y110.492 E34.52572
G1 X108.459 Y109.987 E34.57381
G1 X108.546 Y109.717 E34.60035
G1 X108.689 Y109.328 E34.63911
