;FLAVOR:Marlin
;TIME:4423
;Filament used: 13.9463m
;Layer height: 0.4
;MINX:73.092
;MINY:29.222
;MINZ:0.4
;MAXX:186.908
;MAXY:205.778
;MAXZ:17.16
;Generated with Cura_SteamEngine 4.8.0
M140 S100
M105
M190 S100
M104 S240
M105
M109 S240
M82 ;absolute extrusion mode
; Ender 3 Custom Start G-code
G92 E0 ; Reset Extruder
G28 ; Home all axes
G1 Z2.0 F3000 ; Move Z Axis up little to prevent scratching of Heat Bed
G1 X0.1 Y20 Z0.3 F5000.0 ; Move to start position
G1 X0.1 Y200.0 Z0.3 F1500.0 E15 ; Draw the first line
G1 X0.4 Y200.0 Z0.3 F5000.0 ; Move to side a little
G1 X0.4 Y20 Z0.3 F1500.0 E30 ; Draw the second line
G92 E0 ; Reset Extruder
G1 Z2.0 F3000 ; Move Z Axis up little to prevent scratching of Heat Bed
G1 X5 Y20 Z0.3 F5000.0 ; Move over to prevent blob squish
G92 E0
G92 E0
G1 F2700 E-5
;LAYER_COUNT:41
;LAYER:0
M107
G0 F6000 X130.001 Y66.556 Z0.4
;TYPE:SKIRT
G1 F2700 E0
G1 F1200 X129.52 Y67.596 E0.16921
G1 X128.392 Y70.199 E0.58815
G1 X127.305 Y72.872 E1.01428
G1 X126.226 Y75.729 E1.46527
G1 X125.351 Y78.218 E1.85489
G1 X124.479 Y80.887 E2.26953
G1 X124.166 Y81.901 E2.42625
G1 X123.636 Y83.691 E2.70193
G1 X122.89 Y86.395 E3.11616
G1 X122.41 Y88.284 E3.40398
G1 X122.2 Y89.149 E3.53543
G1 X121.565 Y91.966 E3.96187
G1 X120.982 Y94.848 E4.39609
G1 X120.497 Y97.598 E4.80847
G1 X119.971 Y101.115 E5.33361
G1 X119.702 Y103.252 E5.65169
G1 X119.395 Y106.136 E6.07999
G1 X119.264 Y107.643 E6.30337
G1 X119.17 Y108.898 E6.48922
G1 X119.001 Y111.783 E6.916
G1 X118.901 Y114.646 E7.33905
G1 X118.867 Y117.495 E7.7598
G1 X118.911 Y120.78 E8.24496
G1 X119.001 Y123.226 E8.60642
G1 X119.03 Y123.691 E8.67522
G1 X119.169 Y126.079 E9.02847
G1 X119.259 Y127.303 E9.20971
G1 X119.396 Y128.865 E9.44126
G1 X119.698 Y131.72 E9.86523
G1 X120.067 Y134.587 E10.2921
G1 X120.504 Y137.444 E10.71892
G1 X121.01 Y140.29 E11.14579
G1 X121.563 Y143.025 E11.55785
G1 X122.2 Y145.851 E11.98565
G1 X122.41 Y146.716 E12.1171
G1 X122.873 Y148.54 E12.39501
G1 X123.654 Y151.374 E12.82912
G1 X124.142 Y153.021 E13.08279
G1 X124.213 Y153.245 E13.11749
G1 X124.469 Y154.081 E13.24661
G1 X125.347 Y156.77 E13.66434
G1 X126.298 Y159.469 E14.08693
G1 X127.31 Y162.135 E14.50804
G1 X128.652 Y165.414 E15.03125
G1 X129.53 Y167.426 E15.35543
G1 X129.999 Y168.444 E15.52095
G1 X130.486 Y167.39 E15.69242
G1 X131.608 Y164.801 E16.1091
G1 X132.695 Y162.128 E16.53523
G1 X133.774 Y159.271 E16.98622
G1 X134.653 Y156.77 E17.37771
G1 X135.527 Y154.093 E17.79357
G1 X135.834 Y153.099 E17.9472
G1 X136.364 Y151.309 E18.22288
G1 X137.116 Y148.583 E18.64048
G1 X137.59 Y146.716 E18.92494
G1 X137.801 Y145.846 E19.05714
G1 X138.435 Y143.034 E19.48282
G1 X139.018 Y140.152 E19.91704
G1 X139.503 Y137.402 E20.32942
G1 X140.03 Y133.874 E20.8562
G1 X140.298 Y131.748 E21.17264
G1 X140.605 Y128.864 E21.60094
G1 X140.736 Y127.357 E21.82432
G1 X140.831 Y126.086 E22.01254
G1 X140.999 Y123.217 E22.43695
G1 X141.099 Y120.354 E22.86
G1 X141.133 Y117.495 E23.28223
G1 X141.089 Y114.21 E23.76739
G1 X140.999 Y111.771 E24.12781
G1 X140.97 Y111.307 E24.19647
G1 X140.83 Y108.894 E24.55341
G1 X140.736 Y107.642 E24.73882
G1 X140.603 Y106.127 E24.9634
G1 X140.299 Y103.257 E25.3896
G1 X139.927 Y100.364 E25.82034
G1 X139.503 Y97.597 E26.23373
G1 X138.988 Y94.701 E26.66811
G1 X138.43 Y91.941 E27.08393
G1 X137.799 Y89.143 E27.50751
G1 X137.58 Y88.242 E27.64444
G1 X137.125 Y86.454 E27.91689
G1 X136.345 Y83.626 E28.35011
G1 X135.834 Y81.901 E28.61579
G1 X135.786 Y81.752 E28.63891
G1 X135.525 Y80.901 E28.77036
G1 X134.647 Y78.211 E29.18823
G1 X133.699 Y75.523 E29.60914
G1 X132.687 Y72.855 E30.03053
G1 X131.334 Y69.551 E30.55778
G1 X130.487 Y67.61 E30.87052
G1 X130.001 Y66.556 E31.04192
G0 F6000 X131.19 Y67.222
G1 F1200 X130.001 Y64.647 E31.46076
G1 X128.809 Y67.225 E31.88019
G1 X127.656 Y69.884 E32.30819
G1 X126.561 Y72.578 E32.73763
G1 X125.47 Y75.468 E33.19381
G1 X124.605 Y77.927 E33.57875
G1 X123.692 Y80.723 E34.01311
G1 X123.399 Y81.674 E34.16006
G1 X122.869 Y83.464 E34.43574
G1 X122.116 Y86.193 E34.85381
G1 X121.635 Y88.087 E35.14238
G1 X121.409 Y89.018 E35.28386
G1 X120.778 Y91.814 E35.70715
G1 X120.205 Y94.65 E36.13442
G1 X119.714 Y97.431 E36.55145
G1 X119.174 Y101.039 E37.0902
G1 X118.904 Y103.18 E37.40887
G1 X118.599 Y106.052 E37.83538
G1 X118.463 Y107.618 E38.06751
G1 X118.368 Y108.896 E38.25676
G1 X118.201 Y111.75 E38.67895
G1 X118.101 Y114.597 E39.09964
G1 X118.066 Y117.5 E39.52837
G1 X118.112 Y120.821 E40.01884
G1 X118.199 Y123.212 E40.37217
G1 X118.367 Y126.086 E40.79731
G1 X118.388 Y126.344 E40.83554
G1 X118.466 Y127.415 E40.99411
G1 X118.604 Y128.982 E41.22642
G1 X118.903 Y131.813 E41.64681
G1 X119.27 Y134.67 E42.07218
G1 X119.704 Y137.506 E42.49587
G1 X120.237 Y140.507 E42.94597
G1 X120.778 Y143.186 E43.34958
G1 X121.409 Y145.983 E43.77301
G1 X121.635 Y146.913 E43.91434
G1 X122.116 Y148.806 E44.20278
G1 X122.878 Y151.574 E44.62675
G1 X123.38 Y153.264 E44.8871
G1 X123.448 Y153.479 E44.9204
G1 X123.693 Y154.279 E45.04395
G1 X124.594 Y157.04 E45.47284
G1 X125.555 Y159.766 E45.89969
G1 X126.571 Y162.445 E46.3228
G1 X127.911 Y165.717 E46.84495
G1 X128.802 Y167.76 E47.17409
G1 X129.999 Y170.353 E47.59584
G1 X131.194 Y167.768 E48.0164
G1 X132.344 Y165.116 E48.44327
G1 X133.439 Y162.422 E48.87271
G1 X134.53 Y159.532 E49.32889
G1 X135.396 Y157.069 E49.71444
G1 X136.308 Y154.277 E50.14819
G1 X136.601 Y153.326 E50.29515
G1 X137.131 Y151.536 E50.57083
G1 X137.889 Y148.787 E50.99194
G1 X138.365 Y146.913 E51.27747
G1 X138.591 Y145.982 E51.41894
G1 X139.222 Y143.186 E51.84223
G1 X139.795 Y140.35 E52.2695
G1 X140.29 Y137.546 E52.68998
G1 X140.826 Y133.961 E53.22528
G1 X141.096 Y131.82 E53.54396
G1 X141.401 Y128.948 E53.97046
G1 X141.537 Y127.382 E54.20259
G1 X141.632 Y126.104 E54.39184
G1 X141.799 Y123.25 E54.81403
G1 X141.899 Y120.391 E55.23649
G1 X141.934 Y117.5 E55.66345
G1 X141.888 Y114.154 E56.15762
G1 X141.8 Y111.77 E56.50991
G1 X141.632 Y108.894 E56.93535
G1 X141.534 Y107.583 E57.12949
G1 X141.395 Y106.009 E57.36284
G1 X141.096 Y103.178 E57.78323
G1 X140.73 Y100.329 E58.20741
G1 X140.291 Y97.461 E58.63588
G1 X139.772 Y94.543 E59.07356
G1 X139.212 Y91.772 E59.49104
G1 X138.59 Y89.012 E59.90884
G1 X138.357 Y88.053 E60.05458
G1 X137.882 Y86.187 E60.33893
G1 X137.129 Y83.455 E60.75742
G1 X136.601 Y81.674 E61.03175
G1 X136.551 Y81.517 E61.05608
G1 X136.305 Y80.714 E61.1801
G1 X135.395 Y77.927 E61.61306
G1 X134.442 Y75.226 E62.03603
G1 X133.425 Y72.545 E62.45947
G1 X132.086 Y69.276 E62.98115
G1 X131.19 Y67.222 E63.31208
G0 F6000 X131.94 Y66.94
G1 F1200 X130.709 Y64.272 E63.74599
G1 X130.512 Y63.851 E63.81463
G1 X130 Y62.698 E64.00093
G1 X129.478 Y63.874 E64.19094
G1 X128.055 Y66.951 E64.69157
G1 X126.924 Y69.561 E65.11164
G1 X125.805 Y72.313 E65.55035
G1 X124.737 Y75.143 E65.99704
G1 X123.83 Y77.722 E66.40076
G1 X122.946 Y80.428 E66.82115
G1 X122.632 Y81.447 E66.97862
G1 X122.102 Y83.237 E67.2543
G1 X121.33 Y86.036 E67.68307
G1 X120.859 Y87.89 E67.96556
G1 X120.639 Y88.797 E68.10339
G1 X119.992 Y91.667 E68.53785
G1 X119.423 Y94.482 E68.96196
G1 X118.916 Y97.355 E69.39279
G1 X118.377 Y100.961 E69.93122
G1 X118.115 Y103.041 E70.24081
G1 X117.804 Y105.967 E70.67534
G1 X117.666 Y107.549 E70.90985
G1 X117.573 Y108.804 E71.09569
G1 X117.401 Y111.732 E71.52883
G1 X117.3 Y114.634 E71.95764
G1 X117.266 Y117.495 E72.38017
G1 X117.311 Y120.801 E72.86843
G1 X117.403 Y123.306 E73.2386
G1 X117.433 Y123.784 E73.30933
G1 X117.573 Y126.196 E73.66612
G1 X117.59 Y126.402 E73.69665
G1 X117.666 Y127.451 E73.85196
G1 X117.805 Y129.033 E74.08649
G1 X118.11 Y131.915 E74.51446
G1 X118.484 Y134.825 E74.94773
G1 X118.921 Y137.676 E75.37367
G1 X119.445 Y140.626 E75.81613
G1 X119.992 Y143.333 E76.22397
G1 X120.632 Y146.171 E76.65359
G1 X120.864 Y147.131 E76.79944
G1 X121.33 Y148.965 E77.07888
G1 X122.104 Y151.776 E77.50945
G1 X122.617 Y153.507 E77.77606
G1 X122.683 Y153.714 E77.80815
G1 X122.932 Y154.527 E77.93371
G1 X123.838 Y157.301 E78.36466
G1 X124.791 Y160.007 E78.78832
G1 X125.815 Y162.708 E79.2149
G1 X127.177 Y166.035 E79.74579
G1 X128.06 Y168.06 E80.07202
G1 X129.285 Y170.715 E80.50382
G1 X129.488 Y171.149 E80.57458
G1 X130 Y172.302 E80.76088
G1 X130.522 Y171.126 E80.95088
G1 X131.945 Y168.049 E81.45152
G1 X133.085 Y165.418 E81.87495
G1 X134.195 Y162.687 E82.31029
G1 X135.263 Y159.857 E82.75698
G1 X136.17 Y157.278 E83.1607
G1 X137.058 Y154.559 E83.5831
G1 X137.368 Y153.553 E83.73856
G1 X137.898 Y151.763 E84.01424
G1 X138.67 Y148.964 E84.44302
G1 X139.141 Y147.11 E84.7255
G1 X139.361 Y146.203 E84.86333
G1 X140.008 Y143.333 E85.29779
G1 X140.577 Y140.517 E85.72205
G1 X141.084 Y137.645 E86.15273
G1 X141.623 Y134.039 E86.69116
G1 X141.885 Y131.959 E87.00075
G1 X142.196 Y129.033 E87.43528
G1 X142.334 Y127.451 E87.66979
G1 X142.427 Y126.196 E87.85563
G1 X142.599 Y123.268 E88.28877
G1 X142.7 Y120.366 E88.71758
G1 X142.734 Y117.495 E89.14159
G1 X142.689 Y114.189 E89.62985
G1 X142.597 Y111.687 E89.99958
G1 X142.567 Y111.214 E90.06957
G1 X142.428 Y108.801 E90.4265
G1 X142.332 Y107.523 E90.61576
G1 X142.194 Y105.959 E90.84762
G1 X141.889 Y103.076 E91.27574
G1 X141.514 Y100.16 E91.70991
G1 X141.077 Y97.31 E92.1357
G1 X140.548 Y94.338 E92.58149
G1 X140.006 Y91.657 E92.98542
G1 X139.36 Y88.791 E93.41927
G1 X139.135 Y87.864 E93.56014
G1 X138.664 Y86.012 E93.84234
G1 X137.896 Y83.228 E94.26883
G1 X137.368 Y81.446 E94.54329
G1 X137.316 Y81.282 E94.5687
G1 X137.055 Y80.431 E94.70015
G1 X136.156 Y77.679 E95.12768
G1 X135.206 Y74.985 E95.54953
G1 X134.17 Y72.256 E95.9806
G1 X132.815 Y68.945 E96.50891
G1 X131.94 Y66.94 E96.83197
G0 F6000 X132.666 Y66.605
G1 F1200 X131.435 Y63.937 E97.26588
G1 X131.243 Y63.526 E97.33287
G1 X130.248 Y61.285 E97.69496
G1 X130 Y60.958 E97.75557
G1 X129.752 Y61.286 E97.8163
G1 X128.752 Y63.538 E98.18017
G1 X127.329 Y66.615 E98.68081
G1 X126.183 Y69.26 E99.10649
G1 X125.064 Y72.012 E99.54521
G1 X123.973 Y74.903 E100.00153
G1 X123.084 Y77.43 E100.39712
G1 X122.18 Y80.198 E100.82713
G1 X121.865 Y81.22 E100.98506
G1 X121.335 Y83.01 E101.26074
G1 X120.559 Y85.823 E101.69167
G1 X120.084 Y87.693 E101.97659
G1 X119.859 Y88.621 E102.1176
G1 X119.212 Y91.491 E102.55207
G1 X118.635 Y94.343 E102.98177
G1 X118.128 Y97.216 E103.4126
G1 X117.59 Y100.815 E103.94998
G1 X117.317 Y102.98 E104.27223
G1 X117.008 Y105.883 E104.70335
G1 X116.871 Y107.464 E104.9377
G1 X116.773 Y108.776 E105.13199
G1 X116.602 Y111.685 E105.56232
G1 X116.501 Y114.578 E105.9898
G1 X116.466 Y117.519 E106.42415
G1 X116.512 Y120.857 E106.91713
G1 X116.602 Y123.311 E107.27977
G1 X116.634 Y123.83 E107.35656
G1 X116.772 Y126.215 E107.70935
G1 X116.792 Y126.46 E107.74565
G1 X116.869 Y127.521 E107.90275
G1 X117.009 Y129.118 E108.13949
G1 X117.316 Y132.017 E108.57
G1 X117.688 Y134.912 E109.00103
G1 X118.132 Y137.811 E109.43413
G1 X118.657 Y140.765 E109.8772
G1 X119.212 Y143.509 E110.29062
G1 X119.859 Y146.379 E110.72509
G1 X120.084 Y147.307 E110.8661
G1 X120.559 Y149.177 E111.15102
G1 X121.342 Y152.019 E111.58635
G1 X121.855 Y153.75 E111.85297
G1 X121.918 Y153.948 E111.88365
G1 X122.172 Y154.776 E112.01155
G1 X123.078 Y157.55 E112.4425
G1 X124.043 Y160.29 E112.87149
G1 X125.075 Y163.011 E113.30124
G1 X126.442 Y166.35 E113.83405
G1 X127.334 Y168.395 E114.16352
G1 X128.561 Y171.055 E114.59612
G1 X128.757 Y171.474 E114.66443
G1 X129.752 Y173.715 E115.02652
G1 X130 Y174.042 E115.08713
G1 X130.248 Y173.714 E115.14785
G1 X131.248 Y171.462 E115.51173
G1 X132.671 Y168.385 E116.01236
G1 X133.824 Y165.724 E116.44063
G1 X134.936 Y162.988 E116.87677
G1 X136.027 Y160.097 E117.33308
G1 X136.918 Y157.564 E117.72961
G1 X137.828 Y154.776 E118.16271
G1 X138.135 Y153.78 E118.31662
G1 X138.665 Y151.99 E118.5923
G1 X139.441 Y149.177 E119.02323
G1 X139.916 Y147.307 E119.30815
G1 X140.141 Y146.379 E119.44916
G1 X140.788 Y143.509 E119.88362
G1 X141.365 Y140.657 E120.31333
G1 X141.872 Y137.784 E120.74415
G1 X142.41 Y134.183 E121.28183
G1 X142.683 Y132.02 E121.60379
G1 X142.992 Y129.117 E122.03491
G1 X143.129 Y127.536 E122.26926
G1 X143.227 Y126.224 E122.46355
G1 X143.398 Y123.315 E122.89388
G1 X143.499 Y120.422 E123.32136
G1 X143.534 Y117.481 E123.7557
G1 X143.488 Y114.132 E124.25031
G1 X143.398 Y111.688 E124.61148
G1 X143.366 Y111.168 E124.68841
G1 X143.226 Y108.755 E125.04535
G1 X143.13 Y107.463 E125.23667
G1 X142.988 Y105.853 E125.47535
G1 X142.68 Y102.947 E125.9069
G1 X142.308 Y100.058 E126.33706
G1 X141.868 Y97.189 E126.76569
G1 X141.341 Y94.226 E127.21012
G1 X140.786 Y91.481 E127.62369
G1 X140.14 Y88.615 E128.05754
G1 X139.912 Y87.675 E128.20038
G1 X139.437 Y85.809 E128.48473
G1 X138.663 Y83.001 E128.91487
G1 X138.136 Y81.219 E129.18929
G1 X138.081 Y81.048 E129.21582
G1 X137.826 Y80.217 E129.34418
G1 X136.922 Y77.447 E129.77448
G1 X135.944 Y74.674 E130.2087
G1 X134.921 Y71.979 E130.63439
G1 X133.555 Y68.642 E131.16687
G1 X132.666 Y66.605 E131.49509
G0 F6000 X133.389 Y66.262
G1 F1200 X132.162 Y63.602 E131.92768
G1 X131.974 Y63.201 E131.99308
G1 X130.925 Y60.84 E132.37461
G1 X130.725 Y60.621 E132.41841
G1 X130.555 Y60.295 E132.4727
G1 X130.519 Y60.129 E132.49778
G1 X130.52 Y44.051 E134.8721
G1 X130.523 Y44.004 E134.87906
G1 X130.575 Y43.565 E134.94434
G1 X130.669 Y43.269 E134.9902
G1 X130.923 Y42.975 E135.04758
G1 X131.094 Y42.884 E135.07618
G1 X164.563 Y34.51 E140.17107
G1 X171.818 Y32.699 E141.27533
G1 X172.644 Y32.533 E141.39975
G1 X172.682 Y32.527 E141.40543
G1 X173.602 Y32.432 E141.54201
G1 X173.639 Y32.43 E141.54749
G1 X174.438 Y32.424 E141.66548
G1 X175.435 Y32.508 E141.81324
G1 X176.152 Y32.634 E141.92074
G1 X176.191 Y32.643 E141.92665
G1 X177.253 Y32.944 E142.08966
G1 X177.836 Y33.167 E142.18184
G1 X178.88 Y33.683 E142.35381
G1 X178.913 Y33.701 E142.35937
G1 X179.406 Y34.007 E142.44505
G1 X180.108 Y34.516 E142.5731
G1 X180.406 Y34.765 E142.63045
G1 X180.778 Y35.106 E142.70497
G1 X181.378 Y35.739 E142.83377
G1 X181.666 Y36.087 E142.90048
G1 X181.926 Y36.435 E142.96463
G1 X182.379 Y37.134 E143.08764
G1 X182.8 Y37.928 E143.22035
G1 X182.816 Y37.962 E143.2259
G1 X183.131 Y38.724 E143.34767
G1 X183.39 Y39.554 E143.47607
G1 X183.399 Y39.589 E143.4814
G1 X183.579 Y40.431 E143.60855
G1 X183.585 Y40.469 E143.61424
G1 X183.667 Y41.165 E143.71773
G1 X183.688 Y41.343 E143.7442
G1 X183.709 Y42.187 E143.86887
G1 X183.654 Y43.042 E143.9954
G1 X183.65 Y43.079 E144.00089
G1 X183.508 Y43.964 E144.13326
G1 X183.297 Y44.798 E144.2603
G1 X183.215 Y45.079 E144.30352
G1 X182.895 Y46.143 E144.4676
G1 X182.844 Y46.325 E144.49552
G1 X182.696 Y46.826 E144.57266
G1 X182.625 Y47.05 E144.60736
G1 X182.094 Y48.636 E144.85435
G1 X181.803 Y49.661 E145.0117
G1 X181.424 Y51.279 E145.25711
G1 X181.359 Y51.542 E145.29712
G1 X181.112 Y52.451 E145.43622
G1 X180.732 Y53.874 E145.65372
G1 X180.643 Y54.169 E145.69923
G1 X180.628 Y54.257 E145.71241
G1 X179.933 Y56.987 E146.12842
G1 X178.947 Y61.087 E146.75115
G1 X178.035 Y65.189 E147.37171
G1 X177.178 Y69.357 E148.00009
G1 X176.409 Y73.476 E148.61888
G1 X175.703 Y77.634 E149.2417
G1 X175.447 Y78.979 E149.44389
G1 X175.24 Y79.908 E149.58444
G1 X175.148 Y80.967 E149.74142
G1 X175.036 Y81.73 E149.8553
G1 X174.879 Y83.063 E150.05351
G1 X174.872 Y83.186 E150.0717
G1 X174.501 Y85.974 E150.48705
G1 X174.006 Y90.161 E151.10967
G1 X173.582 Y94.354 E151.73203
G1 X173.28 Y97.917 E152.26008
G1 X173.228 Y98.553 E152.35432
G1 X172.944 Y102.761 E152.97715
G1 X172.73 Y106.974 E153.60011
G1 X172.636 Y108.327 E153.80039
G1 X172.538 Y109.297 E153.94437
G1 X172.571 Y110.345 E154.09921
G1 X172.55 Y111.121 E154.21384
G1 X172.551 Y112.477 E154.41409
G1 X172.558 Y112.587 E154.43037
G1 X172.518 Y115.398 E154.84553
G1 X172.518 Y119.614 E155.46812
G1 X172.589 Y123.816 E156.08874
G1 X172.729 Y128.043 E156.71331
G1 X172.944 Y132.239 E157.33376
G1 X173.228 Y136.46 E157.95851
G1 X173.294 Y137.829 E158.16091
G1 X173.31 Y138.797 E158.30388
G1 X173.466 Y139.829 E158.45801
G1 X173.533 Y140.579 E158.56921
G1 X173.696 Y141.947 E158.77266
G1 X173.718 Y142.06 E158.78966
G1 X174.006 Y144.839 E159.20224
G1 X174.501 Y149.024 E159.82457
G1 X175.067 Y153.202 E160.44719
G1 X175.703 Y157.369 E161.06968
G1 X176.409 Y161.523 E161.69192
G1 X177.188 Y165.683 E162.31693
G1 X177.415 Y167.037 E162.51967
