;FLAVOR:Marlin
;TIME:7673
;Filament used: 19.2894m
;Layer height: 0.4
;MINX:29.222
;MINY:60.592
;MINZ:0.4
;MAXX:205.778
;MAXY:174.408
;MAXZ:17.16
;Generated with Cura_SteamEngine 4.8.0
M140 S100
M105
M190 S100
M104 S240
M105
M109 S240
M82 ;absolute extrusion mode
; Ender 3 Custom Start G-code
G92 E0 ; Reset Extruder
G28 ; Home all axes
G1 Z2.0 F3000 ; Move Z Axis up little to prevent scratching of Heat Bed
G1 X0.1 Y20 Z0.3 F5000.0 ; Move to start position
G1 X0.1 Y200.0 Z0.3 F1500.0 E15 ; Draw the first line
G1 X0.4 Y200.0 Z0.3 F5000.0 ; Move to side a little
G1 X0.4 Y20 Z0.3 F1500.0 E30 ; Draw the second line
G92 E0 ; Reset Extruder
G1 Z2.0 F3000 ; Move Z Axis up little to prevent scratching of Heat Bed
G1 X5 Y20 Z0.3 F5000.0 ; Move over to prevent blob squish
G92 E0
G92 E0
G1 F2700 E-5
;LAYER_COUNT:41
;LAYER:0
M107
G0 F6000 X66.556 Y117.499 Z0.4
;TYPE:SKIRT
G1 F2700 E0
G1 F1200 X67.587 Y117.976 E0.16776
G1 X70.19 Y119.104 E0.5867
G1 X72.873 Y120.195 E1.01441
G1 X75.716 Y121.269 E1.46321
G1 X78.223 Y122.151 E1.85568
G1 X80.922 Y123.032 E2.27495
G1 X81.901 Y123.334 E2.42625
G1 X83.684 Y123.862 E2.70085
G1 X86.398 Y124.611 E3.11662
G1 X88.284 Y125.09 E3.40398
G1 X89.149 Y125.3 E3.53543
G1 X91.957 Y125.933 E3.96051
G1 X94.821 Y126.512 E4.39201
G1 X97.582 Y127 E4.80606
G1 X101.133 Y127.531 E5.33628
G1 X103.238 Y127.797 E5.64961
G1 X106.137 Y128.105 E6.08013
G1 X107.643 Y128.236 E6.30337
G1 X108.914 Y128.331 E6.49159
G1 X111.783 Y128.499 E6.91599
G1 X114.646 Y128.599 E7.33904
G1 X117.494 Y128.633 E7.75965
G1 X120.778 Y128.589 E8.24466
G1 X123.229 Y128.499 E8.60685
G1 X123.693 Y128.47 E8.67551
G1 X126.077 Y128.332 E9.02816
G1 X127.356 Y128.236 E9.21756
G1 X128.894 Y128.101 E9.44556
G1 X131.736 Y127.8 E9.8676
G1 X134.587 Y127.433 E10.2921
G1 X137.443 Y126.996 E10.71876
G1 X140.309 Y126.486 E11.14865
G1 X143.034 Y125.935 E11.55921
G1 X145.851 Y125.3 E11.98565
G1 X146.716 Y125.09 E12.1171
G1 X148.556 Y124.622 E12.39747
G1 X151.356 Y123.85 E12.82639
G1 X153.092 Y123.336 E13.09375
G1 X153.248 Y123.286 E13.11794
G1 X154.092 Y123.027 E13.24832
G1 X156.788 Y122.147 E13.66712
G1 X159.469 Y121.202 E14.08691
G1 X162.145 Y120.186 E14.50962
G1 X165.414 Y118.848 E15.03124
G1 X167.426 Y117.97 E15.35542
G1 X168.444 Y117.501 E15.52094
G1 X167.404 Y117.02 E15.69015
G1 X164.81 Y115.896 E16.10764
G1 X162.128 Y114.805 E16.53522
G1 X159.271 Y113.726 E16.98621
G1 X156.782 Y112.851 E17.37582
G1 X154.078 Y111.968 E17.79589
G1 X153.099 Y111.666 E17.94718
G1 X151.309 Y111.136 E18.22287
G1 X148.602 Y110.389 E18.63756
G1 X146.715 Y109.91 E18.92506
G1 X145.851 Y109.7 E19.05637
G1 X143.043 Y109.067 E19.48145
G1 X140.179 Y108.488 E19.91295
G1 X137.418 Y108 E20.327
G1 X133.867 Y107.469 E20.85722
G1 X131.762 Y107.203 E21.17055
G1 X128.863 Y106.895 E21.60107
G1 X127.357 Y106.764 E21.82431
G1 X126.086 Y106.669 E22.01252
G1 X123.217 Y106.501 E22.43693
G1 X120.354 Y106.401 E22.85998
G1 X117.506 Y106.367 E23.28059
G1 X114.222 Y106.411 E23.7656
G1 X111.771 Y106.501 E24.12779
G1 X111.307 Y106.53 E24.19645
G1 X108.923 Y106.668 E24.54909
G1 X107.644 Y106.764 E24.7385
G1 X106.106 Y106.899 E24.9665
G1 X103.266 Y107.2 E25.38825
G1 X100.413 Y107.567 E25.81303
G1 X97.557 Y108.004 E26.2397
G1 X94.691 Y108.514 E26.66959
G1 X91.966 Y109.065 E27.08015
G1 X89.149 Y109.7 E27.50658
G1 X88.284 Y109.91 E27.63803
G1 X86.444 Y110.378 E27.91841
G1 X83.644 Y111.15 E28.34733
G1 X81.908 Y111.664 E28.61469
G1 X81.752 Y111.714 E28.63888
G1 X80.908 Y111.973 E28.76926
G1 X78.212 Y112.853 E29.18806
G1 X75.531 Y113.798 E29.60785
G1 X72.855 Y114.814 E30.03055
G1 X69.586 Y116.152 E30.55218
G1 X67.574 Y117.03 E30.87636
G1 X66.556 Y117.499 E31.04188
G0 F6000 X67.216 Y118.687
G1 F1200 X69.875 Y119.84 E31.46987
G1 X72.613 Y120.953 E31.90634
G1 X75.433 Y122.018 E32.35149
G1 X77.918 Y122.892 E32.7405
G1 X80.69 Y123.797 E33.17111
G1 X81.681 Y124.103 E33.32428
G1 X83.457 Y124.629 E33.59781
G1 X86.187 Y125.382 E34.01602
G1 X88.088 Y125.865 E34.30567
G1 X89.018 Y126.091 E34.447
G1 X91.805 Y126.72 E34.86892
G1 X94.641 Y127.293 E35.29619
G1 X97.443 Y127.788 E35.71639
G1 X101.039 Y128.326 E36.25334
G1 X103.159 Y128.593 E36.56888
G1 X106.032 Y128.899 E36.99555
G1 X107.584 Y129.034 E37.22561
G1 X108.874 Y129.13 E37.41663
G1 X111.75 Y129.299 E37.84208
G1 X114.609 Y129.399 E38.26454
G1 X117.495 Y129.434 E38.69076
G1 X120.819 Y129.388 E39.18168
G1 X123.229 Y129.3 E39.53782
G1 X126.122 Y129.131 E39.96577
G1 X127.403 Y129.035 E40.15547
G1 X128.991 Y128.895 E40.39089
G1 X131.834 Y128.595 E40.81306
G1 X134.685 Y128.228 E41.23755
G1 X137.539 Y127.791 E41.66393
G1 X140.516 Y127.261 E42.11047
G1 X143.195 Y126.72 E42.51408
G1 X145.988 Y126.09 E42.9369
G1 X146.913 Y125.865 E43.07748
G1 X148.813 Y125.382 E43.36699
G1 X151.544 Y124.629 E43.78534
G1 X153.31 Y124.106 E44.05733
G1 X153.483 Y124.051 E44.08413
G1 X154.293 Y123.802 E44.20928
G1 X157.049 Y122.903 E44.63737
G1 X159.766 Y121.945 E45.06282
G1 X162.455 Y120.925 E45.48752
G1 X165.716 Y119.589 E46.00794
G1 X167.76 Y118.698 E46.33722
G1 X170.353 Y117.501 E46.75897
G1 X167.753 Y116.299 E47.18197
G1 X165.146 Y115.169 E47.60157
G1 X162.417 Y114.059 E48.03664
G1 X159.532 Y112.97 E48.49202
G1 X157.073 Y112.105 E48.87697
G1 X154.31 Y111.203 E49.30618
G1 X153.296 Y110.89 E49.4629
G1 X151.536 Y110.369 E49.73395
G1 X148.813 Y109.618 E50.15109
G1 X146.912 Y109.135 E50.44074
G1 X145.982 Y108.909 E50.58207
G1 X143.195 Y108.28 E51.00399
G1 X140.359 Y107.707 E51.43126
G1 X137.557 Y107.212 E51.85146
G1 X133.961 Y106.674 E52.38841
G1 X131.841 Y106.407 E52.70395
G1 X128.968 Y106.101 E53.13062
G1 X127.416 Y105.966 E53.36068
G1 X126.126 Y105.87 E53.5517
G1 X123.25 Y105.701 E53.97715
G1 X120.391 Y105.601 E54.39961
G1 X117.505 Y105.566 E54.82583
G1 X114.181 Y105.612 E55.31675
G1 X111.771 Y105.7 E55.67288
G1 X108.878 Y105.869 E56.10084
G1 X107.597 Y105.965 E56.29054
G1 X106.009 Y106.105 E56.52596
G1 X103.168 Y106.405 E56.94783
G1 X100.314 Y106.772 E57.37277
G1 X97.461 Y107.209 E57.799
G1 X94.484 Y107.739 E58.24554
G1 X91.805 Y108.28 E58.64915
G1 X89.017 Y108.909 E59.07121
G1 X88.087 Y109.135 E59.21255
G1 X86.187 Y109.618 E59.50206
G1 X83.456 Y110.371 E59.9204
G1 X81.69 Y110.894 E60.1924
G1 X81.517 Y110.949 E60.2192
G1 X80.715 Y111.195 E60.34308
G1 X77.951 Y112.097 E60.77244
G1 X75.234 Y113.055 E61.19789
G1 X72.545 Y114.075 E61.62259
G1 X69.284 Y115.411 E62.14301
G1 X67.24 Y116.302 E62.47229
G1 X64.647 Y117.499 E62.89404
G1 X67.216 Y118.687 E63.31202
G0 F6000 X66.902 Y119.423
G1 F1200 X69.552 Y120.572 E63.73856
G1 X72.292 Y121.686 E64.17535
G1 X75.152 Y122.766 E64.62681
G1 X77.713 Y123.667 E65.02773
G1 X80.435 Y124.556 E65.4506
G1 X81.447 Y124.868 E65.60699
G1 X83.23 Y125.396 E65.88159
G1 X86.025 Y126.167 E66.30976
G1 X87.891 Y126.641 E66.59407
G1 X88.797 Y126.861 E66.73176
G1 X91.645 Y127.503 E67.16289
G1 X94.473 Y128.075 E67.58897
G1 X97.336 Y128.581 E68.01832
G1 X100.953 Y129.122 E68.5584
G1 X103.033 Y129.384 E68.86799
G1 X105.967 Y129.696 E69.30371
G1 X107.538 Y129.833 E69.53659
G1 X108.804 Y129.927 E69.72406
G1 X111.717 Y130.098 E70.15498
G1 X114.614 Y130.199 E70.58305
G1 X117.497 Y130.234 E71.00883
G1 X120.815 Y130.188 E71.49886
G1 X123.307 Y130.097 E71.86711
G1 X123.786 Y130.067 E71.93799
G1 X126.199 Y129.928 E72.29492
G1 X127.454 Y129.834 E72.48077
G1 X129.042 Y129.694 E72.71619
G1 X131.927 Y129.389 E73.14461
G1 X134.825 Y129.016 E73.5761
G1 X137.675 Y128.579 E74.00189
G1 X140.65 Y128.05 E74.44811
G1 X143.346 Y127.505 E74.8543
G1 X146.171 Y126.868 E75.28196
G1 X147.131 Y126.636 E75.42781
G1 X148.988 Y126.164 E75.71076
G1 X151.772 Y125.396 E76.13724
G1 X153.547 Y124.87 E76.41063
G1 X154.561 Y124.557 E76.56735
G1 X157.31 Y123.659 E76.99442
G1 X160.025 Y122.702 E77.41953
G1 X162.732 Y121.675 E77.84709
G1 X166.035 Y120.323 E78.37414
G1 X168.077 Y119.432 E78.70315
G1 X170.728 Y118.209 E79.13429
G1 X171.149 Y118.012 E79.20293
G1 X172.301 Y117.5 E79.3891
G1 X171.121 Y116.975 E79.57982
G1 X168.082 Y115.57 E80.07425
G1 X165.447 Y114.428 E80.49834
G1 X162.686 Y113.305 E80.93851
G1 X159.857 Y112.237 E81.38506
G1 X157.278 Y111.33 E81.78878
G1 X154.565 Y110.444 E82.21025
G1 X153.553 Y110.132 E82.36664
G1 X151.763 Y109.602 E82.64232
G1 X148.971 Y108.832 E83.07002
G1 X147.109 Y108.359 E83.35372
G1 X146.203 Y108.139 E83.49141
G1 X143.355 Y107.497 E83.92254
G1 X140.527 Y106.925 E84.34862
G1 X137.664 Y106.419 E84.77797
G1 X134.047 Y105.878 E85.31805
G1 X131.967 Y105.616 E85.62764
G1 X129.033 Y105.304 E86.06336
G1 X127.462 Y105.167 E86.29624
G1 X126.196 Y105.073 E86.48371
G1 X123.283 Y104.902 E86.91463
G1 X120.386 Y104.801 E87.3427
G1 X117.503 Y104.766 E87.76848
G1 X114.185 Y104.812 E88.25851
G1 X111.693 Y104.903 E88.62676
G1 X111.214 Y104.933 E88.69764
G1 X108.801 Y105.072 E89.05457
G1 X107.546 Y105.166 E89.24042
G1 X105.959 Y105.306 E89.47569
G1 X103.07 Y105.612 E89.90471
G1 X100.175 Y105.984 E90.33574
G1 X97.325 Y106.421 E90.76154
G1 X94.35 Y106.95 E91.20776
G1 X91.654 Y107.495 E91.61395
G1 X88.829 Y108.132 E92.0416
G1 X87.869 Y108.364 E92.18745
G1 X86.012 Y108.836 E92.4704
G1 X83.228 Y109.604 E92.89689
G1 X81.453 Y110.13 E93.17028
G1 X80.439 Y110.443 E93.32699
G1 X77.69 Y111.341 E93.75406
G1 X74.975 Y112.298 E94.17918
G1 X72.268 Y113.325 E94.60674
G1 X68.965 Y114.677 E95.13379
G1 X66.923 Y115.568 E95.4628
G1 X64.272 Y116.791 E95.89394
G1 X63.851 Y116.988 E95.96258
G1 X62.699 Y117.5 E96.14874
G1 X63.879 Y118.025 E96.33947
G1 X66.902 Y119.423 E96.83132
G0 F6000 X66.596 Y120.162
G1 F1200 X69.251 Y121.313 E97.25865
G1 X71.998 Y122.43 E97.69657
G1 X74.903 Y123.527 E98.15513
G1 X77.421 Y124.413 E98.54933
G1 X80.199 Y125.32 E98.98088
G1 X81.22 Y125.635 E99.13867
G1 X83.003 Y126.163 E99.41328
G1 X85.809 Y126.937 E99.84313
G1 X87.694 Y127.416 E100.13034
G1 X88.621 Y127.641 E100.27121
G1 X91.482 Y128.286 E100.70431
G1 X94.334 Y128.863 E101.13401
G1 X97.192 Y129.368 E101.56261
G1 X100.823 Y129.911 E102.10478
G1 X102.972 Y130.182 E102.42465
G1 X105.883 Y130.492 E102.85696
G1 X107.464 Y130.629 E103.09131
G1 X108.776 Y130.727 E103.2856
G1 X111.684 Y130.898 E103.71578
G1 X114.578 Y130.999 E104.14341
G1 X117.498 Y131.034 E104.57465
G1 X120.855 Y130.988 E105.07044
G1 X123.312 Y130.898 E105.43352
G1 X123.832 Y130.866 E105.51046
G1 X126.225 Y130.727 E105.86444
G1 X127.535 Y130.63 E106.05843
G1 X129.135 Y130.489 E106.29562
G1 X132.025 Y130.183 E106.72479
G1 X134.923 Y129.81 E107.15628
G1 X137.811 Y129.368 E107.58773
G1 X140.775 Y128.841 E108.0323
G1 X143.518 Y128.286 E108.44559
G1 X146.379 Y127.641 E108.87869
G1 X147.307 Y127.416 E109.0197
G1 X149.191 Y126.937 E109.30677
G1 X151.999 Y126.163 E109.73691
G1 X153.774 Y125.637 E110.0103
G1 X154.776 Y125.328 E110.16514
G1 X157.559 Y124.419 E110.59749
G1 X160.308 Y123.45 E111.02793
G1 X163.021 Y122.421 E111.45642
G1 X166.35 Y121.058 E111.98764
G1 X168.395 Y120.166 E112.31712
G1 X171.063 Y118.935 E112.75103
G1 X171.474 Y118.743 E112.81802
G1 X173.715 Y117.748 E113.18011
G1 X174.042 Y117.5 E113.24072
G1 X173.713 Y117.252 E113.30156
G1 X171.456 Y116.249 E113.66629
G1 X168.395 Y114.834 E114.16429
G1 X165.749 Y113.687 E114.59017
G1 X163.003 Y112.57 E115.02795
G1 X160.097 Y111.473 E115.48665
G1 X157.57 Y110.584 E115.88225
G1 X154.801 Y109.68 E116.3124
G1 X153.78 Y109.365 E116.47019
G1 X151.99 Y108.835 E116.74587
G1 X149.191 Y108.063 E117.17465
G1 X147.306 Y107.584 E117.46186
G1 X146.379 Y107.359 E117.60273
G1 X143.518 Y106.714 E118.03583
G1 X140.666 Y106.137 E118.46554
G1 X137.808 Y105.632 E118.89413
G1 X134.177 Y105.089 E119.4363
G1 X132.028 Y104.818 E119.75617
G1 X129.117 Y104.508 E120.18848
G1 X127.536 Y104.371 E120.42283
G1 X126.224 Y104.273 E120.61712
G1 X123.316 Y104.102 E121.0473
G1 X120.422 Y104.001 E121.47493
G1 X117.502 Y103.966 E121.90617
G1 X114.145 Y104.012 E122.40196
G1 X111.688 Y104.102 E122.76504
G1 X111.168 Y104.134 E122.84198
G1 X108.775 Y104.273 E123.19596
G1 X107.465 Y104.37 E123.38995
G1 X105.865 Y104.511 E123.62714
G1 X102.977 Y104.817 E124.05601
G1 X100.077 Y105.19 E124.4878
G1 X97.189 Y105.632 E124.91925
G1 X94.226 Y106.159 E125.36368
G1 X91.482 Y106.714 E125.7771
G1 X88.621 Y107.359 E126.21021
G1 X87.693 Y107.584 E126.35122
G1 X85.809 Y108.063 E126.63829
G1 X83.001 Y108.837 E127.06843
G1 X81.226 Y109.363 E127.34182
G1 X80.224 Y109.672 E127.49666
G1 X77.441 Y110.581 E127.92901
G1 X74.692 Y111.55 E128.35945
G1 X71.979 Y112.579 E128.78794
G1 X68.65 Y113.942 E129.31916
G1 X66.605 Y114.834 E129.64864
G1 X63.937 Y116.065 E130.08255
G1 X63.526 Y116.257 E130.14954
G1 X61.285 Y117.252 E130.51163
G1 X60.958 Y117.5 E130.57224
G1 X61.287 Y117.748 E130.63308
G1 X63.544 Y118.751 E130.99781
G1 X66.596 Y120.162 E131.49435
G0 F6000 X66.261 Y120.889
G1 F1200 X68.95 Y122.054 E131.92712
G1 X71.712 Y123.178 E132.36748
G1 X74.612 Y124.273 E132.82525
G1 X77.173 Y125.174 E133.22617
G1 X79.963 Y126.085 E133.65959
G1 X80.993 Y126.402 E133.81873
G1 X82.783 Y126.932 E134.09441
G1 X85.596 Y127.708 E134.52534
G1 X87.497 Y128.191 E134.81499
G1 X88.451 Y128.423 E134.95998
G1 X91.297 Y129.065 E135.39082
G1 X94.195 Y129.651 E135.82745
G1 X97.055 Y130.156 E136.25633
G1 X100.724 Y130.705 E136.80418
G1 X102.864 Y130.975 E137.12271
G1 X105.798 Y131.288 E137.55845
G1 X107.405 Y131.427 E137.79665
G1 X108.717 Y131.525 E137.99094
G1 X111.629 Y131.696 E138.42171
G1 X114.578 Y131.799 E138.85747
G1 X117.5 Y131.834 E139.289
G1 X120.857 Y131.788 E139.7848
G1 X123.371 Y131.696 E140.1563
G1 X126.285 Y131.525 E140.58736
G1 X127.595 Y131.428 E140.78135
G1 X129.21 Y131.285 E141.02078
G1 X132.123 Y130.977 E141.45335
G1 X135.043 Y130.601 E141.88812
G1 X137.923 Y130.16 E142.31838
G1 X140.942 Y129.623 E142.77121
G1 X143.703 Y129.065 E143.18719
G1 X146.549 Y128.423 E143.61803
G1 X147.504 Y128.191 E143.76316
G1 X149.404 Y127.708 E144.05267
G1 X152.226 Y126.93 E144.48496
G1 X154.001 Y126.405 E144.7583
G1 X154.187 Y126.346 E144.78712
G1 X155.024 Y126.089 E144.91642
G1 X157.827 Y125.174 E145.35185
G1 X160.574 Y124.205 E145.78201
G1 X163.334 Y123.158 E146.21793
G1 X166.645 Y121.802 E146.7463
G1 X168.738 Y120.889 E147.08351
G1 X171.398 Y119.662 E147.51611
G1 X171.799 Y119.474 E147.58151
G1 X174.16 Y118.425 E147.96303
G1 X174.379 Y118.225 E148.00683
G1 X174.705 Y118.055 E148.06113
G1 X174.871 Y118.019 E148.08621
G1 X190.949 Y118.02 E150.46053
G1 X190.997 Y118.023 E150.46763
G1 X191.438 Y118.076 E150.53323
G1 X191.73 Y118.169 E150.57848
G1 X192.025 Y118.423 E150.63597
G1 X192.116 Y118.594 E150.66457
G1 X200.49 Y152.063 E155.75946
G1 X202.299 Y159.308 E156.86222
G1 X202.467 Y160.144 E156.98814
G1 X202.473 Y160.182 E156.99382
G1 X202.568 Y161.1 E157.13011
G1 X202.57 Y161.137 E157.13558
G1 X202.576 Y161.938 E157.25387
G1 X202.492 Y162.935 E157.40163
G1 X202.366 Y163.652 E157.50913
G1 X202.357 Y163.691 E157.51504
G1 X202.056 Y164.753 E157.67805
G1 X201.834 Y165.334 E157.7699
G1 X201.317 Y166.38 E157.94221
G1 X201.299 Y166.413 E157.94776
G1 X200.994 Y166.905 E158.03324
G1 X200.494 Y167.595 E158.15908
G1 X200.235 Y167.906 E158.21885
G1 X199.894 Y168.279 E158.29348
G1 X199.26 Y168.877 E158.42218
G1 X198.909 Y169.169 E158.48961
G1 X198.565 Y169.426 E158.55302
G1 X197.87 Y169.877 E158.67537
G1 X197.072 Y170.3 E158.80875
G1 X197.038 Y170.316 E158.8143
G1 X196.275 Y170.631 E158.9362
G1 X195.446 Y170.89 E159.06445
G1 X194.566 Y171.079 E159.19737
G1 X194.53 Y171.085 E159.20276
G1 X193.655 Y171.188 E159.33287
G1 X192.813 Y171.209 E159.45725
G1 X191.958 Y171.154 E159.58377
G1 X191.921 Y171.15 E159.58927
G1 X191.036 Y171.008 E159.72163
G1 X190.202 Y170.797 E159.84867
G1 X189.921 Y170.715 E159.8919
G1 X188.863 Y170.397 E160.05505
G1 X188.174 Y170.196 E160.16104
G1 X187.95 Y170.125 E160.19574
G1 X186.364 Y169.594 E160.44273
G1 X185.339 Y169.303 E160.60008
G1 X183.721 Y168.924 E160.84548
G1 X183.458 Y168.859 E160.88549
G1 X182.549 Y168.612 E161.02459
G1 X181.107 Y168.227 E161.245
G1 X180.837 Y168.145 E161.28667
G1 X180.743 Y168.128 E161.30078
G1 X178.013 Y167.433 E161.71679
G1 X173.913 Y166.447 E162.33952
G1 X169.812 Y165.535 E162.95993
G1 X165.644 Y164.679 E163.58829
G1 X161.524 Y163.909 E164.20724
G1 X157.366 Y163.203 E164.83006
G1 X156.021 Y162.947 E165.03225
G1 X155.092 Y162.74 E165.1728
