;FLAVOR:Marlin
;TIME:3470
;Filament used: 9.87674m
;Layer height: 0.4
;MINX:66.41
;MINY:66.407
;MINZ:0.4
;MAXX:168.59
;MAXY:168.593
;MAXZ:10.92
;Generated with Cura_SteamEngine 99.9.1-Arachne_engine_beta
M140 S100
M105
M190 S100
M104 S240
M105
M109 S240
M82 ;absolute extrusion mode
; Ender 3 Custom Start G-code
G92 E0 ; Reset Extruder
G28 ; Home all axes
G1 Z2.0 F3000 ; Move Z Axis up little to prevent scratching of Heat Bed
G1 X0.1 Y20 Z0.3 F5000.0 ; Move to start position
G1 X0.1 Y200.0 Z0.3 F1500.0 E15 ; Draw the first line
G1 X0.4 Y200.0 Z0.3 F5000.0 ; Move to side a little
G1 X0.4 Y20 Z0.3 F1500.0 E30 ; Draw the second line
G92 E0 ; Reset Extruder
G1 Z2.0 F3000 ; Move Z Axis up little to prevent scratching of Heat Bed
G1 X5 Y20 Z0.3 F5000.0 ; Move over to prevent blob squish
G92 E0
G92 E0
G1 F2700 E-5
;LAYER_COUNT:28
;LAYER:0
M107
G0 F6000 X117.484 Y99.925 Z0.4
G0 X117.616 Y100.361
;TYPE:SKIRT
G1 F2700 E0
G1 F1200 X117.484 Y99.925 E0.06727
G1 X117.101 Y101.177 E0.26062
G1 X116.873 Y101.806 E0.35942
G1 X116.795 Y102 E0.3903
G1 X115.902 Y104.028 E0.71753
G1 X115.602 Y104.625 E0.8162
G1 X115.5 Y104.809 E0.84727
G1 X114.372 Y106.717 E1.17459
G1 X113.999 Y107.279 E1.2742
G1 X113.882 Y107.442 E1.30383
G1 X112.537 Y109.204 E1.63118
G1 X112.141 Y109.674 E1.72194
G1 X111.994 Y109.834 E1.75402
G1 X110.315 Y111.558 E2.1094
G1 X109.985 Y111.864 E2.17586
G1 X109.804 Y112.02 E2.21115
G1 X107.939 Y113.527 E2.56524
G1 X107.574 Y113.794 E2.63202
G1 X107.37 Y113.932 E2.66839
G1 X105.338 Y115.209 E3.0228
G1 X104.733 Y115.54 E3.12464
G1 X102.564 Y116.569 E3.47917
G1 X102.15 Y116.741 E3.54537
G1 X101.921 Y116.827 E3.5815
G1 X99.903 Y117.509 E3.89606
G1 X100.608 Y117.7 E4.00393
G1 X101.011 Y117.835 E4.06669
G1 X103.484 Y118.832 E4.46045
G1 X103.87 Y119.015 E4.52354
G1 X106.21 Y120.299 E4.9177
G1 X106.57 Y120.525 E4.98047
G1 X108.739 Y122.074 E5.37407
G1 X109.072 Y122.344 E5.43738
G1 X111.042 Y124.14 E5.83106
G1 X111.34 Y124.445 E5.89403
G1 X113.085 Y126.463 E6.288
G1 X113.344 Y126.801 E6.35088
G1 X114.838 Y129.01 E6.7447
G1 X115.056 Y129.378 E6.80786
G1 X116.277 Y131.748 E7.20157
G1 X116.449 Y132.138 E7.26452
G1 X117.383 Y134.639 E7.65877
G1 X117.516 Y135.075 E7.72608
G1 X117.899 Y133.823 E7.91943
G1 X118.127 Y133.194 E8.01823
G1 X118.205 Y133 E8.04911
G1 X119.098 Y130.972 E8.37634
G1 X119.398 Y130.375 E8.47501
G1 X119.5 Y130.191 E8.50608
G1 X120.628 Y128.283 E8.8334
G1 X121.001 Y127.721 E8.93301
G1 X121.118 Y127.558 E8.96264
G1 X122.463 Y125.796 E9.28998
G1 X122.859 Y125.326 E9.38074
G1 X123.006 Y125.166 E9.41283
G1 X124.685 Y123.442 E9.76821
G1 X125.015 Y123.136 E9.83467
G1 X125.196 Y122.98 E9.86996
G1 X127.061 Y121.473 E10.22404
G1 X127.426 Y121.206 E10.29083
G1 X127.63 Y121.068 E10.3272
G1 X129.662 Y119.791 E10.68161
G1 X130.267 Y119.46 E10.78345
G1 X132.436 Y118.431 E11.13798
G1 X132.85 Y118.259 E11.20418
G1 X133.079 Y118.173 E11.2403
G1 X135.097 Y117.491 E11.55487
G1 X134.392 Y117.3 E11.66274
G1 X133.989 Y117.165 E11.7255
G1 X131.516 Y116.168 E12.11926
G1 X131.13 Y115.985 E12.18235
G1 X128.79 Y114.701 E12.57651
G1 X128.43 Y114.474 E12.63936
G1 X126.26 Y112.924 E13.03317
G1 X125.927 Y112.655 E13.09638
G1 X123.956 Y110.858 E13.49026
G1 X123.658 Y110.553 E13.55323
G1 X121.915 Y108.537 E13.94679
G1 X121.656 Y108.198 E14.00979
G1 X120.161 Y105.987 E14.40394
G1 X119.943 Y105.62 E14.46697
G1 X118.722 Y103.25 E14.86068
G1 X118.549 Y102.86 E14.92368
G1 X117.616 Y100.361 E15.31761
G0 F6000 X118.366 Y100.081
G1 F1200 X118.269 Y99.765 E15.36642
G1 X117.638 Y97.176 E15.75994
G1 X117.578 Y96.848 E15.80918
G1 X117.501 Y96.21 E15.90408
G1 X117.133 Y98.23 E16.2073
G1 X116.984 Y98.823 E16.29759
G1 X116.282 Y101.103 E16.64989
G1 X116.063 Y101.677 E16.74061
G1 X115.17 Y103.705 E17.06785
G1 X114.89 Y104.259 E17.15951
G1 X113.683 Y106.31 E17.51095
G1 X113.337 Y106.83 E17.60319
G1 X111.901 Y108.719 E17.9536
G1 X111.534 Y109.153 E18.03753
G1 X109.876 Y110.868 E18.3898
G1 X109.441 Y111.277 E18.47797
G1 X109.3 Y111.399 E18.50551
G1 X107.467 Y112.881 E18.8536
G1 X106.943 Y113.256 E18.94876
G1 X104.946 Y114.512 E19.29714
G1 X104.389 Y114.817 E19.39092
G1 X102.257 Y115.83 E19.7395
G1 X101.665 Y116.069 E19.83378
G1 X99.422 Y116.822 E20.18318
G1 X98.812 Y116.987 E20.2765
G1 X96.519 Y117.467 E20.62246
G1 X96.221 Y117.516 E20.66705
G1 X97.504 Y117.707 E20.85861
G1 X97.825 Y117.774 E20.90704
G1 X100.398 Y118.472 E21.30074
G1 X100.712 Y118.577 E21.34963
G1 X103.185 Y119.574 E21.74339
G1 X103.485 Y119.716 E21.79241
G1 X105.825 Y121 E22.18657
G1 X106.105 Y121.176 E22.23541
G1 X108.274 Y122.725 E22.62901
G1 X108.533 Y122.935 E22.67825
G1 X110.503 Y124.731 E23.07192
G1 X110.735 Y124.969 E23.12101
G1 X112.48 Y126.987 E23.51498
G1 X112.681 Y127.249 E23.56374
G1 X114.175 Y129.458 E23.95756
G1 X114.345 Y129.745 E24.00682
G1 X115.566 Y132.115 E24.40053
G1 X115.7 Y132.417 E24.44932
G1 X116.634 Y134.918 E24.84357
G1 X116.731 Y135.235 E24.89252
G1 X117.362 Y137.824 E25.28605
G1 X117.422 Y138.152 E25.33529
G1 X117.499 Y138.79 E25.43019
G1 X117.867 Y136.77 E25.7334
G1 X118.016 Y136.177 E25.82369
G1 X118.718 Y133.897 E26.17599
G1 X118.937 Y133.323 E26.26672
G1 X119.83 Y131.295 E26.59395
G1 X120.11 Y130.741 E26.68562
G1 X121.317 Y128.69 E27.03706
G1 X121.663 Y128.17 E27.12929
G1 X123.099 Y126.281 E27.4797
G1 X123.466 Y125.847 E27.56364
G1 X125.124 Y124.132 E27.9159
G1 X125.559 Y123.723 E28.00408
G1 X125.7 Y123.601 E28.03161
G1 X127.533 Y122.119 E28.37971
G1 X128.057 Y121.744 E28.47486
G1 X130.054 Y120.488 E28.82325
G1 X130.611 Y120.183 E28.91703
G1 X132.743 Y119.17 E29.2656
G1 X133.335 Y118.931 E29.35988
G1 X135.578 Y118.178 E29.70928
G1 X136.188 Y118.013 E29.8026
G1 X138.481 Y117.533 E30.14856
G1 X138.779 Y117.484 E30.19316
G1 X137.496 Y117.293 E30.38471
G1 X137.175 Y117.226 E30.43314
G1 X134.602 Y116.528 E30.82684
G1 X134.288 Y116.423 E30.87573
G1 X131.815 Y115.426 E31.2695
G1 X131.515 Y115.284 E31.31851
G1 X129.175 Y114 E31.71267
G1 X128.895 Y113.823 E31.76159
G1 X126.725 Y112.273 E32.1554
G1 X126.466 Y112.064 E32.20455
G1 X124.495 Y110.267 E32.59843
G1 X124.263 Y110.029 E32.64751
G1 X122.52 Y108.013 E33.04107
G1 X122.318 Y107.75 E33.09004
G1 X120.823 Y105.539 E33.48418
G1 X120.654 Y105.253 E33.53324
G1 X119.433 Y102.883 E33.92695
G1 X119.299 Y102.58 E33.97587
G1 X118.366 Y100.081 E34.3698
G0 F6000 X119.115 Y99.802
G1 F1200 X119.046 Y99.576 E34.40469
G1 X118.415 Y96.987 E34.79821
G1 X118.372 Y96.752 E34.83349
G1 X118.053 Y94.103 E35.22751
G1 X118.039 Y93.868 E35.26228
G1 X118.033 Y91.201 E35.65613
G1 X118.047 Y90.963 E35.69133
G1 X118.359 Y88.311 E36.08567
G1 X118.4 Y88.077 E36.12075
G1 X119.023 Y85.487 E36.51414
G1 X119.092 Y85.261 E36.54903
G1 X120.018 Y82.76 E36.94287
G1 X120.113 Y82.544 E36.97772
G1 X121.327 Y80.169 E37.37161
G1 X121.448 Y79.964 E37.40676
G1 X122.936 Y77.749 E37.80082
G1 X123.08 Y77.56 E37.83591
G1 X124.818 Y75.54 E38.22943
G1 X124.982 Y75.37 E38.26431
G1 X126.949 Y73.566 E38.65845
G1 X127.133 Y73.416 E38.69351
G1 X129.296 Y71.86 E39.087
G1 X129.497 Y71.733 E39.12211
G1 X131.832 Y70.443 E39.51605
G1 X132.045 Y70.341 E39.55093
G1 X134.518 Y69.335 E39.94519
G1 X134.744 Y69.259 E39.9804
G1 X137.314 Y68.555 E40.37391
G1 X137.544 Y68.506 E40.40863
G1 X140.183 Y68.109 E40.80273
G1 X140.419 Y68.088 E40.83772
G1 X143.084 Y68.006 E41.23146
G1 X143.322 Y68.013 E41.26662
G1 X145.977 Y68.248 E41.66023
G1 X146.212 Y68.283 E41.69532
G1 X148.825 Y68.832 E42.08962
G1 X149.053 Y68.894 E42.12451
G1 X151.579 Y69.745 E42.51814
G1 X151.799 Y69.834 E42.55319
G1 X154.206 Y70.979 E42.94681
G1 X154.415 Y71.094 E42.98204
G1 X156.671 Y72.518 E43.37601
G1 X156.861 Y72.654 E43.41051
G1 X158.936 Y74.333 E43.80469
G1 X159.114 Y74.496 E43.84033
G1 X160.969 Y76.409 E44.23384
G1 X161.122 Y76.586 E44.26839
G1 X162.744 Y78.707 E44.6627
G1 X162.877 Y78.904 E44.6978
G1 X164.233 Y81.198 E45.09132
G1 X164.341 Y81.41 E45.12646
G1 X165.416 Y83.851 E45.52034
G1 X165.499 Y84.073 E45.55534
G1 X166.278 Y86.623 E45.94909
G1 X166.333 Y86.853 E45.98402
G1 X166.806 Y89.481 E46.37834
G1 X166.834 Y89.716 E46.41329
G1 X166.992 Y92.376 E46.8068
G1 X166.993 Y92.609 E46.84121
G1 X166.847 Y95.162 E47.21884
G1 X166.786 Y95.656 E47.29234
G1 X166.355 Y98.041 E47.65025
G1 X166.219 Y98.59 E47.73378
G1 X165.532 Y100.823 E48.07879
G1 X165.33 Y101.355 E48.16283
G1 X164.385 Y103.493 E48.50802
G1 X164.123 Y103.995 E48.59164
G1 X162.928 Y106.008 E48.93735
G1 X162.61 Y106.472 E49.02042
G1 X161.191 Y108.324 E49.36496
G1 X160.846 Y108.72 E49.44252
G1 X159.227 Y110.385 E49.78548
G1 X158.797 Y110.778 E49.8715
G1 X156.995 Y112.235 E50.21371
G1 X156.516 Y112.579 E50.3008
G1 X154.555 Y113.814 E50.64304
G1 X154.045 Y114.095 E50.72903
G1 X151.95 Y115.091 E51.07159
G1 X151.409 Y115.311 E51.15783
G1 X149.206 Y116.052 E51.50107
G1 X148.647 Y116.204 E51.58662
G1 X146.389 Y116.677 E51.92731
G1 X145.84 Y116.762 E52.00935
G1 X143.564 Y116.963 E52.34676
G1 X142.993 Y116.987 E52.43116
G1 X140.732 Y116.921 E52.7652
G1 X140.364 Y116.902 E52.81961
G1 X140.172 Y116.883 E52.84811
G1 X137.613 Y116.502 E53.23017
G1 X137.384 Y116.454 E53.26472
G1 X134.811 Y115.756 E53.65842
G1 X134.587 Y115.681 E53.69331
G1 X132.114 Y114.684 E54.08707
G1 X131.9 Y114.582 E54.12208
G1 X129.56 Y113.298 E54.51624
G1 X129.36 Y113.172 E54.55115
G1 X127.19 Y111.622 E54.94496
G1 X127.005 Y111.473 E54.98004
G1 X125.034 Y109.676 E55.37392
G1 X124.868 Y109.506 E55.40901
G1 X123.125 Y107.49 E55.80256
G1 X122.981 Y107.302 E55.83754
G1 X121.486 Y105.091 E56.23168
G1 X121.365 Y104.887 E56.26671
G1 X120.144 Y102.517 E56.66041
G1 X120.048 Y102.301 E56.69532
G1 X119.115 Y99.802 E57.08924
G0 F6000 X119.865 Y99.522
G1 F1200 X119.823 Y99.386 E57.11026
G1 X119.192 Y96.797 E57.50378
G1 X119.167 Y96.656 E57.52493
G1 X118.848 Y94.007 E57.91895
G1 X118.839 Y93.867 E57.93966
G1 X118.833 Y91.2 E58.33351
G1 X118.841 Y91.057 E58.35466
G1 X119.153 Y88.405 E58.749
G1 X119.178 Y88.264 E58.77015
G1 X119.801 Y85.674 E59.16353
G1 X119.843 Y85.538 E59.18455
G1 X120.769 Y83.037 E59.57839
G1 X120.825 Y82.908 E59.59916
G1 X122.039 Y80.533 E59.99305
G1 X122.112 Y80.41 E60.01417
G1 X123.6 Y78.195 E60.40823
G1 X123.686 Y78.081 E60.42932
G1 X125.424 Y76.061 E60.82284
G1 X125.523 Y75.96 E60.84372
G1 X127.49 Y74.156 E61.23787
G1 X127.6 Y74.066 E61.25886
G1 X129.763 Y72.51 E61.65234
G1 X129.884 Y72.434 E61.67344
G1 X132.219 Y71.144 E62.06738
G1 X132.347 Y71.082 E62.08839
G1 X134.82 Y70.076 E62.48265
G1 X134.955 Y70.031 E62.50366
G1 X137.525 Y69.327 E62.89717
G1 X137.663 Y69.297 E62.91802
G1 X140.302 Y68.9 E63.31212
G1 X140.444 Y68.888 E63.33317
G1 X143.109 Y68.806 E63.72691
G1 X143.252 Y68.81 E63.74803
G1 X145.907 Y69.045 E64.14164
G1 X146.048 Y69.066 E64.1627
G1 X148.661 Y69.615 E64.557
G1 X148.797 Y69.652 E64.57781
G1 X151.323 Y70.503 E64.97144
G1 X151.455 Y70.556 E64.99244
G1 X153.862 Y71.701 E65.38606
G1 X153.988 Y71.77 E65.40728
G1 X156.244 Y73.194 E65.80125
G1 X156.358 Y73.276 E65.82199
G1 X158.433 Y74.955 E66.21616
G1 X158.539 Y75.053 E66.23748
G1 X160.394 Y76.966 E66.63099
G1 X160.486 Y77.072 E66.65172
G1 X162.108 Y79.193 E67.04603
G1 X162.188 Y79.311 E67.06708
G1 X163.544 Y81.605 E67.4606
G1 X163.609 Y81.732 E67.48167
G1 X164.684 Y84.173 E67.87556
G1 X164.734 Y84.306 E67.89654
G1 X165.513 Y86.856 E68.29029
G1 X165.546 Y86.994 E68.31124
G1 X166.019 Y89.622 E68.70557
G1 X166.036 Y89.764 E68.72669
G1 X166.194 Y92.424 E69.1202
G1 X166.194 Y92.564 E69.14087
G1 X166.039 Y95.209 E69.53214
G1 X165.985 Y95.599 E69.59028
G1 X165.578 Y97.852 E69.92838
G1 X165.454 Y98.356 E70.00503
G1 X164.782 Y100.544 E70.34304
G1 X164.598 Y101.033 E70.42019
G1 X163.674 Y103.126 E70.75806
G1 X163.434 Y103.588 E70.83494
G1 X162.266 Y105.559 E71.17328
G1 X161.974 Y105.986 E71.24967
G1 X160.585 Y107.802 E71.5873
G1 X160.272 Y108.163 E71.65786
G1 X158.683 Y109.798 E71.99455
G1 X158.293 Y110.156 E72.07273
G1 X156.522 Y111.59 E72.40924
G1 X156.089 Y111.903 E72.48814
G1 X154.163 Y113.116 E72.82427
G1 X153.7 Y113.373 E72.90247
G1 X151.643 Y114.352 E73.23889
G1 X151.153 Y114.553 E73.3171
G1 X148.991 Y115.282 E73.65404
G1 X148.482 Y115.421 E73.73196
G1 X146.259 Y115.888 E74.0674
G1 X145.769 Y115.965 E74.14065
G1 X143.521 Y116.164 E74.47392
G1 X143.016 Y116.187 E74.54858
G1 X140.773 Y116.122 E74.87995
G1 X140.29 Y116.092 E74.95142
G1 X137.731 Y115.711 E75.33348
G1 X137.594 Y115.682 E75.35416
G1 X135.021 Y114.984 E75.74786
G1 X134.886 Y114.939 E75.76888
G1 X132.413 Y113.942 E76.16264
G1 X132.285 Y113.881 E76.18358
G1 X129.945 Y112.597 E76.57774
G1 X129.825 Y112.521 E76.59872
G1 X127.655 Y110.971 E76.99253
G1 X127.544 Y110.882 E77.01354
G1 X125.573 Y109.085 E77.40742
G1 X125.473 Y108.983 E77.42851
G1 X123.73 Y106.967 E77.82207
G1 X123.644 Y106.854 E77.84304
G1 X122.149 Y104.643 E78.23718
G1 X122.076 Y104.521 E78.25818
G1 X120.855 Y102.151 E78.65188
G1 X120.798 Y102.021 E78.67285
G1 X119.865 Y99.522 E79.06677
G0 F6000 X120.6 Y99.197
G1 F1200 X119.961 Y96.561 E79.46731
G1 X119.639 Y93.865 E79.86828
G1 X119.636 Y91.15 E80.26921
G1 X119.956 Y88.451 E80.67058
G1 X120.593 Y85.816 E81.07091
G1 X121.538 Y83.272 E81.47168
G1 X122.776 Y80.856 E81.87258
G1 X124.293 Y78.603 E82.27368
G1 X126.064 Y76.549 E82.67418
G1 X128.067 Y74.715 E83.07524
G1 X130.271 Y73.134 E83.4758
G1 X132.648 Y71.823 E83.87667
G1 X135.166 Y70.802 E84.27792
G1 X137.782 Y70.088 E84.67837
G1 X140.469 Y69.687 E85.07957
G1 X143.134 Y69.605 E85.47331
G1 X145.883 Y69.849 E85.88086
G1 X148.542 Y70.41 E86.28217
G1 X151.112 Y71.279 E86.68281
G1 X153.561 Y72.447 E87.08349
G1 X155.855 Y73.898 E87.48433
G1 X157.965 Y75.61 E87.88559
G1 X159.851 Y77.558 E88.286
G1 X161.499 Y79.718 E88.68722
G1 X162.877 Y82.055 E89.08786
G1 X163.969 Y84.54 E89.4887
G1 X164.759 Y87.136 E89.88942
G1 X165.237 Y89.811 E90.29071
G1 X165.395 Y92.518 E90.69115
G1 X165.246 Y95.102 E91.07337
G1 X165.198 Y95.458 E91.12642
G1 X164.801 Y97.663 E91.45728
G1 X164.689 Y98.122 E91.52705
G1 X164.033 Y100.265 E91.85802
G1 X163.866 Y100.71 E91.92821
G1 X162.963 Y102.76 E92.25901
G1 X162.745 Y103.181 E92.32902
G1 X161.604 Y105.11 E92.65999
G1 X161.338 Y105.501 E92.72982
G1 X159.978 Y107.281 E93.06063
G1 X159.698 Y107.606 E93.12398
G1 X158.139 Y109.211 E93.4544
G1 X157.789 Y109.535 E93.52484
G1 X156.05 Y110.944 E93.85536
G1 X155.662 Y111.226 E93.92619
G1 X153.772 Y112.419 E94.25625
G1 X153.356 Y112.651 E94.32659
G1 X151.336 Y113.613 E94.65699
G1 X150.897 Y113.795 E94.72717
G1 X148.775 Y114.511 E95.0579
G1 X148.317 Y114.638 E95.12809
G1 X146.129 Y115.099 E95.45829
G1 X145.698 Y115.168 E95.52275
G1 X143.478 Y115.365 E95.85188
G1 X143.039 Y115.388 E95.9168
G1 X140.814 Y115.323 E96.24551
G1 X140.408 Y115.301 E96.30556
G1 X137.803 Y114.91 E96.69456
G1 X135.185 Y114.197 E97.09525
G1 X132.67 Y113.18 E97.49587
G1 X130.29 Y111.87 E97.89706
G1 X128.083 Y110.291 E98.29781
G1 X126.078 Y108.46 E98.69878
G1 X124.307 Y106.406 E99.09929
G1 X122.787 Y104.154 E99.50052
G1 X121.547 Y101.741 E99.90115
G1 X120.6 Y99.197 E100.30202
G1 F2700 E95.30202
G0 F6000 X116.355 Y98.041
G1 F2700 E100.30202
G1 F1200 X116.219 Y98.59 E100.38555
G1 X115.532 Y100.823 E100.73056
G1 X115.33 Y101.355 E100.81459
G1 X114.385 Y103.493 E101.15979
G1 X114.123 Y103.995 E101.24341
G1 X112.928 Y106.008 E101.58912
G1 X112.61 Y106.472 E101.67218
G1 X111.191 Y108.324 E102.01673
G1 X110.846 Y108.72 E102.09429
G1 X109.227 Y110.385 E102.43724
G1 X108.797 Y110.778 E102.52327
G1 X106.995 Y112.235 E102.86548
G1 X106.516 Y112.579 E102.95257
G1 X104.555 Y113.814 E103.29481
G1 X104.045 Y114.095 E103.3808
G1 X101.95 Y115.091 E103.72336
G1 X101.409 Y115.311 E103.8096
G1 X99.206 Y116.052 E104.15284
G1 X98.647 Y116.204 E104.23839
G1 X96.389 Y116.677 E104.57908
G1 X95.84 Y116.762 E104.66112
G1 X93.564 Y116.963 E104.99853
G1 X92.993 Y116.987 E105.08293
G1 X90.732 Y116.921 E105.41697
G1 X90.364 Y116.902 E105.47138
G1 X90.172 Y116.883 E105.49987
G1 X87.613 Y116.502 E105.88194
G1 X87.384 Y116.454 E105.91649
G1 X84.811 Y115.756 E106.31019
G1 X84.587 Y115.681 E106.34508
G1 X82.114 Y114.684 E106.73884
G1 X81.9 Y114.582 E106.77385
G1 X79.56 Y113.298 E107.16801
G1 X79.36 Y113.172 E107.20292
G1 X77.19 Y111.622 E107.59673
G1 X77.005 Y111.473 E107.63181
