;FLAVOR:Marlin
;TIME:5140
;Filament used: 13.3871m
;Layer height: 0.4
;MINX:44.47
;MINY:77.087
;MINZ:0.4
;MAXX:190.53
;MAXY:157.913
;MAXZ:19.28
;Generated with Cura_SteamEngine 4.8.0
M140 S100
M105
M190 S100
M104 S240
M105
M109 S240
M82 ;absolute extrusion mode
; Ender 3 Custom Start G-code
G92 E0 ; Reset Extruder
G28 ; Home all axes
G1 Z2.0 F3000 ; Move Z Axis up little to prevent scratching of Heat Bed
G1 X0.1 Y20 Z0.3 F5000.0 ; Move to start position
G1 X0.1 Y200.0 Z0.3 F1500.0 E15 ; Draw the first line
G1 X0.4 Y200.0 Z0.3 F5000.0 ; Move to side a little
G1 X0.4 Y20 Z0.3 F1500.0 E30 ; Draw the second line
G92 E0 ; Reset Extruder
G1 Z2.0 F3000 ; Move Z Axis up little to prevent scratching of Heat Bed
G1 X5 Y20 Z0.3 F5000.0 ; Move over to prevent blob squish
G92 E0
G92 E0
G1 F2700 E-5
;LAYER_COUNT:49
;LAYER:0
M107
G0 F6000 X50.603 Y79.06 Z0.4
;TYPE:SKIRT
G1 F2700 E0
G1 F1200 X50.942 Y78.86 E0.05812
G1 X52.096 Y78.264 E0.24993
G1 X52.408 Y78.122 E0.30055
G1 X52.929 Y77.913 E0.38345
G1 X53.293 Y77.789 E0.44024
G1 X54.621 Y77.415 E0.64398
G1 X55.005 Y77.329 E0.70209
G1 X55.285 Y77.291 E0.74382
G1 X57.211 Y77.104 E1.02958
G1 X57.559 Y77.087 E1.08103
G1 X57.599 Y77.087 E1.08694
G1 X58.002 Y77.11 E1.14655
G1 X59.918 Y77.326 E1.43128
G1 X60.324 Y77.395 E1.4921
G1 X60.363 Y77.404 E1.49801
G1 X60.691 Y77.496 E1.54832
G1 X62.518 Y78.104 E1.83267
G1 X62.884 Y78.249 E1.8908
G1 X62.921 Y78.266 E1.89682
G1 X63.244 Y78.434 E1.95058
G1 X64.938 Y79.431 E2.24085
G1 X65.118 Y79.544 E2.27224
G1 X66.084 Y80.193 E2.4441
G1 X70.55 Y83.215 E3.24042
G1 X75.944 Y86.456 E4.1697
G1 X81.115 Y89.198 E5.03405
G1 X86.202 Y91.539 E5.861
G1 X91.322 Y93.546 E6.67311
G1 X91.542 Y93.651 E6.70911
G1 X92.052 Y93.816 E6.78827
G1 X92.286 Y93.934 E6.82697
G1 X92.65 Y94.044 E6.88312
G1 X92.953 Y94.151 E6.93058
G1 X93.417 Y94.337 E7.0044
G1 X93.753 Y94.458 E7.05714
G1 X94.028 Y94.518 E7.0987
G1 X94.259 Y94.577 E7.13391
G1 X94.78 Y94.727 E7.21398
G1 X94.99 Y94.794 E7.24653
G1 X95.443 Y94.955 E7.31752
G1 X95.646 Y94.986 E7.34785
G1 X96.04 Y95.082 E7.40774
G1 X96.196 Y95.124 E7.43159
G1 X96.861 Y95.318 E7.53389
G1 X97.308 Y95.485 E7.60436
G1 X97.555 Y95.543 E7.64183
G1 X97.866 Y95.631 E7.68956
G1 X98.329 Y95.784 E7.76157
G1 X98.655 Y95.88 E7.81175
G1 X98.911 Y95.918 E7.84997
G1 X99.176 Y95.968 E7.8898
G1 X99.702 Y96.087 E7.96944
G1 X99.902 Y96.138 E7.99992
G1 X100.33 Y96.261 E8.06568
G1 X100.53 Y96.28 E8.09535
G1 X100.942 Y96.353 E8.15714
G1 X101.106 Y96.386 E8.18184
G1 X101.74 Y96.529 E8.27782
G1 X102.185 Y96.665 E8.34653
G1 X102.42 Y96.705 E8.38174
G1 X102.739 Y96.774 E8.42993
G1 X103.221 Y96.901 E8.50354
G1 X103.504 Y96.965 E8.54639
G1 X103.763 Y96.987 E8.58478
G1 X104.02 Y97.018 E8.623
G1 X104.544 Y97.101 E8.70135
G1 X104.758 Y97.142 E8.73353
G1 X105.18 Y97.235 E8.79734
G1 X105.373 Y97.242 E8.82586
G1 X105.785 Y97.288 E8.88708
G1 X105.958 Y97.312 E8.91287
G1 X106.586 Y97.413 E9.00681
G1 X107.013 Y97.515 E9.07164
G1 X107.234 Y97.537 E9.10443
G1 X107.585 Y97.59 E9.15686
G1 X108.039 Y97.682 E9.22526
G1 X108.32 Y97.726 E9.26727
G1 X108.571 Y97.731 E9.30434
G1 X108.825 Y97.745 E9.34191
G1 X109.341 Y97.792 E9.41842
G1 X109.575 Y97.821 E9.45324
G1 X110.11 Y97.905 E9.53322
G1 X110.53 Y97.915 E9.59526
G1 X111.063 Y97.967 E9.67434
G1 X111.173 Y97.992 E9.691
G1 X112.109 Y98.047 E9.82946
G1 X112.268 Y98.054 E9.85297
G1 X112.6 Y98.084 E9.90219
G1 X112.9 Y98.108 E9.94664
G1 X113.484 Y98.103 E10.03288
G1 X113.956 Y98.13 E10.1027
G1 X114.062 Y98.143 E10.11847
G1 X114.941 Y98.235 E10.24899
G1 X115.333 Y98.203 E10.30707
G1 X115.399 Y98.203 E10.31681
G1 X115.899 Y98.249 E10.39096
G1 X116.895 Y98.242 E10.53805
G1 X117.036 Y98.239 E10.55888
G1 X117.371 Y98.247 E10.60836
G1 X117.656 Y98.253 E10.65046
G1 X118.211 Y98.211 E10.73265
G1 X118.625 Y98.204 E10.7938
G1 X119.699 Y98.246 E10.95252
G1 X120.112 Y98.187 E11.01413
G1 X120.175 Y98.183 E11.02345
G1 X120.745 Y98.194 E11.10765
G1 X121.842 Y98.116 E11.27005
G1 X121.982 Y98.103 E11.29082
G1 X122.292 Y98.088 E11.33665
G1 X122.58 Y98.087 E11.37918
G1 X122.717 Y98.065 E11.39967
G1 X123.373 Y97.975 E11.49745
G1 X123.782 Y97.943 E11.55804
G1 X123.956 Y97.939 E11.58374
G1 X124.92 Y97.903 E11.7262
G1 X125.255 Y97.817 E11.77727
G1 X125.531 Y97.779 E11.81842
G1 X125.623 Y97.77 E11.83207
G1 X126.16 Y97.758 E11.91139
G1 X126.184 Y97.76 E11.91494
G1 X126.742 Y97.679 E11.99821
G1 X127.169 Y97.572 E12.06322
G1 X127.224 Y97.562 E12.07147
G1 X127.703 Y97.508 E12.14266
G1 X127.905 Y97.499 E12.17252
G1 X128.196 Y97.44 E12.21636
G1 X128.872 Y97.373 E12.31668
G1 X129.226 Y97.317 E12.36961
G1 X129.531 Y97.272 E12.41514
G1 X129.732 Y97.217 E12.44591
G1 X130.025 Y97.145 E12.49047
G1 X130.251 Y97.097 E12.52459
G1 X130.749 Y97.008 E12.59929
G1 X131.012 Y96.971 E12.63851
G1 X131.293 Y96.942 E12.68023
G1 X131.502 Y96.936 E12.71111
G1 X132.087 Y96.808 E12.79954
G1 X132.437 Y96.691 E12.85404
G1 X132.484 Y96.678 E12.86124
G1 X133.051 Y96.57 E12.94648
G1 X133.225 Y96.551 E12.97233
G1 X133.497 Y96.474 E13.01407
G1 X134.227 Y96.346 E13.12352
G1 X134.563 Y96.268 E13.17446
G1 X134.873 Y96.201 E13.22129
G1 X135.093 Y96.124 E13.25572
G1 X135.389 Y96.031 E13.30153
G1 X135.585 Y95.975 E13.33164
G1 X136.087 Y95.848 E13.40811
G1 X136.231 Y95.815 E13.42992
G1 X136.479 Y95.763 E13.46734
G1 X136.903 Y95.706 E13.53052
G1 X137.457 Y95.544 E13.61576
G1 X137.967 Y95.349 E13.69639
G1 X138.014 Y95.335 E13.70363
G1 X138.354 Y95.251 E13.75535
G1 X138.584 Y95.206 E13.78996
G1 X138.899 Y95.096 E13.83923
G1 X139.186 Y95.009 E13.88352
G1 X139.583 Y94.929 E13.94332
G1 X139.949 Y94.818 E13.9998
G1 X140.26 Y94.729 E14.04757
G1 X140.47 Y94.638 E14.08137
G1 X140.766 Y94.521 E14.12838
G1 X140.981 Y94.444 E14.1621
G1 X141.491 Y94.279 E14.24126
G1 X141.621 Y94.239 E14.26134
G1 X141.901 Y94.16 E14.30431
G1 X142.32 Y94.075 E14.36744
G1 X142.891 Y93.864 E14.45734
G1 X143.221 Y93.702 E14.51163
G1 X143.27 Y93.681 E14.5195
G1 X143.788 Y93.504 E14.60034
G1 X144.007 Y93.447 E14.63376
G1 X144.326 Y93.311 E14.68497
G1 X144.74 Y93.163 E14.74989
G1 X145.022 Y93.091 E14.79287
G1 X145.381 Y92.955 E14.84957
G1 X145.717 Y92.833 E14.90235
G1 X145.932 Y92.725 E14.93789
G1 X146.224 Y92.589 E14.98545
G1 X146.402 Y92.512 E15.01409
G1 X146.952 Y92.291 E15.10163
G1 X147.077 Y92.243 E15.1214
G1 X147.372 Y92.137 E15.16769
G1 X147.808 Y92.016 E15.23451
G1 X148.401 Y91.753 E15.33031
G1 X148.45 Y91.722 E15.33887
G1 X148.845 Y91.508 E15.40521
G1 X148.886 Y91.489 E15.41189
G1 X149.268 Y91.338 E15.47255
G1 X149.494 Y91.263 E15.50771
G1 X149.853 Y91.084 E15.56695
G1 X150.139 Y90.956 E15.61322
G1 X150.177 Y90.941 E15.61926
G1 X150.52 Y90.827 E15.67263
G1 X150.891 Y90.658 E15.73284
G1 X151.241 Y90.505 E15.78925
G1 X151.303 Y90.467 E15.79998
G1 X151.524 Y90.342 E15.83748
G1 X151.7 Y90.251 E15.86674
G1 X151.957 Y90.114 E15.90975
G1 X152.586 Y89.817 E16.01247
G1 X152.86 Y89.697 E16.05664
G1 X154.32 Y88.967 E16.2977
G1 X155.11 Y88.562 E16.4288
G1 X155.336 Y88.456 E16.46566
G1 X156.35 Y88.022 E16.62854
G1 X156.546 Y87.909 E16.66195
G1 X157.051 Y87.624 E16.74758
G1 X157.169 Y87.545 E16.76855
G1 X157.683 Y87.223 E16.85812
G1 X158.026 Y87.02 E16.91698
G1 X158.208 Y86.92 E16.94765
G1 X158.521 Y86.758 E16.9997
G1 X159.996 Y85.907 E17.25117
G1 X160.776 Y85.445 E17.38505
G1 X161 Y85.323 E17.42271
G1 X162.031 Y84.807 E17.59297
G1 X162.516 Y84.491 E17.67845
G1 X162.738 Y84.35 E17.71729
G1 X162.88 Y84.243 E17.74355
G1 X163.354 Y83.908 E17.82926
G1 X163.711 Y83.669 E17.89271
G1 X163.888 Y83.558 E17.92356
G1 X164.185 Y83.383 E17.97447
G1 X165.335 Y82.625 E18.17786
G1 X165.549 Y82.492 E18.21507
G1 X166.039 Y82.205 E18.29893
G1 X166.455 Y81.972 E18.36934
G1 X166.778 Y81.765 E18.426
G1 X167.022 Y81.612 E18.46853
G1 X167.529 Y81.203 E18.56473
G1 X167.631 Y81.124 E18.58378
G1 X167.925 Y80.904 E18.638
G1 X168.052 Y80.813 E18.66108
G1 X168.697 Y80.372 E18.77646
G1 X169.863 Y79.568 E18.98562
G1 X170.044 Y79.451 E19.01745
G1 X171.379 Y78.645 E19.24774
G1 X171.631 Y78.495 E19.29104
G1 X172.01 Y78.298 E19.35412
G1 X172.046 Y78.282 E19.35994
G1 X172.306 Y78.179 E19.40124
G1 X174.019 Y77.572 E19.66962
G1 X174.348 Y77.472 E19.7204
G1 X174.384 Y77.463 E19.72588
G1 X174.743 Y77.393 E19.77989
G1 X176.545 Y77.133 E20.04876
G1 X176.964 Y77.097 E20.11086
G1 X177.29 Y77.1 E20.15901
G1 X179.096 Y77.197 E20.42609
G1 X179.424 Y77.23 E20.47477
G1 X179.465 Y77.236 E20.48089
G1 X179.836 Y77.31 E20.53676
G1 X181.604 Y77.762 E20.80624
G1 X182.037 Y77.903 E20.87349
G1 X182.585 Y78.12 E20.96053
G1 X182.912 Y78.269 E21.0136
G1 X184.058 Y78.861 E21.20408
G1 X184.397 Y79.06 E21.26213
G1 X184.977 Y79.445 E21.36494
G1 X185.254 Y79.648 E21.41565
G1 X186.155 Y80.379 E21.58699
G1 X186.428 Y80.625 E21.64126
G1 X186.991 Y81.186 E21.75863
G1 X187.231 Y81.45 E21.81132
G1 X187.891 Y82.253 E21.96481
G1 X188.114 Y82.555 E22.02025
G1 X188.626 Y83.33 E22.15742
G1 X188.806 Y83.634 E22.20959
G1 X189.237 Y84.451 E22.346
G1 X189.396 Y84.794 E22.40183
G1 X189.788 Y85.774 E22.5577
G1 X189.902 Y86.107 E22.60968
G1 X190.125 Y86.875 E22.72778
G1 X190.21 Y87.238 E22.78284
G1 X190.418 Y88.387 E22.95527
G1 X190.465 Y88.744 E23.00845
G1 X190.52 Y89.438 E23.11125
G1 X190.53 Y89.81 E23.16621
G1 X190.499 Y91.085 E23.35455
G1 X190.473 Y91.437 E23.40667
G1 X190.401 Y92.022 E23.49372
G1 X190.334 Y92.401 E23.55055
G1 X190.021 Y93.741 E23.75376
G1 X189.974 Y93.922 E23.78138
G1 X189.811 Y94.384 E23.85373
G1 X189.047 Y96.155 E24.13856
G1 X188.851 Y96.543 E24.20275
G1 X188.83 Y96.579 E24.20891
G1 X188.657 Y96.846 E24.25589
G1 X187.543 Y98.418 E24.54041
G1 X187.315 Y98.708 E24.59489
G1 X187.287 Y98.74 E24.60117
G1 X187.019 Y99.015 E24.65788
G1 X185.601 Y100.323 E24.94276
G1 X185.347 Y100.537 E24.99181
G1 X185.313 Y100.563 E24.99813
G1 X184.963 Y100.799 E25.06047
G1 X183.271 Y101.803 E25.35101
G1 X182.94 Y101.977 E25.40624
G1 X160.289 Y112.411 E29.08905
G1 X160.289 Y114.891 E29.45528
G1 X160.249 Y115.426 E29.53451
G1 X160.13 Y115.949 E29.61372
G1 X159.935 Y116.448 E29.69284
G1 X159.667 Y116.913 E29.77209
G1 X159.235 Y117.437 E29.87238
G1 X159.173 Y117.5 E29.88543
G1 X159.236 Y117.563 E29.89859
G1 X159.585 Y117.97 E29.97777
G1 X159.871 Y118.424 E30.05701
G1 X160.086 Y118.915 E30.13616
G1 X160.226 Y119.433 E30.2154
G1 X160.29 Y120.109 E30.31568
G1 X160.29 Y122.59 E30.68206
G1 X182.963 Y133.033 E34.36838
G1 X183.28 Y133.198 E34.42115
G1 X184.854 Y134.122 E34.69069
G1 X185.122 Y134.297 E34.73795
G1 X185.457 Y134.56 E34.80085
G1 X186.817 Y135.77 E35.06967
G1 X187.104 Y136.057 E35.12961
G1 X187.324 Y136.321 E35.18036
G1 X188.24 Y137.536 E35.40506
G1 X188.395 Y137.737 E35.44254
G1 X188.623 Y138.069 E35.50202
G1 X188.643 Y138.102 E35.50772
G1 X188.806 Y138.403 E35.55827
G1 X189.594 Y140.036 E35.82603
G1 X189.723 Y140.337 E35.87439
G1 X189.738 Y140.377 E35.8807
G1 X189.851 Y140.736 E35.93628
G1 X190.308 Y142.496 E36.2048
G1 X190.359 Y142.72 E36.23873
G1 X190.404 Y142.999 E36.28046
G1 X190.463 Y143.487 E36.35305
G1 X190.499 Y143.914 E36.41633
G1 X190.53 Y145.188 E36.60453
G1 X190.52 Y145.56 E36.65948
G1 X190.465 Y146.254 E36.76229
G1 X190.419 Y146.61 E36.8153
G1 X190.211 Y147.761 E36.98803
G1 X190.125 Y148.126 E37.0434
G1 X189.902 Y148.893 E37.16136
G1 X189.788 Y149.223 E37.21292
G1 X189.397 Y150.202 E37.3686
G1 X189.238 Y150.547 E37.4247
G1 X188.807 Y151.364 E37.56111
G1 X188.627 Y151.668 E37.61328
G1 X188.114 Y152.445 E37.75078
G1 X187.891 Y152.747 E37.80621
G1 X187.232 Y153.549 E37.9595
G1 X186.988 Y153.817 E38.01303
G1 X186.409 Y154.392 E38.13353
G1 X186.135 Y154.638 E38.18791
G1 X185.234 Y155.366 E38.35897
G1 X184.962 Y155.565 E38.40874
G1 X184.397 Y155.94 E38.50888
G1 X184.058 Y156.14 E38.567
G1 X182.904 Y156.736 E38.75881
G1 X182.592 Y156.878 E38.80943
G1 X182.071 Y157.087 E38.89233
G1 X181.707 Y157.211 E38.94912
G1 X180.379 Y157.585 E39.15286
G1 X179.995 Y157.671 E39.21097
G1 X179.715 Y157.709 E39.2527
G1 X177.789 Y157.896 E39.53846
G1 X177.441 Y157.913 E39.58991
G1 X177.401 Y157.913 E39.59582
G1 X176.998 Y157.89 E39.65543
G1 X175.082 Y157.674 E39.94016
G1 X174.676 Y157.605 E40.00098
G1 X174.637 Y157.596 E40.00689
G1 X174.309 Y157.504 E40.0572
G1 X172.482 Y156.896 E40.34155
G1 X172.11 Y156.749 E40.40061
G1 X172.071 Y156.731 E40.40696
G1 X171.754 Y156.564 E40.45987
G1 X170.062 Y155.568 E40.74981
G1 X169.882 Y155.455 E40.7812
G1 X168.915 Y154.806 E40.95318
G1 X164.451 Y151.785 E41.74917
G1 X159.056 Y148.544 E42.67859
G1 X153.885 Y145.802 E43.54293
G1 X148.798 Y143.461 E44.36988
G1 X143.678 Y141.454 E45.18199
G1 X143.458 Y141.349 E45.21799
G1 X142.948 Y141.184 E45.29715
G1 X142.714 Y141.066 E45.33585
G1 X142.35 Y140.956 E45.39201
G1 X142.045 Y140.849 E45.43974
G1 X141.548 Y140.649 E45.51885
G1 X141.253 Y140.543 E45.56514
G1 X140.972 Y140.482 E45.60761
G1 X140.741 Y140.423 E45.64281
G1 X140.22 Y140.273 E45.72288
G1 X140.01 Y140.206 E45.75543
G1 X139.557 Y140.045 E45.82643
G1 X139.354 Y140.014 E45.85675
G1 X138.96 Y139.918 E45.91664
G1 X138.804 Y139.876 E45.9405
G1 X138.139 Y139.682 E46.04279
G1 X137.691 Y139.514 E46.11345
G1 X137.454 Y139.459 E46.14938
G1 X137.146 Y139.373 E46.1966
G1 X136.645 Y139.208 E46.2745
G1 X136.346 Y139.12 E46.32052
G1 X136.089 Y139.082 E46.35889
G1 X135.821 Y139.032 E46.39915
G1 X135.296 Y138.913 E46.47865
G1 X135.098 Y138.862 E46.50884
G1 X134.67 Y138.739 E46.5746
G1 X134.47 Y138.72 E46.60427
G1 X134.058 Y138.647 E46.66606
G1 X133.894 Y138.614 E46.69076
G1 X133.26 Y138.471 E46.78674
G1 X132.815 Y138.335 E46.85546
G1 X132.58 Y138.295 E46.89066
G1 X132.261 Y138.226 E46.93886
G1 X131.779 Y138.099 E47.01247
G1 X131.496 Y138.035 E47.05532
G1 X131.237 Y138.013 E47.0937
G1 X130.98 Y137.982 E47.13193
G1 X130.456 Y137.899 E47.21027
G1 X130.242 Y137.858 E47.24245
G1 X129.82 Y137.765 E47.30627
G1 X129.627 Y137.758 E47.33479
G1 X129.215 Y137.712 E47.39601
G1 X129.042 Y137.688 E47.4218
G1 X128.414 Y137.587 E47.51573
G1 X127.987 Y137.485 E47.58056
G1 X127.766 Y137.463 E47.61336
G1 X127.415 Y137.41 E47.66578
G1 X126.961 Y137.318 E47.73419
G1 X126.68 Y137.274 E47.77619
G1 X126.429 Y137.269 E47.81326
G1 X126.175 Y137.255 E47.85083
G1 X125.659 Y137.208 E47.92735
G1 X125.425 Y137.179 E47.96217
G1 X124.89 Y137.095 E48.04214
G1 X124.47 Y137.085 E48.10418
G1 X123.937 Y137.033 E48.18327
G1 X123.827 Y137.008 E48.19992
G1 X122.891 Y136.953 E48.33839
G1 X122.732 Y136.946 E48.36189
G1 X122.4 Y136.916 E48.41112
G1 X122.1 Y136.892 E48.45556
G1 X121.516 Y136.897 E48.54181
G1 X121.044 Y136.87 E48.61162
G1 X120.938 Y136.857 E48.62739
G1 X120.059 Y136.765 E48.75791
G1 X119.667 Y136.797 E48.81599
G1 X119.601 Y136.797 E48.82574
G1 X119.101 Y136.751 E48.89989
G1 X118.105 Y136.758 E49.04697
G1 X117.964 Y136.761 E49.0678
G1 X117.629 Y136.753 E49.11729
G1 X117.344 Y136.747 E49.15938
G1 X116.789 Y136.789 E49.24158
G1 X116.375 Y136.796 E49.30272
G1 X115.301 Y136.754 E49.46145
G1 X114.888 Y136.813 E49.52306
G1 X114.825 Y136.817 E49.53238
G1 X114.255 Y136.806 E49.61657
G1 X113.158 Y136.884 E49.77898
G1 X113.018 Y136.897 E49.79974
G1 X112.708 Y136.912 E49.84557
G1 X112.42 Y136.913 E49.88811
G1 X112.283 Y136.935 E49.9086
G1 X111.627 Y137.025 E50.00638
G1 X111.218 Y137.057 E50.06696
G1 X111.044 Y137.061 E50.09266
G1 X110.08 Y137.097 E50.23512
G1 X109.745 Y137.183 E50.2862
G1 X109.469 Y137.221 E50.32734
G1 X109.377 Y137.23 E50.34099
G1 X108.84 Y137.242 E50.42031
G1 X108.816 Y137.24 E50.42387
G1 X108.258 Y137.321 E50.50713
G1 X107.831 Y137.428 E50.57214
G1 X107.776 Y137.438 E50.5804
G1 X107.297 Y137.492 E50.65158
G1 X107.095 Y137.501 E50.68144
G1 X106.804 Y137.56 E50.72529
G1 X106.128 Y137.627 E50.82561
G1 X105.774 Y137.683 E50.87853
G1 X105.469 Y137.728 E50.92406
G1 X105.268 Y137.783 E50.95484
G1 X104.975 Y137.855 E50.99939
G1 X104.749 Y137.903 E51.03351
G1 X104.251 Y137.992 E51.10822
G1 X103.988 Y138.029 E51.14744
G1 X103.707 Y138.058 E51.18916
G1 X103.498 Y138.064 E51.22003
G1 X102.913 Y138.192 E51.30847
G1 X102.563 Y138.309 E51.36296
G1 X102.516 Y138.322 E51.37017
G1 X101.949 Y138.43 E51.4554
G1 X101.775 Y138.449 E51.48125
G1 X101.503 Y138.526 E51.523
G1 X100.773 Y138.654 E51.63244
G1 X100.437 Y138.732 E51.68338
G1 X100.127 Y138.799 E51.73022
G1 X99.907 Y138.876 E51.76464
G1 X99.611 Y138.969 E51.81046
