;FLAVOR:Marlin
;TIME:706
;Filament used: 1.63305m
;Layer height: 0.4
;MINX:101.65
;MINY:38.9
;MINZ:0.4
;MAXX:133.35
;MAXY:196.1
;MAXZ:6.08
;Generated with Cura_SteamEngine 99.9.1-Arachne_engine_beta
M140 S100
M105
M190 S100
M104 S240
M105
M109 S240
M82 ;absolute extrusion mode
; Ender 3 Custom Start G-code
G92 E0 ; Reset Extruder
G28 ; Home all axes
G1 Z2.0 F3000 ; Move Z Axis up little to prevent scratching of Heat Bed
G1 X0.1 Y20 Z0.3 F5000.0 ; Move to start position
G1 X0.1 Y200.0 Z0.3 F1500.0 E15 ; Draw the first line
G1 X0.4 Y200.0 Z0.3 F5000.0 ; Move to side a little
G1 X0.4 Y20 Z0.3 F1500.0 E30 ; Draw the second line
G92 E0 ; Reset Extruder
G1 Z2.0 F3000 ; Move Z Axis up little to prevent scratching of Heat Bed
G1 X5 Y20 Z0.3 F5000.0 ; Move over to prevent blob squish
G92 E0
G92 E0
G1 F2700 E-5
;LAYER_COUNT:17
;LAYER:0
M107
G0 F6000 X101.989 Y41.419 Z0.4
G0 X101.885 Y41.695
;TYPE:SKIRT
G1 F2700 E0
G1 F1200 X101.989 Y41.419 E0.04356
G1 X102.215 Y40.932 E0.12284
G1 X102.511 Y40.485 E0.20201
G1 X102.87 Y40.086 E0.28127
G1 X103.123 Y39.866 E0.33079
G1 X103.296 Y39.729 E0.36337
G1 X103.74 Y39.428 E0.44259
G1 X104.224 Y39.197 E0.52179
G1 X104.718 Y39.044 E0.59816
G1 X104.938 Y38.993 E0.63151
G1 X105.468 Y38.911 E0.71071
G1 X105.757 Y38.9 E0.75341
G1 X108.06 Y38.904 E1.09351
G1 X108.595 Y38.945 E1.17275
G1 X109.118 Y39.065 E1.25199
G1 X109.422 Y39.174 E1.29968
G1 X109.685 Y39.282 E1.34167
G1 X110.164 Y39.522 E1.42079
G1 X110.603 Y39.831 E1.50006
G1 X110.99 Y40.201 E1.57913
G1 X111.303 Y40.601 E1.65414
G1 X111.462 Y40.837 E1.69616
G1 X111.727 Y41.302 E1.7752
G1 X111.989 Y42.058 E1.89335
G1 X112.075 Y42.587 E1.9725
G1 X112.088 Y42.924 E2.0223
G1 X112.082 Y43.757 E2.14532
G1 X112.038 Y44.291 E2.22444
G1 X111.915 Y44.813 E2.30364
G1 X111.604 Y45.523 E2.41811
G1 X111.476 Y45.746 E2.45608
G1 X111.175 Y46.19 E2.53529
G1 X110.812 Y46.584 E2.61441
G1 X110.475 Y46.846 E2.67745
G1 X110.476 Y61.75 E4.87839
G1 X124.525 Y61.749 E6.95308
G1 X124.525 Y46.836 E9.15536
G1 X124.21 Y46.585 E9.21484
G1 X124.032 Y46.408 E9.25191
G1 X123.681 Y46.002 E9.33116
G1 X123.394 Y45.549 E9.41035
G1 X123.204 Y45.131 E9.47816
G1 X123.146 Y44.978 E9.50232
G1 X122.994 Y44.464 E9.58148
G1 X122.912 Y43.698 E9.69524
G1 X122.913 Y42.897 E9.81353
G1 X122.954 Y42.362 E9.89277
G1 X123.073 Y41.839 E9.97198
G1 X123.348 Y41.186 E10.07661
G1 X123.491 Y40.922 E10.12095
G1 X123.78 Y40.471 E10.20005
G1 X124.134 Y40.068 E10.27926
G1 X124.544 Y39.722 E10.35849
G1 X124.823 Y39.538 E10.40784
G1 X125.009 Y39.428 E10.43976
G1 X125.49 Y39.19 E10.51901
G1 X126.152 Y38.994 E10.62096
G1 X126.28 Y38.969 E10.64022
G1 X126.967 Y38.902 E10.74216
G1 X129.246 Y38.9 E11.07871
G1 X129.781 Y38.939 E11.15792
G1 X130.282 Y39.044 E11.23352
G1 X130.794 Y39.204 E11.31273
G1 X131.276 Y39.438 E11.39186
G1 X131.704 Y39.729 E11.46829
G1 X131.877 Y39.866 E11.50087
G1 X132.271 Y40.229 E11.57999
G1 X132.608 Y40.647 E11.65928
G1 X132.896 Y41.149 E11.74475
G1 X132.992 Y41.352 E11.77791
G1 X133.185 Y41.852 E11.85705
G1 X133.316 Y42.493 E11.95367
G1 X133.35 Y42.999 E12.02856
G1 X133.348 Y71.641 E16.25827
G1 X133.337 Y71.948 E16.30364
G1 X133.315 Y72.235 E16.34614
G1 X133.28 Y72.536 E16.39089
G1 X133.183 Y73.093 E16.47438
G1 X131.49 Y81.168 E17.69279
G1 X130.152 Y89.191 E18.89395
G1 X129.15 Y97.227 E20.08985
G1 X128.478 Y105.335 E21.29131
G1 X128.143 Y113.441 E22.48938
G1 X128.143 Y121.559 E23.68821
G1 X128.478 Y129.666 E24.88643
G1 X129.15 Y137.776 E26.08818
G1 X130.152 Y145.807 E27.28335
G1 X131.488 Y153.819 E28.48286
G1 X133.228 Y162.141 E29.73839
G1 X133.28 Y162.462 E29.78641
G1 X133.315 Y162.763 E29.83116
G1 X133.337 Y163.051 E29.87381
G1 X133.35 Y163.489 E29.93852
G1 X133.346 Y192.037 E34.15435
G1 X133.306 Y192.571 E34.23343
G1 X133.115 Y193.305 E34.34543
G1 X133.011 Y193.581 E34.38899
G1 X132.785 Y194.068 E34.46827
G1 X132.489 Y194.515 E34.54744
G1 X132.13 Y194.914 E34.62671
G1 X131.877 Y195.134 E34.67622
G1 X131.704 Y195.271 E34.70881
G1 X131.26 Y195.572 E34.78802
G1 X130.776 Y195.803 E34.86722
G1 X130.282 Y195.956 E34.94359
G1 X130.062 Y196.007 E34.97694
G1 X129.532 Y196.089 E35.05614
G1 X129.243 Y196.1 E35.09885
G1 X126.94 Y196.096 E35.43894
G1 X126.405 Y196.055 E35.51818
G1 X125.882 Y195.935 E35.59742
G1 X125.578 Y195.826 E35.64511
G1 X125.315 Y195.718 E35.6871
G1 X124.836 Y195.478 E35.76622
G1 X124.397 Y195.169 E35.8455
G1 X124.01 Y194.799 E35.92456
G1 X123.691 Y194.391 E36.00105
G1 X123.531 Y194.152 E36.04352
G1 X123.267 Y193.685 E36.12274
G1 X123.007 Y192.922 E36.24178
G1 X122.924 Y192.393 E36.32085
G1 X122.912 Y192.102 E36.36386
G1 X122.912 Y191.302 E36.482
G1 X122.952 Y190.767 E36.56123
G1 X123.071 Y190.244 E36.64044
G1 X123.27 Y189.737 E36.72087
G1 X123.382 Y189.505 E36.75891
G1 X123.65 Y189.041 E36.83804
G1 X123.985 Y188.621 E36.91738
G1 X124.378 Y188.257 E36.99649
G1 X124.525 Y188.15 E37.02334
G1 X124.525 Y173.25 E39.22369
G1 X110.475 Y173.25 E41.29853
G1 X110.475 Y188.146 E43.49829
G1 X110.852 Y188.474 E43.57209
G1 X111.023 Y188.651 E43.60843
G1 X111.366 Y189.063 E43.6876
G1 X111.644 Y189.522 E43.76685
G1 X111.808 Y189.889 E43.82621
G1 X111.976 Y190.399 E43.9055
G1 X112.067 Y190.927 E43.98463
G1 X112.083 Y191.244 E44.0315
G1 X112.089 Y192.075 E44.15422
G1 X112.053 Y192.61 E44.2334
G1 X111.938 Y193.134 E44.31263
G1 X111.685 Y193.759 E44.4122
G1 X111.561 Y193.998 E44.45196
G1 X111.279 Y194.454 E44.53114
G1 X110.932 Y194.864 E44.61046
G1 X110.529 Y195.217 E44.68957
G1 X110.292 Y195.381 E44.73214
G1 X110.079 Y195.516 E44.76938
G1 X109.606 Y195.768 E44.84852
G1 X108.879 Y196.001 E44.96126
G1 X108.782 Y196.021 E44.97589
G1 X108.063 Y196.095 E45.08262
G1 X105.759 Y196.1 E45.42287
G1 X105.224 Y196.061 E45.50208
G1 X104.938 Y196.007 E45.54507
G1 X104.718 Y195.956 E45.57842
G1 X104.206 Y195.796 E45.65763
G1 X103.724 Y195.562 E45.73676
G1 X103.296 Y195.271 E45.81319
G1 X103.123 Y195.134 E45.84577
G1 X102.729 Y194.771 E45.92489
G1 X102.392 Y194.353 E46.00418
G1 X102.104 Y193.851 E46.08965
G1 X102.008 Y193.648 E46.12281
G1 X101.815 Y193.148 E46.20195
G1 X101.684 Y192.507 E46.29857
G1 X101.65 Y192.001 E46.37346
G1 X101.653 Y163.382 E50.59977
G1 X101.679 Y162.854 E50.67784
G1 X101.708 Y162.57 E50.72
G1 X101.791 Y162.044 E50.79864
G1 X103.512 Y153.819 E52.03957
G1 X104.848 Y145.809 E53.23878
G1 X105.85 Y137.773 E54.43469
G1 X106.522 Y129.665 E55.63614
G1 X106.857 Y121.559 E56.83422
G1 X106.857 Y113.441 E58.03305
G1 X106.522 Y105.334 E59.23127
G1 X105.85 Y97.226 E60.43272
G1 X104.848 Y89.19 E61.62863
G1 X103.512 Y81.179 E62.82799
G1 X101.772 Y72.857 E64.08352
G1 X101.72 Y72.537 E64.13139
G1 X101.685 Y72.237 E64.176
G1 X101.663 Y71.948 E64.2188
G1 X101.65 Y71.51 E64.28351
G1 X101.654 Y42.963 E68.49919
G1 X101.694 Y42.429 E68.57827
G1 X101.885 Y41.695 E68.69027
G0 F6000 X102.634 Y41.977
G1 F1200 X102.738 Y41.701 E68.73383
G1 X102.941 Y41.274 E68.80365
G1 X103.214 Y40.887 E68.87358
G1 X103.62 Y40.493 E68.95713
G1 X103.793 Y40.356 E68.98972
G1 X104.187 Y40.095 E69.05951
G1 X104.619 Y39.904 E69.12927
G1 X104.899 Y39.823 E69.17231
G1 X105.119 Y39.772 E69.20566
G1 X105.756 Y39.7 E69.30033
G1 X108.059 Y39.704 E69.64042
G1 X108.53 Y39.745 E69.71024
G1 X109.118 Y39.914 E69.80059
G1 X109.381 Y40.022 E69.84258
G1 X109.801 Y40.238 E69.91232
G1 X110.18 Y40.521 E69.98217
G1 X110.639 Y41.048 E70.08538
G1 X110.798 Y41.284 E70.1274
G1 X111.028 Y41.697 E70.19721
G1 X111.211 Y42.245 E70.28253
G1 X111.288 Y42.918 E70.38256
G1 X111.282 Y43.751 E70.50558
G1 X111.239 Y44.222 E70.57542
G1 X111.117 Y44.679 E70.64527
G1 X110.91 Y45.125 E70.71788
G1 X110.782 Y45.348 E70.75585
G1 X110.513 Y45.737 E70.8257
G1 X110.182 Y46.075 E70.89556
G1 X109.861 Y46.314 E70.95466
G1 X109.675 Y46.432 E70.98719
G1 X109.676 Y62.55 E73.36741
G1 X125.325 Y62.549 E75.67838
G1 X125.325 Y46.432 E78.05846
G1 X125.165 Y46.342 E78.08557
G1 X124.774 Y46.017 E78.16065
G1 X124.596 Y45.84 E78.19772
G1 X124.29 Y45.48 E78.26749
G1 X124.049 Y45.073 E78.33734
G1 X123.894 Y44.695 E78.39768
G1 X123.764 Y44.24 E78.46756
G1 X123.712 Y43.699 E78.54782
G1 X123.713 Y42.898 E78.66611
G1 X123.754 Y42.426 E78.73607
G1 X123.873 Y41.969 E78.80581
G1 X124.051 Y41.567 E78.87073
G1 X124.194 Y41.303 E78.91507
G1 X124.454 Y40.908 E78.98491
G1 X124.776 Y40.562 E79.0547
G1 X125.231 Y40.227 E79.13814
G1 X125.417 Y40.117 E79.17006
G1 X125.843 Y39.911 E79.23993
G1 X126.305 Y39.779 E79.31089
G1 X126.433 Y39.754 E79.33015
G1 X126.968 Y39.702 E79.40953
G1 X129.247 Y39.7 E79.74608
G1 X129.881 Y39.772 E79.84031
G1 X130.101 Y39.823 E79.87366
G1 X130.551 Y39.969 E79.94352
G1 X130.97 Y40.188 E80.01334
G1 X131.207 Y40.356 E80.05624
G1 X131.38 Y40.493 E80.08883
G1 X131.725 Y40.817 E80.15872
G1 X132.01 Y41.194 E80.22851
G1 X132.173 Y41.491 E80.27854
G1 X132.269 Y41.694 E80.3117
G1 X132.435 Y42.137 E80.38157
G1 X132.521 Y42.582 E80.4485
G1 X132.55 Y42.999 E80.51023
G1 X132.548 Y71.612 E84.73565
G1 X132.537 Y71.919 E84.78102
G1 X132.52 Y72.142 E84.81404
G1 X132.454 Y72.644 E84.88881
G1 X132.387 Y72.994 E84.94144
G1 X130.705 Y81.015 E86.1517
G1 X129.359 Y89.084 E87.35976
G1 X128.352 Y97.158 E88.56132
G1 X127.68 Y105.26 E89.7619
G1 X127.343 Y113.433 E90.96987
G1 X127.343 Y121.567 E92.17106
G1 X127.68 Y129.741 E93.37918
G1 X128.352 Y137.845 E94.58004
G1 X129.359 Y145.914 E95.78088
G1 X130.702 Y153.971 E96.98711
G1 X132.445 Y162.305 E98.24446
G1 X132.485 Y162.555 E98.28185
G1 X132.52 Y162.856 E98.3266
G1 X132.537 Y163.079 E98.35963
G1 X132.55 Y163.488 E98.42006
G1 X132.546 Y192.036 E102.63588
G1 X132.506 Y192.508 E102.70584
G1 X132.366 Y193.023 E102.78465
G1 X132.262 Y193.299 E102.8282
G1 X132.059 Y193.726 E102.89802
G1 X131.786 Y194.113 E102.96796
G1 X131.38 Y194.507 E103.05151
G1 X131.207 Y194.644 E103.0841
G1 X130.813 Y194.905 E103.15389
G1 X130.381 Y195.096 E103.22364
G1 X130.101 Y195.177 E103.26669
G1 X129.881 Y195.228 E103.30004
G1 X129.244 Y195.3 E103.39471
G1 X126.941 Y195.296 E103.7348
G1 X126.47 Y195.255 E103.80462
G1 X125.882 Y195.086 E103.89497
G1 X125.619 Y194.978 E103.93695
G1 X125.199 Y194.762 E104.0067
G1 X124.82 Y194.479 E104.07655
G1 X124.356 Y193.946 E104.18091
G1 X124.196 Y193.707 E104.22338
G1 X123.967 Y193.293 E104.29325
G1 X123.786 Y192.74 E104.37917
G1 X123.712 Y192.102 E104.47402
G1 X123.712 Y191.302 E104.59216
G1 X123.752 Y190.831 E104.66197
G1 X123.871 Y190.373 E104.73185
G1 X123.99 Y190.085 E104.77787
G1 X124.102 Y189.853 E104.81591
G1 X124.343 Y189.446 E104.88576
G1 X124.649 Y189.085 E104.95565
G1 X125.071 Y188.74 E105.03614
G1 X125.325 Y188.575 E105.08087
G1 X125.325 Y172.45 E107.46213
G1 X109.675 Y172.45 E109.77324
G1 X109.675 Y188.564 E112.15288
G1 X110.001 Y188.78 E112.21063
G1 X110.277 Y189.03 E112.26562
G1 X110.448 Y189.207 E112.30197
G1 X110.746 Y189.573 E112.37167
G1 X111.02 Y190.078 E112.45651
G1 X111.069 Y190.196 E112.47538
G1 X111.213 Y190.647 E112.54529
G1 X111.283 Y191.25 E112.63494
G1 X111.289 Y192.081 E112.75766
G1 X111.252 Y192.552 E112.82743
G1 X111.137 Y193.011 E112.89731
G1 X110.974 Y193.39 E112.95823
G1 X110.85 Y193.629 E112.998
G1 X110.598 Y194.029 E113.06781
G1 X110.282 Y194.381 E113.13767
G1 X109.864 Y194.705 E113.21577
G1 X109.651 Y194.84 E113.25301
G1 X109.232 Y195.059 E113.32282
G1 X108.717 Y195.217 E113.40238
G1 X108.62 Y195.237 E113.417
G1 X108.061 Y195.295 E113.49999
G1 X105.757 Y195.3 E113.84024
G1 X105.119 Y195.228 E113.93505
G1 X104.899 Y195.177 E113.9684
G1 X104.449 Y195.031 E114.03827
G1 X104.03 Y194.812 E114.10809
G1 X103.793 Y194.644 E114.15099
G1 X103.62 Y194.507 E114.18357
G1 X103.275 Y194.183 E114.25347
G1 X102.99 Y193.806 E114.32326
G1 X102.827 Y193.509 E114.37329
G1 X102.731 Y193.306 E114.40645
G1 X102.565 Y192.863 E114.47631
G1 X102.479 Y192.418 E114.54324
G1 X102.45 Y192.001 E114.60497
G1 X102.453 Y163.382 E118.83128
G1 X102.478 Y162.905 E118.90182
G1 X102.5 Y162.684 E118.93462
G1 X102.574 Y162.207 E119.0059
G1 X104.298 Y153.967 E120.24909
G1 X105.641 Y145.916 E121.45445
G1 X106.648 Y137.842 E122.65602
G1 X107.32 Y129.74 E123.85659
G1 X107.657 Y121.567 E125.06456
G1 X107.657 Y113.433 E126.26575
G1 X107.32 Y105.259 E127.47387
G1 X106.648 Y97.157 E128.67444
G1 X105.641 Y89.083 E129.87601
G1 X104.298 Y81.027 E131.0821
G1 X102.555 Y72.693 E132.33945
G1 X102.515 Y72.444 E132.37669
G1 X102.48 Y72.144 E132.42129
G1 X102.463 Y71.92 E132.45447
G1 X102.45 Y71.511 E132.5149
G1 X102.454 Y42.964 E136.73058
G1 X102.494 Y42.492 E136.80053
G1 X102.634 Y41.977 E136.87934
G0 F6000 X103.294 Y42.566
G1 F1200 X103.382 Y42.259 E136.9265
G1 X103.486 Y41.983 E136.97006
G1 X103.664 Y41.625 E137.0291
G1 X103.909 Y41.309 E137.08815
G1 X104.116 Y41.12 E137.12954
G1 X104.289 Y40.983 E137.16213
G1 X104.626 Y40.768 E137.22116
G1 X105.079 Y40.603 E137.29236
G1 X105.299 Y40.552 E137.32571
G1 X105.754 Y40.5 E137.39334
G1 X108.057 Y40.504 E137.73344
G1 X108.455 Y40.545 E137.79252
G1 X108.814 Y40.654 E137.84793
G1 X109.077 Y40.762 E137.88991
G1 X109.429 Y40.95 E137.94884
G1 X109.737 Y41.204 E138.0078
G1 X109.976 Y41.495 E138.06341
G1 X110.135 Y41.731 E138.10543
G1 X110.324 Y42.082 E138.1643
G1 X110.433 Y42.431 E138.2183
G1 X110.488 Y42.912 E138.28979
G1 X110.482 Y43.745 E138.41281
G1 X110.439 Y44.143 E138.47192
G1 X110.318 Y44.523 E138.53082
G1 X110.217 Y44.727 E138.56443
G1 X110.089 Y44.95 E138.6024
G1 X109.856 Y45.275 E138.66146
G1 X109.431 Y45.639 E138.74409
G1 X109.251 Y45.754 E138.77563
G1 X108.875 Y45.941 E138.83765
G1 X108.876 Y63.35 E141.40852
G1 X126.125 Y63.349 E143.95577
G1 X126.125 Y45.924 E146.52901
G1 X125.855 Y45.822 E146.57163
G1 X125.517 Y45.609 E146.63063
G1 X125.338 Y45.45 E146.66598
G1 X125.16 Y45.273 E146.70305
G1 X124.906 Y44.965 E146.76201
G1 X124.7 Y44.564 E146.82858
G1 X124.642 Y44.411 E146.85275
G1 X124.538 Y44.025 E146.91178
G1 X124.512 Y43.7 E146.95993
G1 X124.513 Y42.899 E147.07822
G1 X124.553 Y42.501 E147.13729
G1 X124.754 Y41.948 E147.22418
G1 X124.897 Y41.684 E147.26852
G1 X125.122 Y41.354 E147.3275
G1 X125.407 Y41.075 E147.3864
G1 X125.638 Y40.916 E147.42781
G1 X125.824 Y40.806 E147.45972
G1 X126.186 Y40.638 E147.51866
G1 X126.459 Y40.564 E147.56043
G1 X126.587 Y40.539 E147.57969
G1 X126.968 Y40.502 E147.63621
G1 X129.247 Y40.5 E147.97277
G1 X129.701 Y40.552 E148.04025
G1 X129.921 Y40.603 E148.0736
G1 X130.299 Y40.731 E148.13253
G1 X130.711 Y40.983 E148.20385
G1 X130.884 Y41.12 E148.23644
G1 X131.17 Y41.398 E148.29534
G1 X131.45 Y41.833 E148.37174
G1 X131.546 Y42.036 E148.4049
G1 X131.68 Y42.412 E148.46385
G1 X131.738 Y42.778 E148.51857
G1 X131.75 Y42.999 E148.55125
G1 X131.749 Y71.584 E152.77254
G1 X131.726 Y72.05 E152.84144
G1 X131.669 Y72.495 E152.9077
G1 X129.918 Y80.867 E154.17078
G1 X128.571 Y88.949 E155.38075
G1 X127.555 Y97.089 E156.59216
G1 X126.88 Y105.233 E157.79895
G1 X126.543 Y113.4 E159.00603
G1 X126.543 Y121.6 E160.21697
G1 X126.88 Y129.768 E161.4242
G1 X127.556 Y137.914 E162.6313
G1 X128.57 Y146.049 E163.84193
G1 X129.916 Y154.119 E165.05013
G1 X131.662 Y162.469 E166.30989
G1 X131.691 Y162.647 E166.33652
G1 X131.738 Y163.108 E166.40495
G1 X131.75 Y163.488 E166.4611
G1 X131.746 Y192.036 E170.67692
G1 X131.706 Y192.434 E170.73599
G1 X131.618 Y192.741 E170.78316
G1 X131.514 Y193.017 E170.82671
G1 X131.336 Y193.375 E170.88575
G1 X131.091 Y193.691 E170.9448
G1 X130.884 Y193.88 E170.98619
G1 X130.711 Y194.017 E171.01878
G1 X130.374 Y194.232 E171.07782
G1 X129.921 Y194.397 E171.14901
G1 X129.701 Y194.448 E171.18236
G1 X129.246 Y194.5 E171.24999
G1 X126.943 Y194.496 E171.59009
G1 X126.545 Y194.455 E171.64917
G1 X126.186 Y194.346 E171.70458
G1 X125.923 Y194.238 E171.74656
G1 X125.571 Y194.05 E171.80549
G1 X125.263 Y193.796 E171.86445
G1 X125.021 Y193.501 E171.9208
G1 X124.861 Y193.262 E171.96327
G1 X124.673 Y192.909 E172.02233
G1 X124.565 Y192.558 E172.07656
G1 X124.512 Y192.102 E172.14436
G1 X124.512 Y191.302 E172.2625
G1 X124.552 Y190.904 E172.32157
G1 X124.711 Y190.433 E172.39498
G1 X124.823 Y190.201 E172.43302
G1 X125.032 Y189.86 E172.49209
G1 X125.304 Y189.568 E172.55102
G1 X125.515 Y189.406 E172.5903
G1 X125.728 Y189.264 E172.6281
G1 X126.08 Y189.077 E172.68697
G1 X126.125 Y189.065 E172.69384
G1 X126.125 Y171.65 E175.2656
G1 X108.875 Y171.65 E177.813
G1 X108.875 Y189.071 E180.38564
