;FLAVOR:Marlin
;TIME:3732
;Filament used: 11.2986m
;Layer height: 0.4
;MINX:77.087
;MINY:44.47
;MINZ:0.4
;MAXX:157.913
;MAXY:190.53
;MAXZ:19.28
;Generated with Cura_SteamEngine 4.8.0
M140 S100
M105
M190 S100
M104 S240
M105
M109 S240
M82 ;absolute extrusion mode
; Ender 3 Custom Start G-code
G92 E0 ; Reset Extruder
G28 ; Home all axes
G1 Z2.0 F3000 ; Move Z Axis up little to prevent scratching of Heat Bed
G1 X0.1 Y20 Z0.3 F5000.0 ; Move to start position
G1 X0.1 Y200.0 Z0.3 F1500.0 E15 ; Draw the first line
G1 X0.4 Y200.0 Z0.3 F5000.0 ; Move to side a little
G1 X0.4 Y20 Z0.3 F1500.0 E30 ; Draw the second line
G92 E0 ; Reset Extruder
G1 Z2.0 F3000 ; Move Z Axis up little to prevent scratching of Heat Bed
G1 X5 Y20 Z0.3 F5000.0 ; Move over to prevent blob squish
G92 E0
G92 E0
G1 F2700 E-5
;LAYER_COUNT:49
;LAYER:0
M107
G0 F6000 X79.06 Y50.603 Z0.4
;TYPE:SKIRT
G1 F2700 E0
G1 F1200 X79.445 Y50.023 E0.1028
G1 X79.648 Y49.746 E0.15352
G1 X80.379 Y48.845 E0.32486
G1 X80.625 Y48.572 E0.37913
G1 X81.186 Y48.009 E0.4965
G1 X81.45 Y47.769 E0.54918
G1 X82.253 Y47.109 E0.70268
G1 X82.555 Y46.886 E0.75812
G1 X83.33 Y46.374 E0.89529
G1 X83.634 Y46.194 E0.94746
G1 X84.451 Y45.763 E1.08387
G1 X84.795 Y45.604 E1.13984
G1 X85.776 Y45.212 E1.29584
G1 X86.107 Y45.098 E1.34754
G1 X86.874 Y44.875 E1.4655
G1 X87.239 Y44.789 E1.52088
G1 X88.39 Y44.581 E1.6936
G1 X88.746 Y44.535 E1.74661
G1 X89.44 Y44.48 E1.84942
G1 X89.812 Y44.47 E1.90437
G1 X91.085 Y44.501 E2.09242
G1 X91.437 Y44.527 E2.14454
G1 X92.022 Y44.599 E2.23159
G1 X92.401 Y44.666 E2.28842
G1 X93.741 Y44.979 E2.49163
G1 X93.961 Y45.038 E2.52527
G1 X94.386 Y45.19 E2.59192
G1 X96.155 Y45.953 E2.87643
G1 X96.543 Y46.149 E2.94062
G1 X96.579 Y46.17 E2.94677
G1 X96.846 Y46.343 E2.99376
G1 X98.418 Y47.457 E3.27828
G1 X98.708 Y47.685 E3.33276
G1 X98.74 Y47.713 E3.33904
G1 X99.015 Y47.981 E3.39574
G1 X100.323 Y49.399 E3.68063
G1 X100.537 Y49.653 E3.72968
G1 X100.563 Y49.687 E3.736
G1 X100.799 Y50.037 E3.79834
G1 X101.803 Y51.729 E4.08888
G1 X101.977 Y52.06 E4.1441
G1 X112.411 Y74.711 E7.82692
G1 X114.891 Y74.711 E8.19315
G1 X115.426 Y74.751 E8.27238
G1 X115.949 Y74.87 E8.35159
G1 X116.448 Y75.065 E8.4307
G1 X116.913 Y75.333 E8.50996
G1 X117.437 Y75.765 E8.61025
G1 X117.5 Y75.828 E8.62341
G1 X117.563 Y75.764 E8.63667
G1 X117.97 Y75.415 E8.71584
G1 X118.424 Y75.129 E8.79508
G1 X118.915 Y74.914 E8.87424
G1 X119.433 Y74.774 E8.95348
G1 X120.109 Y74.71 E9.05375
G1 X122.59 Y74.71 E9.42013
G1 X133.033 Y52.037 E13.10646
G1 X133.198 Y51.72 E13.15923
G1 X134.122 Y50.146 E13.42876
G1 X134.297 Y49.878 E13.47603
G1 X134.56 Y49.543 E13.53893
G1 X135.77 Y48.183 E13.80775
G1 X136.057 Y47.896 E13.86768
G1 X136.321 Y47.676 E13.91843
G1 X137.592 Y46.717 E14.15356
G1 X137.824 Y46.545 E14.19621
G1 X138.404 Y46.194 E14.29633
G1 X139.837 Y45.503 E14.53126
G1 X140.101 Y45.378 E14.5744
G1 X140.739 Y45.147 E14.6746
G1 X142.498 Y44.691 E14.94295
G1 X142.772 Y44.631 E14.98437
G1 X143 Y44.597 E15.01841
G1 X143.408 Y44.548 E15.0791
G1 X143.5 Y44.535 E15.09282
G1 X143.916 Y44.501 E15.15445
G1 X145.188 Y44.47 E15.34235
G1 X145.56 Y44.48 E15.39731
G1 X146.254 Y44.535 E15.50012
G1 X146.61 Y44.581 E15.55312
G1 X147.761 Y44.789 E15.72585
G1 X148.126 Y44.875 E15.78123
G1 X148.893 Y45.098 E15.89919
G1 X149.224 Y45.212 E15.95088
G1 X150.205 Y45.604 E16.10689
G1 X150.549 Y45.763 E16.16286
G1 X151.364 Y46.193 E16.29894
G1 X151.668 Y46.373 E16.35111
G1 X152.445 Y46.886 E16.4886
G1 X152.747 Y47.109 E16.54404
G1 X153.549 Y47.768 E16.69733
G1 X153.817 Y48.012 E16.75085
G1 X154.392 Y48.591 E16.87136
G1 X154.638 Y48.865 E16.92574
G1 X155.366 Y49.766 E17.0968
G1 X155.565 Y50.038 E17.14657
G1 X155.94 Y50.603 E17.24671
G1 X156.14 Y50.942 E17.30483
G1 X156.736 Y52.096 E17.49664
G1 X156.878 Y52.408 E17.54726
G1 X157.087 Y52.929 E17.63016
G1 X157.211 Y53.293 E17.68694
G1 X157.585 Y54.621 E17.89069
G1 X157.668 Y54.989 E17.94639
G1 X157.709 Y55.284 E17.99038
G1 X157.896 Y57.209 E18.27599
G1 X157.913 Y57.557 E18.32744
G1 X157.913 Y57.599 E18.33364
G1 X157.89 Y58.002 E18.39325
G1 X157.674 Y59.918 E18.67799
G1 X157.605 Y60.324 E18.73881
G1 X157.596 Y60.363 E18.74472
G1 X157.504 Y60.69 E18.79488
G1 X156.897 Y62.515 E19.07891
G1 X156.75 Y62.888 E19.13811
G1 X156.732 Y62.927 E19.14446
G1 X156.566 Y63.244 E19.1973
G1 X155.569 Y64.938 E19.48757
G1 X155.456 Y65.118 E19.51896
G1 X154.807 Y66.084 E19.69082
G1 X151.785 Y70.55 E20.48713
G1 X148.543 Y75.946 E21.41675
G1 X145.802 Y81.115 E22.28077
G1 X143.461 Y86.202 E23.10772
G1 X141.454 Y91.322 E23.91983
G1 X141.349 Y91.542 E23.95583
G1 X141.184 Y92.052 E24.03499
G1 X141.065 Y92.287 E24.07389
G1 X140.956 Y92.649 E24.12971
G1 X140.849 Y92.955 E24.17759
G1 X140.655 Y93.437 E24.25431
G1 X140.54 Y93.758 E24.30467
G1 X140.482 Y94.025 E24.34502
G1 X140.424 Y94.256 E24.38019
G1 X140.276 Y94.772 E24.45946
G1 X140.208 Y94.984 E24.49234
G1 X140.045 Y95.443 E24.56427
G1 X140.014 Y95.643 E24.59416
G1 X139.92 Y96.03 E24.65297
G1 X139.878 Y96.187 E24.67697
G1 X139.682 Y96.86 E24.78048
G1 X139.514 Y97.311 E24.85156
G1 X139.457 Y97.555 E24.88856
G1 X139.369 Y97.866 E24.93629
G1 X139.215 Y98.332 E25.00877
G1 X139.12 Y98.655 E25.05849
G1 X139.082 Y98.911 E25.0967
G1 X139.032 Y99.176 E25.13653
G1 X138.913 Y99.702 E25.21617
G1 X138.862 Y99.902 E25.24665
G1 X138.738 Y100.333 E25.31288
G1 X138.719 Y100.533 E25.34255
G1 X138.646 Y100.943 E25.40405
G1 X138.613 Y101.106 E25.42861
G1 X138.469 Y101.743 E25.52505
G1 X138.335 Y102.184 E25.59311
G1 X138.295 Y102.42 E25.62846
G1 X138.226 Y102.739 E25.67666
G1 X138.099 Y103.221 E25.75027
G1 X138.035 Y103.504 E25.79311
G1 X138.013 Y103.763 E25.8315
G1 X137.982 Y104.02 E25.86973
G1 X137.899 Y104.544 E25.94807
G1 X137.858 Y104.757 E25.98011
G1 X137.765 Y105.18 E26.04406
G1 X137.758 Y105.372 E26.07244
G1 X137.712 Y105.785 E26.1338
G1 X137.688 Y105.958 E26.1596
G1 X137.587 Y106.586 E26.25353
G1 X137.485 Y107.013 E26.31836
G1 X137.463 Y107.234 E26.35116
G1 X137.41 Y107.583 E26.40329
G1 X137.317 Y108.047 E26.47317
G1 X137.274 Y108.317 E26.51355
G1 X137.269 Y108.571 E26.55106
G1 X137.255 Y108.825 E26.58863
G1 X137.208 Y109.341 E26.66514
G1 X137.179 Y109.575 E26.69996
G1 X137.095 Y110.11 E26.77994
G1 X137.085 Y110.53 E26.84198
G1 X137.033 Y111.063 E26.92106
G1 X137.007 Y111.172 E26.93761
G1 X136.954 Y112.078 E27.07163
G1 X136.946 Y112.268 E27.09972
G1 X136.917 Y112.599 E27.14879
G1 X136.892 Y112.9 E27.19339
G1 X136.897 Y113.484 E27.27963
G1 X136.87 Y113.956 E27.34945
G1 X136.855 Y114.076 E27.36731
G1 X136.765 Y114.941 E27.49574
G1 X136.797 Y115.33 E27.55338
G1 X136.797 Y115.399 E27.56357
G1 X136.751 Y115.899 E27.63772
G1 X136.758 Y116.895 E27.7848
G1 X136.761 Y117.036 E27.80563
G1 X136.753 Y117.371 E27.85512
G1 X136.747 Y117.653 E27.89677
G1 X136.789 Y118.202 E27.97808
G1 X136.796 Y118.618 E28.03952
G1 X136.754 Y119.695 E28.19869
G1 X136.813 Y120.108 E28.2603
G1 X136.817 Y120.17 E28.26947
G1 X136.806 Y120.746 E28.35455
G1 X136.882 Y121.817 E28.51311
G1 X136.897 Y121.978 E28.53699
G1 X136.912 Y122.291 E28.58326
G1 X136.913 Y122.58 E28.62594
G1 X136.934 Y122.714 E28.64597
G1 X137.024 Y123.367 E28.74331
G1 X137.057 Y123.781 E28.80464
G1 X137.06 Y123.937 E28.82769
G1 X137.097 Y124.92 E28.97295
G1 X137.182 Y125.251 E29.02342
G1 X137.221 Y125.527 E29.06458
G1 X137.23 Y125.618 E29.07809
G1 X137.242 Y126.154 E29.15726
G1 X137.239 Y126.182 E29.16142
G1 X137.321 Y126.742 E29.245
G1 X137.428 Y127.169 E29.31001
G1 X137.438 Y127.224 E29.31826
G1 X137.492 Y127.703 E29.38944
G1 X137.501 Y127.905 E29.4193
G1 X137.56 Y128.196 E29.46315
G1 X137.629 Y128.885 E29.56541
G1 X137.683 Y129.226 E29.61639
G1 X137.727 Y129.527 E29.66132
G1 X137.78 Y129.72 E29.69087
G1 X137.854 Y130.02 E29.7365
G1 X137.902 Y130.246 E29.77062
G1 X137.99 Y130.736 E29.84414
G1 X138.028 Y131.003 E29.88397
G1 X138.058 Y131.294 E29.92717
G1 X138.064 Y131.504 E29.95819
G1 X138.191 Y132.083 E30.04573
G1 X138.309 Y132.437 E30.10083
G1 X138.322 Y132.484 E30.10804
G1 X138.43 Y133.051 E30.19327
G1 X138.449 Y133.225 E30.21912
G1 X138.526 Y133.497 E30.26087
G1 X138.653 Y134.223 E30.36971
G1 X138.731 Y134.559 E30.42065
G1 X138.802 Y134.88 E30.4692
G1 X138.873 Y135.082 E30.50081
G1 X138.965 Y135.372 E30.54574
G1 X139.024 Y135.58 E30.57767
G1 X139.151 Y136.083 E30.65428
G1 X139.185 Y136.226 E30.67599
G1 X139.238 Y136.479 E30.71416
G1 X139.294 Y136.907 E30.77791
G1 X139.454 Y137.451 E30.86164
G1 X139.651 Y137.967 E30.94321
G1 X139.665 Y138.014 E30.95045
G1 X139.749 Y138.357 E31.0026
G1 X139.792 Y138.579 E31.03599
G1 X139.904 Y138.899 E31.08606
G1 X139.991 Y139.186 E31.13035
G1 X140.071 Y139.583 E31.19015
G1 X140.183 Y139.952 E31.2471
G1 X140.27 Y140.257 E31.29394
G1 X140.364 Y140.474 E31.32886
G1 X140.479 Y140.765 E31.37507
G1 X140.556 Y140.98 E31.40879
G1 X140.72 Y141.487 E31.48748
G1 X140.758 Y141.612 E31.50678
G1 X140.838 Y141.894 E31.55006
G1 X140.926 Y142.324 E31.61488
G1 X141.133 Y142.886 E31.70332
G1 X141.148 Y142.913 E31.70789
G1 X141.298 Y143.221 E31.75848
G1 X141.319 Y143.27 E31.76635
G1 X141.497 Y143.793 E31.84793
G1 X141.551 Y144.003 E31.87995
G1 X141.688 Y144.323 E31.93136
G1 X141.837 Y144.74 E31.99675
G1 X141.909 Y145.023 E32.03988
G1 X142.045 Y145.382 E32.09657
G1 X142.166 Y145.717 E32.14917
G1 X142.275 Y145.932 E32.18477
G1 X142.411 Y146.224 E32.23233
G1 X142.488 Y146.402 E32.26097
G1 X142.709 Y146.952 E32.34851
G1 X142.757 Y147.077 E32.36828
G1 X142.863 Y147.372 E32.41457
G1 X142.984 Y147.808 E32.48139
G1 X143.247 Y148.401 E32.57719
G1 X143.278 Y148.45 E32.58575
G1 X143.492 Y148.845 E32.65209
G1 X143.511 Y148.886 E32.65877
G1 X143.662 Y149.268 E32.71943
G1 X143.737 Y149.494 E32.75459
G1 X143.916 Y149.853 E32.81383
G1 X144.044 Y150.139 E32.8601
G1 X144.059 Y150.177 E32.86614
G1 X144.174 Y150.523 E32.91998
G1 X144.34 Y150.887 E32.97906
G1 X144.494 Y151.239 E33.0358
G1 X144.534 Y151.305 E33.04719
G1 X144.661 Y151.53 E33.08535
G1 X144.886 Y151.957 E33.15662
G1 X145.183 Y152.586 E33.25935
G1 X145.303 Y152.86 E33.30352
G1 X146.031 Y154.316 E33.54391
G1 X146.438 Y155.11 E33.67567
G1 X146.544 Y155.336 E33.71254
G1 X146.978 Y156.35 E33.87542
G1 X147.091 Y156.546 E33.90883
G1 X147.376 Y157.051 E33.99446
G1 X147.453 Y157.166 E34.0149
G1 X147.777 Y157.683 E34.105
G1 X147.977 Y158.021 E34.163
G1 X148.078 Y158.202 E34.19361
G1 X148.246 Y158.527 E34.24764
G1 X149.083 Y159.979 E34.49513
G1 X149.555 Y160.775 E34.6318
G1 X149.677 Y161 E34.66959
G1 X150.191 Y162.027 E34.83919
G1 X150.509 Y162.516 E34.92533
G1 X150.65 Y162.738 E34.96417
G1 X150.757 Y162.88 E34.99042
G1 X151.092 Y163.354 E35.07614
G1 X151.333 Y163.714 E35.14011
G1 X151.445 Y163.893 E35.1713
G1 X151.616 Y164.183 E35.22101
G1 X152.375 Y165.335 E35.42474
G1 X152.508 Y165.549 E35.46195
G1 X152.795 Y166.039 E35.54581
G1 X153.028 Y166.455 E35.61622
G1 X153.235 Y166.778 E35.67287
G1 X153.388 Y167.022 E35.7154
G1 X153.797 Y167.529 E35.8116
G1 X153.874 Y167.628 E35.83012
G1 X154.093 Y167.92 E35.88402
G1 X154.187 Y168.051 E35.90783
G1 X154.628 Y168.697 E36.02334
G1 X155.432 Y169.863 E36.2325
G1 X155.549 Y170.044 E36.26432
G1 X156.355 Y171.379 E36.49461
G1 X156.505 Y171.631 E36.53792
G1 X156.702 Y172.01 E36.601
G1 X156.718 Y172.046 E36.60682
G1 X156.821 Y172.306 E36.64812
G1 X157.428 Y174.019 E36.9165
G1 X157.528 Y174.348 E36.96728
G1 X157.537 Y174.384 E36.97276
G1 X157.607 Y174.742 E37.02662
G1 X157.867 Y176.541 E37.29505
G1 X157.903 Y176.968 E37.35833
G1 X157.9 Y177.29 E37.40589
G1 X157.803 Y179.096 E37.67297
G1 X157.77 Y179.424 E37.72165
G1 X157.764 Y179.465 E37.72777
G1 X157.69 Y179.836 E37.78364
G1 X157.238 Y181.604 E38.05313
G1 X157.098 Y182.036 E38.12019
G1 X156.882 Y182.582 E38.2069
G1 X156.732 Y182.91 E38.26016
G1 X156.139 Y184.058 E38.45097
G1 X155.94 Y184.397 E38.50902
G1 X155.555 Y184.977 E38.61183
G1 X155.352 Y185.254 E38.66254
G1 X154.621 Y186.155 E38.83388
G1 X154.375 Y186.428 E38.88815
G1 X153.814 Y186.991 E39.00552
G1 X153.55 Y187.231 E39.05821
G1 X152.747 Y187.891 E39.21171
G1 X152.445 Y188.114 E39.26715
G1 X151.67 Y188.626 E39.40431
G1 X151.366 Y188.806 E39.45649
G1 X150.549 Y189.237 E39.5929
G1 X150.205 Y189.396 E39.64886
G1 X149.224 Y189.788 E39.80487
G1 X148.893 Y189.902 E39.85657
G1 X148.126 Y190.125 E39.97452
G1 X147.761 Y190.211 E40.0299
G1 X146.61 Y190.419 E40.20263
G1 X146.254 Y190.465 E40.25564
G1 X145.56 Y190.52 E40.35844
G1 X145.188 Y190.53 E40.4134
G1 X143.915 Y190.499 E40.60144
G1 X143.563 Y190.473 E40.65357
G1 X142.978 Y190.401 E40.74061
G1 X142.599 Y190.334 E40.79745
G1 X141.259 Y190.021 E41.00066
G1 X141.039 Y189.962 E41.03429
G1 X140.614 Y189.81 E41.10095
G1 X138.843 Y189.046 E41.38578
G1 X138.444 Y188.843 E41.45189
G1 X138.41 Y188.823 E41.45771
G1 X138.153 Y188.657 E41.5029
G1 X136.58 Y187.542 E41.78763
G1 X136.298 Y187.32 E41.84063
G1 X136.267 Y187.293 E41.8467
G1 X135.985 Y187.019 E41.90476
G1 X134.677 Y185.601 E42.18965
G1 X134.463 Y185.347 E42.2387
G1 X134.437 Y185.313 E42.24502
G1 X134.201 Y184.963 E42.30736
G1 X133.196 Y183.269 E42.59823
G1 X133.022 Y182.938 E42.65345
G1 X122.589 Y160.289 E46.33594
G1 X120.109 Y160.289 E46.70217
G1 X119.574 Y160.249 E46.7814
G1 X119.051 Y160.13 E46.86061
G1 X118.552 Y159.935 E46.93972
G1 X118.087 Y159.667 E47.01898
G1 X117.563 Y159.235 E47.11927
G1 X117.501 Y159.173 E47.13222
G1 X117.437 Y159.236 E47.14548
G1 X117.03 Y159.585 E47.22465
G1 X116.576 Y159.871 E47.30389
G1 X116.085 Y160.086 E47.38305
G1 X115.567 Y160.226 E47.46229
G1 X114.891 Y160.29 E47.56256
G1 X112.41 Y160.29 E47.92894
G1 X101.967 Y182.963 E51.61527
G1 X101.802 Y183.28 E51.66804
G1 X100.878 Y184.854 E51.93757
G1 X100.703 Y185.122 E51.98484
G1 X100.44 Y185.457 E52.04774
G1 X99.23 Y186.817 E52.31656
G1 X98.943 Y187.104 E52.37649
G1 X98.679 Y187.324 E52.42724
G1 X97.408 Y188.283 E52.66237
G1 X97.176 Y188.455 E52.70502
G1 X96.596 Y188.806 E52.80514
G1 X95.163 Y189.497 E53.04007
G1 X94.899 Y189.622 E53.08321
G1 X94.261 Y189.853 E53.18341
G1 X92.502 Y190.309 E53.45176
G1 X92.228 Y190.369 E53.49318
G1 X92 Y190.403 E53.52722
G1 X91.592 Y190.452 E53.58791
G1 X91.5 Y190.465 E53.60163
G1 X91.084 Y190.499 E53.66326
G1 X89.812 Y190.53 E53.85116
G1 X89.44 Y190.52 E53.90612
G1 X88.746 Y190.465 E54.00893
G1 X88.39 Y190.419 E54.06193
G1 X87.239 Y190.211 E54.23466
G1 X86.874 Y190.125 E54.29004
G1 X86.107 Y189.902 E54.408
G1 X85.776 Y189.788 E54.45969
G1 X84.795 Y189.396 E54.6157
G1 X84.451 Y189.237 E54.67167
G1 X83.634 Y188.806 E54.80808
G1 X83.33 Y188.626 E54.86025
G1 X82.555 Y188.114 E54.99742
G1 X82.253 Y187.891 E55.05285
G1 X81.45 Y187.231 E55.20635
G1 X81.182 Y186.987 E55.25987
G1 X80.608 Y186.409 E55.38017
G1 X80.362 Y186.135 E55.43455
G1 X79.634 Y185.234 E55.60561
G1 X79.434 Y184.961 E55.65558
G1 X79.058 Y184.394 E55.75605
G1 X78.859 Y184.056 E55.81398
G1 X78.263 Y182.902 E56.00578
G1 X78.12 Y182.589 E56.0566
G1 X77.912 Y182.07 E56.13917
G1 X77.789 Y181.707 E56.19577
G1 X77.415 Y180.379 E56.39951
G1 X77.329 Y179.995 E56.45762
G1 X77.291 Y179.715 E56.49935
G1 X77.104 Y177.79 E56.78496
G1 X77.087 Y177.442 E56.83641
G1 X77.087 Y177.4 E56.84261
G1 X77.11 Y176.997 E56.90222
G1 X77.326 Y175.082 E57.18682
G1 X77.395 Y174.676 E57.24763
G1 X77.404 Y174.637 E57.25354
G1 X77.496 Y174.31 E57.30371
G1 X78.103 Y172.485 E57.58773
G1 X78.25 Y172.112 E57.64694
G1 X78.268 Y172.073 E57.65328
G1 X78.435 Y171.756 E57.70619
G1 X79.435 Y170.057 E57.99732
G1 X79.548 Y169.877 E58.02871
G1 X80.192 Y168.916 E58.19954
G1 X83.224 Y164.435 E58.99852
G1 X86.453 Y159.062 E59.92424
G1 X89.201 Y153.879 E60.79057
G1 X91.539 Y148.798 E61.61653
G1 X93.546 Y143.678 E62.42864
G1 X93.651 Y143.458 E62.46464
G1 X93.816 Y142.948 E62.5438
G1 X93.934 Y142.714 E62.5825
G1 X94.044 Y142.35 E62.63865
G1 X94.151 Y142.045 E62.68638
G1 X94.345 Y141.563 E62.76311
G1 X94.46 Y141.242 E62.81347
G1 X94.518 Y140.975 E62.85382
G1 X94.576 Y140.744 E62.88899
G1 X94.724 Y140.228 E62.96826
G1 X94.792 Y140.014 E63.00142
G1 X94.956 Y139.554 E63.07354
G1 X94.986 Y139.357 E63.10297
G1 X95.08 Y138.97 E63.16178
G1 X95.122 Y138.813 E63.18578
G1 X95.318 Y138.14 E63.28929
G1 X95.487 Y137.687 E63.36069
G1 X95.541 Y137.454 E63.39601
G1 X95.628 Y137.144 E63.44356
G1 X95.79 Y136.653 E63.51991
G1 X95.88 Y136.347 E63.56702
