;FLAVOR:Marlin
;TIME:4226
;Filament used: 10.5934m
;Layer height: 0.4
;MINX:66.408
;MINY:66.408
;MINZ:0.4
;MAXX:168.592
;MAXY:168.592
;MAXZ:10.92
;Generated with Cura_SteamEngine 4.8.0
M140 S100
M105
M190 S100
M104 S240
M105
M109 S240
M82 ;absolute extrusion mode
; Ender 3 Custom Start G-code
G92 E0 ; Reset Extruder
G28 ; Home all axes
G1 Z2.0 F3000 ; Move Z Axis up little to prevent scratching of Heat Bed
G1 X0.1 Y20 Z0.3 F5000.0 ; Move to start position
G1 X0.1 Y200.0 Z0.3 F1500.0 E15 ; Draw the first line
G1 X0.4 Y200.0 Z0.3 F5000.0 ; Move to side a little
G1 X0.4 Y20 Z0.3 F1500.0 E30 ; Draw the second line
G92 E0 ; Reset Extruder
G1 Z2.0 F3000 ; Move Z Axis up little to prevent scratching of Heat Bed
G1 X5 Y20 Z0.3 F5000.0 ; Move over to prevent blob squish
G92 E0
G92 E0
G1 F2700 E-5
;LAYER_COUNT:28
;LAYER:0
M107
G0 F6000 X117.484 Y99.922 Z0.4
;TYPE:SKIRT
G1 F2700 E0
G1 F1200 X117.098 Y101.185 E0.19503
G1 X117.024 Y101.404 E0.22917
G1 X116.863 Y101.831 E0.29656
G1 X116.789 Y102.012 E0.32543
G1 X115.899 Y104.033 E0.65154
G1 X115.806 Y104.226 E0.68318
G1 X115.597 Y104.633 E0.75075
G1 X115.493 Y104.823 E0.78273
G1 X114.374 Y106.713 E1.10709
G1 X114.255 Y106.901 E1.13995
G1 X113.995 Y107.284 E1.20831
G1 X113.878 Y107.446 E1.23782
G1 X112.531 Y109.211 E1.5657
G1 X112.392 Y109.381 E1.59813
G1 X112.124 Y109.691 E1.65864
G1 X111.986 Y109.843 E1.68896
G1 X110.456 Y111.421 E2.01354
G1 X110.316 Y111.558 E2.04247
G1 X109.982 Y111.867 E2.10966
G1 X109.804 Y112.021 E2.14442
G1 X108.073 Y113.424 E2.47347
G1 X107.931 Y113.533 E2.4999
G1 X107.57 Y113.797 E2.56595
G1 X107.366 Y113.936 E2.6024
G1 X105.488 Y115.121 E2.93033
G1 X105.318 Y115.221 E2.95945
G1 X104.93 Y115.437 E3.02503
G1 X104.729 Y115.541 E3.05845
G1 X102.738 Y116.491 E3.38423
G1 X102.562 Y116.569 E3.41266
G1 X102.131 Y116.747 E3.48152
G1 X101.909 Y116.831 E3.51657
G1 X99.906 Y117.508 E3.8288
G1 X100.607 Y117.699 E3.9361
G1 X100.969 Y117.819 E3.99242
G1 X101.438 Y118.002 E4.06676
G1 X103.507 Y118.842 E4.39652
G1 X103.855 Y119.006 E4.45334
G1 X104.274 Y119.231 E4.52357
G1 X106.226 Y120.308 E4.8528
G1 X106.563 Y120.519 E4.91151
G1 X106.941 Y120.786 E4.97985
G1 X108.738 Y122.074 E5.30635
G1 X109.037 Y122.313 E5.36288
G1 X109.411 Y122.647 E5.43693
G1 X111.036 Y124.133 E5.76211
G1 X111.305 Y124.406 E5.81871
G1 X111.646 Y124.793 E5.89488
G1 X113.099 Y126.481 E6.22378
G1 X113.337 Y126.789 E6.28126
G1 X113.604 Y127.179 E6.35106
G1 X114.836 Y129.009 E6.67684
G1 X115.031 Y129.334 E6.73281
G1 X115.269 Y129.783 E6.80786
G1 X116.284 Y131.764 E7.13657
G1 X116.44 Y132.114 E7.19315
G1 X116.615 Y132.57 E7.26528
G1 X117.387 Y134.652 E7.5932
G1 X117.499 Y135.008 E7.64831
G1 X117.517 Y135.077 E7.65884
G1 X117.902 Y133.815 E7.85369
G1 X117.975 Y133.599 E7.88736
G1 X118.137 Y133.168 E7.95535
G1 X118.213 Y132.983 E7.98489
G1 X119.102 Y130.966 E8.3104
G1 X119.195 Y130.771 E8.3423
G1 X119.406 Y130.361 E8.41039
G1 X119.508 Y130.175 E8.44172
G1 X120.624 Y128.288 E8.76547
G1 X120.748 Y128.094 E8.79947
G1 X121.009 Y127.711 E8.86792
G1 X121.122 Y127.554 E8.89648
G1 X122.469 Y125.789 E9.22436
G1 X122.606 Y125.621 E9.25637
G1 X122.877 Y125.307 E9.31763
G1 X123.018 Y125.152 E9.34857
G1 X124.545 Y123.578 E9.67242
G1 X124.684 Y123.443 E9.70103
G1 X125.019 Y123.133 E9.76844
G1 X125.198 Y122.978 E9.8034
G1 X126.932 Y121.573 E10.13298
G1 X127.073 Y121.464 E10.1593
G1 X127.43 Y121.203 E10.2246
G1 X127.634 Y121.064 E10.26106
G1 X129.512 Y119.879 E10.58899
G1 X129.682 Y119.779 E10.61811
G1 X130.07 Y119.563 E10.68369
G1 X130.271 Y119.459 E10.71711
G1 X132.262 Y118.509 E11.04289
G1 X132.438 Y118.431 E11.07132
G1 X132.869 Y118.253 E11.14018
G1 X133.091 Y118.169 E11.17523
G1 X135.094 Y117.492 E11.48746
G1 X134.393 Y117.301 E11.59476
G1 X134.031 Y117.181 E11.65108
G1 X133.562 Y116.997 E11.72548
G1 X131.491 Y116.156 E12.05557
G1 X131.143 Y115.993 E12.11231
G1 X130.722 Y115.767 E12.18288
G1 X128.774 Y114.692 E12.51144
G1 X128.438 Y114.482 E12.56996
G1 X128.055 Y114.212 E12.63916
G1 X126.26 Y112.925 E12.96533
G1 X125.963 Y112.687 E13.02153
G1 X125.588 Y112.353 E13.09569
G1 X123.961 Y110.865 E13.42129
G1 X123.692 Y110.591 E13.47799
G1 X123.354 Y110.207 E13.55354
G1 X121.901 Y108.519 E13.88245
G1 X121.664 Y108.212 E13.93972
G1 X121.392 Y107.816 E14.01066
G1 X120.152 Y105.972 E14.33882
G1 X119.95 Y105.634 E14.39697
G1 X119.729 Y105.212 E14.46732
G1 X118.715 Y103.234 E14.79556
G1 X118.558 Y102.883 E14.85235
G1 X118.385 Y102.43 E14.92396
G1 X117.613 Y100.348 E15.25187
G1 X117.501 Y99.99 E15.30727
G1 X117.484 Y99.922 E15.31762
G0 F6000 X118.276 Y99.791
G1 F1200 X118.155 Y99.317 E15.38986
G1 X117.636 Y97.158 E15.71777
G1 X117.583 Y96.874 E15.76044
G1 X117.518 Y96.389 E15.8327
G1 X117.498 Y96.222 E15.85754
G1 X117.166 Y98.072 E16.1351
G1 X117.13 Y98.241 E16.16062
G1 X117.027 Y98.663 E16.22476
G1 X116.985 Y98.817 E16.24834
G1 X116.333 Y100.952 E16.578
G1 X116.275 Y101.122 E16.60452
G1 X116.114 Y101.549 E16.67191
G1 X116.057 Y101.689 E16.69424
G1 X115.167 Y103.71 E17.02035
G1 X115.095 Y103.861 E17.04505
G1 X114.886 Y104.268 E17.11261
G1 X114.804 Y104.416 E17.1376
G1 X113.685 Y106.306 E17.46196
G1 X113.593 Y106.452 E17.48744
G1 X113.333 Y106.835 E17.5558
G1 X113.242 Y106.961 E17.57875
G1 X111.895 Y108.726 E17.90663
G1 X111.787 Y108.858 E17.93182
G1 X111.519 Y109.168 E17.99234
G1 X111.411 Y109.286 E18.01596
G1 X109.881 Y110.864 E18.34054
G1 X109.772 Y110.97 E18.36299
G1 X109.438 Y111.279 E18.43019
G1 X109.3 Y111.399 E18.45719
G1 X107.569 Y112.802 E18.78624
G1 X107.459 Y112.887 E18.80677
G1 X107.098 Y113.151 E18.87281
G1 X106.939 Y113.259 E18.9012
G1 X105.061 Y114.444 E19.22913
G1 X104.929 Y114.522 E19.25177
G1 X104.541 Y114.738 E19.31735
G1 X104.385 Y114.819 E19.3433
G1 X102.394 Y115.769 E19.66908
G1 X102.257 Y115.83 E19.69123
G1 X101.826 Y116.008 E19.76009
G1 X101.653 Y116.073 E19.78738
G1 X99.554 Y116.782 E20.11456
G1 X99.408 Y116.827 E20.13712
G1 X98.973 Y116.948 E20.2038
G1 X98.799 Y116.99 E20.23023
G1 X96.644 Y117.443 E20.55542
G1 X96.519 Y117.466 E20.57419
G1 X96.215 Y117.516 E20.61969
G1 X97.519 Y117.71 E20.81438
G1 X97.821 Y117.772 E20.8599
G1 X98.263 Y117.889 E20.92742
G1 X100.396 Y118.471 E21.25393
G1 X100.678 Y118.564 E21.29778
G1 X101.137 Y118.744 E21.37059
G1 X103.206 Y119.584 E21.70035
G1 X103.477 Y119.711 E21.74455
G1 X103.888 Y119.931 E21.81339
G1 X105.84 Y121.008 E22.14262
G1 X106.102 Y121.172 E22.18826
G1 X106.475 Y121.436 E22.25575
G1 X108.272 Y122.724 E22.58224
G1 X108.504 Y122.91 E22.62615
G1 X108.872 Y123.238 E22.69895
G1 X110.497 Y124.724 E23.02413
G1 X110.705 Y124.936 E23.06799
G1 X111.04 Y125.315 E23.14269
G1 X112.493 Y127.003 E23.4716
G1 X112.678 Y127.243 E23.51635
G1 X112.941 Y127.625 E23.58484
G1 X114.173 Y129.455 E23.91062
G1 X114.324 Y129.709 E23.95425
G1 X114.557 Y130.148 E24.02765
G1 X115.572 Y132.129 E24.35636
G1 X115.693 Y132.401 E24.40032
G1 X115.865 Y132.849 E24.47119
G1 X116.637 Y134.931 E24.7991
G1 X116.724 Y135.207 E24.84184
G1 X116.845 Y135.678 E24.91365
G1 X117.365 Y137.842 E25.24232
G1 X117.417 Y138.126 E25.28495
G1 X117.482 Y138.611 E25.35722
G1 X117.502 Y138.778 E25.38205
G1 X117.834 Y136.928 E25.65962
G1 X117.87 Y136.759 E25.68513
G1 X117.973 Y136.337 E25.74928
G1 X118.015 Y136.183 E25.77285
G1 X118.667 Y134.048 E26.10251
G1 X118.724 Y133.881 E26.12857
G1 X118.886 Y133.45 E26.19657
G1 X118.945 Y133.306 E26.21955
G1 X119.834 Y131.289 E26.54506
G1 X119.906 Y131.137 E26.5699
G1 X120.117 Y130.727 E26.63799
G1 X120.197 Y130.583 E26.66232
G1 X121.313 Y128.696 E26.98607
G1 X121.409 Y128.544 E27.01262
G1 X121.67 Y128.161 E27.08106
G1 X121.758 Y128.039 E27.10327
G1 X123.105 Y126.274 E27.43115
G1 X123.211 Y126.144 E27.45592
G1 X123.482 Y125.83 E27.51718
G1 X123.592 Y125.709 E27.54132
G1 X125.119 Y124.135 E27.86517
G1 X125.227 Y124.03 E27.88742
G1 X125.562 Y123.72 E27.95482
G1 X125.701 Y123.6 E27.98194
G1 X127.435 Y122.195 E28.31151
G1 X127.545 Y122.11 E28.33204
G1 X127.902 Y121.849 E28.39735
G1 X128.061 Y121.741 E28.42574
G1 X129.939 Y120.556 E28.75366
G1 X130.071 Y120.478 E28.77631
G1 X130.459 Y120.262 E28.84188
G1 X130.615 Y120.181 E28.86784
G1 X132.606 Y119.231 E29.19362
G1 X132.743 Y119.17 E29.21576
G1 X133.174 Y118.992 E29.28463
G1 X133.347 Y118.927 E29.31192
G1 X135.446 Y118.218 E29.63909
G1 X135.592 Y118.173 E29.66165
G1 X136.027 Y118.052 E29.72833
G1 X136.201 Y118.01 E29.75477
G1 X138.356 Y117.557 E30.07996
G1 X138.481 Y117.534 E30.09873
G1 X138.785 Y117.484 E30.14423
G1 X137.481 Y117.29 E30.33891
G1 X137.179 Y117.228 E30.38444
G1 X136.733 Y117.11 E30.45257
G1 X134.604 Y116.529 E30.77847
G1 X134.322 Y116.436 E30.82232
G1 X133.863 Y116.256 E30.89513
G1 X131.792 Y115.415 E31.22522
G1 X131.521 Y115.288 E31.26941
G1 X131.108 Y115.066 E31.33866
G1 X129.16 Y113.991 E31.66722
G1 X128.899 Y113.828 E31.71266
G1 X128.521 Y113.562 E31.78092
G1 X126.726 Y112.275 E32.10709
G1 X126.495 Y112.089 E32.15089
G1 X126.128 Y111.762 E32.22348
G1 X124.501 Y110.274 E32.54908
G1 X124.292 Y110.061 E32.59315
G1 X123.96 Y109.685 E32.66722
G1 X122.507 Y107.997 E32.99612
G1 X122.323 Y107.758 E33.04067
G1 X122.055 Y107.369 E33.11043
G1 X120.815 Y105.525 E33.43858
G1 X120.659 Y105.263 E33.48361
G1 X120.441 Y104.847 E33.55297
G1 X119.427 Y102.869 E33.88122
G1 X119.305 Y102.596 E33.92537
G1 X119.135 Y102.151 E33.99572
G1 X118.363 Y100.069 E34.32364
G1 X118.276 Y99.791 E34.36665
G0 F6000 X119.051 Y99.593
G1 F1200 X118.932 Y99.13 E34.43725
G1 X118.413 Y96.971 E34.76516
G1 X118.376 Y96.768 E34.79563
G1 X118.313 Y96.295 E34.8661
G1 X118.053 Y94.089 E35.19413
G1 X118.039 Y93.878 E35.22535
G1 X118.034 Y93.437 E35.29048
G1 X118.034 Y91.19 E35.62231
G1 X118.046 Y90.97 E35.65485
G1 X118.097 Y90.511 E35.72305
G1 X118.356 Y88.328 E36.04768
G1 X118.393 Y88.113 E36.0799
G1 X118.503 Y87.639 E36.15176
G1 X119.028 Y85.474 E36.48074
G1 X119.092 Y85.262 E36.51344
G1 X119.247 Y84.835 E36.58052
G1 X120.024 Y82.745 E36.9098
G1 X120.118 Y82.532 E36.94419
G1 X121.322 Y80.177 E37.33478
G1 X121.435 Y79.984 E37.3678
G1 X121.698 Y79.586 E37.43825
G1 X122.929 Y77.758 E37.7637
G1 X123.062 Y77.582 E37.79628
G1 X123.372 Y77.216 E37.86711
G1 X124.812 Y75.545 E38.19286
G1 X124.964 Y75.388 E38.22513
G1 X125.314 Y75.061 E38.29587
G1 X126.945 Y73.569 E38.6223
G1 X127.115 Y73.43 E38.65473
G1 X127.497 Y73.151 E38.72459
G1 X129.311 Y71.85 E39.05424
G1 X129.503 Y71.728 E39.08783
G1 X129.892 Y71.511 E39.15361
G1 X131.819 Y70.449 E39.47854
G1 X132.018 Y70.354 E39.5111
G1 X132.468 Y70.167 E39.58307
G1 X134.538 Y69.329 E39.91285
G1 X134.761 Y69.254 E39.9476
G1 X137.33 Y68.552 E40.34088
G1 X137.554 Y68.504 E40.37471
G1 X140.176 Y68.111 E40.76624
G1 X140.409 Y68.09 E40.80079
G1 X143.091 Y68.007 E41.19704
G1 X143.319 Y68.013 E41.23073
G1 X143.775 Y68.051 E41.2983
G1 X145.993 Y68.25 E41.62716
G1 X146.226 Y68.285 E41.66195
G1 X148.833 Y68.834 E42.05538
G1 X149.06 Y68.896 E42.09013
G1 X151.566 Y69.741 E42.48068
G1 X151.785 Y69.83 E42.51559
G1 X154.216 Y70.985 E42.91305
G1 X154.427 Y71.1 E42.94853
G1 X156.68 Y72.524 E43.34213
G1 X156.86 Y72.653 E43.37483
G1 X157.218 Y72.939 E43.4425
G1 X158.946 Y74.344 E43.77139
G1 X159.12 Y74.504 E43.8063
G1 X160.977 Y76.419 E44.20022
G1 X161.131 Y76.597 E44.23498
G1 X162.752 Y78.72 E44.62943
G1 X162.884 Y78.917 E44.66445
G1 X164.238 Y81.211 E45.05783
G1 X164.346 Y81.422 E45.09283
G1 X165.409 Y83.836 E45.48235
G1 X165.491 Y84.056 E45.51702
G1 X166.28 Y86.633 E45.91502
G1 X166.337 Y86.866 E45.95044
G1 X166.809 Y89.5 E46.34561
G1 X166.837 Y89.736 E46.38071
G1 X166.992 Y92.38 E46.77183
G1 X166.993 Y92.579 E46.80122
G1 X166.977 Y92.959 E46.85739
G1 X166.845 Y95.176 E47.18536
G1 X166.83 Y95.33 E47.20821
G1 X166.773 Y95.737 E47.2689
G1 X166.379 Y97.931 E47.59808
G1 X166.353 Y98.051 E47.61622
G1 X166.25 Y98.473 E47.68036
G1 X166.22 Y98.583 E47.6972
G1 X165.568 Y100.718 E48.02686
G1 X165.526 Y100.84 E48.04592
G1 X165.365 Y101.267 E48.11331
G1 X165.324 Y101.367 E48.12927
G1 X164.434 Y103.388 E48.45538
G1 X164.383 Y103.496 E48.47301
G1 X164.174 Y103.903 E48.54058
G1 X164.116 Y104.008 E48.55829
G1 X162.997 Y105.898 E48.88265
G1 X162.931 Y106.002 E48.90084
G1 X162.671 Y106.385 E48.9692
G1 X162.606 Y106.475 E48.98559
G1 X161.259 Y108.24 E49.31347
G1 X161.182 Y108.335 E49.33153
G1 X160.914 Y108.645 E49.39205
G1 X160.837 Y108.729 E49.40888
G1 X159.307 Y110.307 E49.73346
G1 X159.229 Y110.383 E49.74954
G1 X158.895 Y110.692 E49.81673
G1 X158.796 Y110.778 E49.8361
G1 X157.065 Y112.181 E50.16515
G1 X156.987 Y112.241 E50.17968
G1 X156.626 Y112.505 E50.24572
G1 X156.512 Y112.582 E50.26604
G1 X154.634 Y113.767 E50.59397
G1 X154.54 Y113.823 E50.61013
G1 X154.152 Y114.039 E50.6757
G1 X154.04 Y114.097 E50.69433
G1 X152.049 Y115.047 E51.02011
G1 X151.951 Y115.091 E51.03597
G1 X151.52 Y115.269 E51.10483
G1 X151.397 Y115.315 E51.12422
G1 X149.298 Y116.024 E51.4514
G1 X149.194 Y116.056 E51.46747
G1 X148.759 Y116.177 E51.53415
G1 X148.634 Y116.207 E51.55313
G1 X146.479 Y116.66 E51.87832
G1 X146.39 Y116.677 E51.89171
G1 X145.967 Y116.746 E51.955
G1 X145.822 Y116.764 E51.97657
G1 X143.564 Y116.963 E52.31132
G1 X143.158 Y116.985 E52.37136
G1 X142.993 Y116.987 E52.39573
G1 X140.712 Y116.922 E52.73271
G1 X140.349 Y116.901 E52.78641
G1 X140.17 Y116.882 E52.81299
G1 X137.599 Y116.499 E53.19685
G1 X137.383 Y116.455 E53.22941
G1 X136.943 Y116.338 E53.29664
G1 X134.814 Y115.757 E53.62254
G1 X134.613 Y115.691 E53.65378
G1 X134.164 Y115.515 E53.725
G1 X132.093 Y114.674 E54.05509
G1 X131.9 Y114.583 E54.0866
G1 X131.495 Y114.366 E54.15445
G1 X129.547 Y113.291 E54.48302
G1 X129.36 Y113.174 E54.51559
G1 X128.988 Y112.911 E54.58287
G1 X127.193 Y111.624 E54.90904
G1 X127.027 Y111.492 E54.94036
G1 X126.668 Y111.172 E55.01138
G1 X125.041 Y109.684 E55.33698
G1 X124.892 Y109.532 E55.36841
G1 X124.566 Y109.163 E55.44112
G1 X123.113 Y107.475 E55.77003
G1 X122.982 Y107.304 E55.80184
G1 X122.719 Y106.923 E55.87021
G1 X121.479 Y105.079 E56.19836
G1 X121.368 Y104.892 E56.23048
G1 X121.153 Y104.482 E56.29884
G1 X120.139 Y102.504 E56.62709
G1 X120.052 Y102.309 E56.65862
G1 X119.885 Y101.873 E56.72757
G1 X119.113 Y99.791 E57.05549
G1 X119.051 Y99.593 E57.08613
G0 F6000 X119.826 Y99.394
G1 F1200 X119.71 Y98.943 E57.15489
G1 X119.191 Y96.784 E57.48281
G1 X119.169 Y96.662 E57.50111
G1 X119.107 Y96.201 E57.56981
G1 X118.847 Y93.995 E57.89783
G1 X118.839 Y93.869 E57.91648
G1 X118.834 Y93.428 E57.98161
G1 X118.834 Y91.19 E58.3121
G1 X118.841 Y91.058 E58.33162
G1 X118.891 Y90.606 E58.39878
G1 X119.15 Y88.423 E58.72341
G1 X119.173 Y88.294 E58.74276
G1 X119.281 Y87.827 E58.81355
G1 X119.806 Y85.662 E59.14253
G1 X119.844 Y85.535 E59.16211
G1 X119.997 Y85.114 E59.22826
G1 X120.774 Y83.024 E59.55754
G1 X120.831 Y82.896 E59.57823
G1 X122.035 Y80.541 E59.96882
G1 X122.102 Y80.425 E59.9886
G1 X122.362 Y80.033 E60.05807
G1 X123.593 Y78.205 E60.38352
G1 X123.672 Y78.099 E60.40304
G1 X123.978 Y77.739 E60.47281
G1 X125.418 Y76.068 E60.79857
G1 X125.509 Y75.973 E60.81799
G1 X125.854 Y75.652 E60.88758
G1 X127.485 Y74.16 E61.21402
G1 X127.587 Y74.076 E61.23353
G1 X127.964 Y73.801 E61.30244
G1 X129.778 Y72.5 E61.6321
G1 X129.892 Y72.427 E61.65209
G1 X130.278 Y72.212 E61.71734
G1 X132.205 Y71.15 E62.04226
G1 X132.324 Y71.093 E62.06174
G1 X132.768 Y70.909 E62.13272
G1 X134.838 Y70.071 E62.46251
G1 X134.972 Y70.025 E62.48343
G1 X137.541 Y69.323 E62.87671
G1 X137.675 Y69.295 E62.89693
G1 X138.11 Y69.228 E62.96193
G1 X140.294 Y68.902 E63.28802
G1 X140.434 Y68.89 E63.30877
G1 X143.116 Y68.807 E63.70503
G1 X143.253 Y68.81 E63.72526
G1 X143.703 Y68.848 E63.79195
G1 X145.921 Y69.047 E64.12081
G1 X146.061 Y69.068 E64.14172
G1 X148.668 Y69.617 E64.53515
G1 X148.804 Y69.654 E64.55596
G1 X151.31 Y70.499 E64.94651
G1 X151.442 Y70.552 E64.96752
G1 X153.873 Y71.707 E65.36497
G1 X153.999 Y71.777 E65.38626
G1 X156.252 Y73.201 E65.77985
G1 X156.361 Y73.278 E65.79956
G1 X156.713 Y73.56 E65.86617
G1 X158.441 Y74.965 E66.19506
G1 X158.545 Y75.061 E66.21596
G1 X160.402 Y76.976 E66.60988
G1 X160.495 Y77.083 E66.63082
G1 X162.116 Y79.206 E67.02527
G1 X162.195 Y79.324 E67.04624
G1 X163.549 Y81.618 E67.43962
G1 X163.614 Y81.744 E67.46056
G1 X164.677 Y84.158 E67.85008
G1 X164.726 Y84.291 E67.87101
