;FLAVOR:Marlin
;TIME:3434
;Filament used: 7.59607m
;Layer height: 0.32
;MINX:68.9
;MINY:94.4
;MINZ:0.32
;MAXX:125.6
;MAXY:125.6
;MAXZ:74.88
;Generated with Cura_SteamEngine main
M140 S110
M105
M190 S110
M104 S240
M105
M109 S240
M82 ;absolute extrusion mode
; Ender 3 Custom Start G-code
G92 E0 ; Reset Extruder
G28 ; Home all axes
G1 Z2.0 F3000 ; Move Z Axis up little to prevent scratching of Heat Bed
G1 X0.1 Y20 Z0.3 F5000.0 ; Move to start position
G1 X0.1 Y200.0 Z0.3 F1500.0 E15 ; Draw the first line
G1 X0.4 Y200.0 Z0.3 F5000.0 ; Move to side a little
G1 X0.4 Y20 Z0.3 F1500.0 E30 ; Draw the second line
G92 E0 ; Reset Extruder
G1 Z2.0 F3000 ; Move Z Axis up little to prevent scratching of Heat Bed
G1 X5 Y20 Z0.3 F5000.0 ; Move over to prevent blob squish
G92 E0
G92 E0
G1 F2700 E-5
;LAYER_COUNT:234
;LAYER:0
M107
G0 F7500 X70.961 Y95.455 Z0.32
G0 X68.9 Y99.601
;TYPE:SKIRT
G1 F2700 E0
G1 F1500 X68.922 Y99.207 E0.042
G1 X68.961 Y98.853 E0.0799
G1 X69.059 Y98.326 E0.13696
G1 X69.14 Y98.061 E0.16645
G1 X69.259 Y97.72 E0.20489
G1 X69.473 Y97.228 E0.26199
G1 X69.609 Y96.993 E0.29089
G1 X69.801 Y96.687 E0.32934
G1 X70.119 Y96.255 E0.38643
G1 X70.304 Y96.054 E0.41551
G1 X70.554 Y95.804 E0.45314
G1 X70.961 Y95.455 E0.5102
G1 X71.187 Y95.301 E0.53931
G1 X71.493 Y95.109 E0.57776
G1 X71.967 Y94.858 E0.63484
G1 X72.223 Y94.758 E0.66409
G1 X72.562 Y94.64 E0.7023
G1 X73.343 Y94.463 E0.78753
G1 X73.699 Y94.423 E0.82566
G1 X74.101 Y94.4 E0.86851
G1 X94.899 Y94.4 E3.08209
G1 X95.301 Y94.423 E3.12495
G1 X95.657 Y94.463 E3.16308
G1 X96.438 Y94.64 E3.24831
G1 X96.777 Y94.758 E3.28651
G1 X97.26 Y94.968 E3.34257
G1 X97.467 Y94.858 E3.36752
G1 X97.723 Y94.758 E3.39677
G1 X98.062 Y94.64 E3.43497
G1 X98.843 Y94.463 E3.52021
G1 X99.199 Y94.423 E3.55833
G1 X99.601 Y94.4 E3.60119
G1 X120.399 Y94.4 E5.81477
G1 X120.801 Y94.423 E5.85763
G1 X121.157 Y94.463 E5.89576
G1 X121.938 Y94.64 E5.98099
G1 X122.277 Y94.758 E6.01919
G1 X122.769 Y94.972 E6.0763
G1 X123.005 Y95.107 E6.10523
G1 X123.31 Y95.298 E6.14353
G1 X123.742 Y95.616 E6.20063
G1 X123.945 Y95.803 E6.23
G1 X124.196 Y96.054 E6.26778
G1 X124.545 Y96.461 E6.32485
G1 X124.699 Y96.687 E6.35395
G1 X124.891 Y96.993 E6.3924
G1 X125.142 Y97.467 E6.44949
G1 X125.241 Y97.72 E6.4784
G1 X125.36 Y98.061 E6.51684
G1 X125.498 Y98.579 E6.5739
G1 X125.539 Y98.851 E6.60317
G1 X125.578 Y99.203 E6.64087
G1 X125.6 Y99.599 E6.68308
G1 X125.6 Y120.399 E8.89687
G1 X125.578 Y120.793 E8.93887
G1 X125.539 Y121.147 E8.97678
G1 X125.441 Y121.674 E9.03383
G1 X125.36 Y121.939 E9.06332
G1 X125.241 Y122.28 E9.10176
G1 X125.027 Y122.772 E9.15887
G1 X124.893 Y123.005 E9.18747
G1 X124.702 Y123.31 E9.22578
G1 X124.384 Y123.742 E9.28287
G1 X124.197 Y123.945 E9.31224
G1 X123.946 Y124.196 E9.35002
G1 X123.539 Y124.545 E9.40709
G1 X123.313 Y124.699 E9.4362
G1 X123.007 Y124.891 E9.47464
G1 X122.533 Y125.142 E9.53173
G1 X122.277 Y125.242 E9.56098
G1 X121.938 Y125.36 E9.59918
G1 X121.157 Y125.537 E9.68442
G1 X120.801 Y125.577 E9.72254
G1 X120.399 Y125.6 E9.7654
G1 X99.6 Y125.6 E11.97909
G1 X99.197 Y125.577 E12.02205
G1 X98.842 Y125.537 E12.06007
G1 X98.062 Y125.36 E12.1452
G1 X97.723 Y125.242 E12.18341
G1 X97.24 Y125.032 E12.23946
G1 X97.033 Y125.142 E12.26441
G1 X96.777 Y125.242 E12.29366
G1 X96.438 Y125.36 E12.33187
G1 X95.657 Y125.537 E12.4171
G1 X95.301 Y125.577 E12.45523
G1 X94.899 Y125.6 E12.49808
G1 X74.101 Y125.6 E14.71166
G1 X73.699 Y125.577 E14.75452
G1 X73.343 Y125.537 E14.79265
G1 X72.562 Y125.36 E14.87788
G1 X72.223 Y125.242 E14.91608
G1 X71.731 Y125.028 E14.97319
G1 X71.493 Y124.891 E15.00241
G1 X71.187 Y124.699 E15.04086
G1 X70.755 Y124.381 E15.09796
G1 X70.554 Y124.196 E15.12703
G1 X70.303 Y123.945 E15.16481
G1 X69.954 Y123.538 E15.22187
G1 X69.798 Y123.31 E15.25128
G1 X69.607 Y123.005 E15.28958
G1 X69.357 Y122.53 E15.34671
G1 X69.259 Y122.28 E15.37529
G1 X69.14 Y121.939 E15.41373
G1 X69.002 Y121.421 E15.47078
G1 X68.961 Y121.149 E15.50006
G1 X68.922 Y120.797 E15.53775
G1 X68.9 Y120.401 E15.57997
G1 X68.9 Y99.601 E17.79376
G0 F7500 X69.7 Y99.601
G1 F1500 X69.717 Y99.294 E17.82648
G1 X69.756 Y98.94 E17.86439
G1 X69.895 Y98.324 E17.9316
G1 X70.014 Y97.983 E17.97004
G1 X70.286 Y97.418 E18.03678
G1 X70.478 Y97.112 E18.07523
G1 X70.87 Y96.62 E18.14218
G1 X71.12 Y96.37 E18.17981
G1 X71.612 Y95.978 E18.24677
G1 X71.918 Y95.786 E18.28521
G1 X72.486 Y95.514 E18.35224
G1 X72.825 Y95.396 E18.39045
G1 X73.432 Y95.258 E18.4567
G1 X73.788 Y95.218 E18.49483
G1 X74.101 Y95.2 E18.5282
G1 X94.899 Y95.2 E20.74178
G1 X95.212 Y95.218 E20.77515
G1 X95.568 Y95.258 E20.81327
G1 X96.175 Y95.396 E20.87953
G1 X96.514 Y95.514 E20.91773
G1 X97.082 Y95.786 E20.98476
G1 X97.25 Y95.891 E21.00584
G1 X97.418 Y95.786 E21.02693
G1 X97.986 Y95.514 E21.09396
G1 X98.325 Y95.396 E21.13216
G1 X98.932 Y95.258 E21.19841
G1 X99.288 Y95.218 E21.23654
G1 X99.601 Y95.2 E21.26991
G1 X120.399 Y95.2 E23.48349
G1 X120.712 Y95.218 E23.51686
G1 X121.068 Y95.258 E23.55499
G1 X121.675 Y95.396 E23.62124
G1 X122.014 Y95.514 E23.65945
G1 X122.58 Y95.785 E23.72624
G1 X122.885 Y95.976 E23.76454
G1 X123.379 Y96.369 E23.83172
G1 X123.63 Y96.62 E23.8695
G1 X124.022 Y97.112 E23.93646
G1 X124.214 Y97.418 E23.97491
G1 X124.486 Y97.983 E24.04165
G1 X124.605 Y98.324 E24.08009
G1 X124.744 Y98.939 E24.14719
G1 X124.783 Y99.291 E24.18489
G1 X124.8 Y99.599 E24.21772
G1 X124.8 Y120.399 E26.43151
G1 X124.783 Y120.706 E26.46424
G1 X124.744 Y121.06 E26.50214
G1 X124.605 Y121.676 E26.56935
G1 X124.486 Y122.017 E26.60779
G1 X124.215 Y122.58 E26.67429
G1 X124.024 Y122.885 E26.7126
G1 X123.631 Y123.379 E26.77978
G1 X123.38 Y123.63 E26.81756
G1 X122.888 Y124.022 E26.88452
G1 X122.582 Y124.214 E26.92296
G1 X122.014 Y124.486 E26.98999
G1 X121.675 Y124.604 E27.0282
G1 X121.068 Y124.742 E27.09445
G1 X120.712 Y124.782 E27.13258
G1 X120.399 Y124.8 E27.16595
G1 X99.6 Y124.8 E29.37963
G1 X99.286 Y124.782 E29.41311
G1 X98.931 Y124.742 E29.45113
G1 X98.325 Y124.604 E29.51728
G1 X97.986 Y124.486 E29.55548
G1 X97.418 Y124.214 E29.62251
G1 X97.25 Y124.109 E29.6436
G1 X97.082 Y124.214 E29.66468
G1 X96.514 Y124.486 E29.73171
G1 X96.175 Y124.604 E29.76992
G1 X95.568 Y124.742 E29.83617
G1 X95.212 Y124.782 E29.8743
G1 X94.899 Y124.8 E29.90767
G1 X74.101 Y124.8 E32.12125
G1 X73.788 Y124.782 E32.15462
G1 X73.432 Y124.742 E32.19274
G1 X72.825 Y124.604 E32.259
G1 X72.486 Y124.486 E32.2972
G1 X71.918 Y124.214 E32.36423
G1 X71.612 Y124.022 E32.40268
G1 X71.12 Y123.63 E32.46963
G1 X70.869 Y123.379 E32.50741
G1 X70.476 Y122.885 E32.5746
G1 X70.285 Y122.58 E32.6129
G1 X70.014 Y122.017 E32.6794
G1 X69.895 Y121.676 E32.71784
G1 X69.756 Y121.061 E32.78495
G1 X69.717 Y120.709 E32.82264
G1 X69.7 Y120.401 E32.85547
G1 X69.7 Y99.601 E35.06927
G0 F7500 X70.5 Y99.491
G1 F1500 X70.551 Y99.028 E35.11884
G1 X70.651 Y98.588 E35.16687
G1 X70.77 Y98.247 E35.20531
G1 X70.964 Y97.843 E35.25301
G1 X71.156 Y97.537 E35.29146
G1 X71.436 Y97.186 E35.33924
G1 X71.686 Y96.936 E35.37687
G1 X72.037 Y96.656 E35.42466
G1 X72.343 Y96.464 E35.46311
G1 X72.749 Y96.269 E35.51105
G1 X73.088 Y96.151 E35.54925
G1 X73.522 Y96.053 E35.59661
G1 X73.994 Y96 E35.64716
G1 X95.006 Y96 E37.88352
G1 X95.478 Y96.053 E37.93407
G1 X95.912 Y96.151 E37.98142
G1 X96.251 Y96.269 E38.01963
G1 X96.657 Y96.464 E38.06756
G1 X96.963 Y96.656 E38.10601
G1 X97.25 Y96.885 E38.14509
G1 X97.537 Y96.656 E38.18417
G1 X97.843 Y96.464 E38.22262
G1 X98.249 Y96.269 E38.27055
G1 X98.588 Y96.151 E38.30876
G1 X99.022 Y96.053 E38.35611
G1 X99.494 Y96 E38.40666
G1 X120.506 Y96 E40.64302
G1 X120.978 Y96.053 E40.69357
G1 X121.412 Y96.151 E40.74093
G1 X121.751 Y96.269 E40.77913
G1 X122.155 Y96.463 E40.82683
G1 X122.46 Y96.654 E40.86513
G1 X122.813 Y96.935 E40.91315
G1 X123.064 Y97.186 E40.95093
G1 X123.344 Y97.537 E40.99872
G1 X123.536 Y97.843 E41.03717
G1 X123.73 Y98.247 E41.08487
G1 X123.849 Y98.588 E41.12331
G1 X123.949 Y99.027 E41.17123
G1 X124 Y99.487 E41.22049
G1 X124 Y120.509 E43.45791
G1 X123.949 Y120.972 E43.50749
G1 X123.849 Y121.412 E43.55551
G1 X123.73 Y121.753 E43.59395
G1 X123.537 Y122.155 E43.64142
G1 X123.346 Y122.46 E43.67972
G1 X123.065 Y122.813 E43.72774
G1 X122.814 Y123.064 E43.76552
G1 X122.463 Y123.344 E43.81331
G1 X122.157 Y123.536 E43.85175
G1 X121.751 Y123.731 E43.89969
G1 X121.412 Y123.849 E43.9379
G1 X120.978 Y123.947 E43.98525
G1 X120.506 Y124 E44.0358
G1 X99.491 Y124 E46.27248
G1 X99.021 Y123.947 E46.32282
G1 X98.588 Y123.849 E46.37007
G1 X98.249 Y123.731 E46.40827
G1 X97.843 Y123.536 E46.45621
G1 X97.537 Y123.344 E46.49466
G1 X97.25 Y123.115 E46.53374
G1 X96.963 Y123.344 E46.57282
G1 X96.657 Y123.536 E46.61127
G1 X96.251 Y123.731 E46.6592
G1 X95.912 Y123.849 E46.69741
G1 X95.478 Y123.947 E46.74476
G1 X95.006 Y124 E46.79531
G1 X73.994 Y124 E49.03167
G1 X73.522 Y123.947 E49.08222
G1 X73.088 Y123.849 E49.12958
G1 X72.749 Y123.731 E49.16778
G1 X72.343 Y123.536 E49.21572
G1 X72.037 Y123.344 E49.25417
G1 X71.686 Y123.064 E49.30196
G1 X71.435 Y122.813 E49.33974
G1 X71.154 Y122.46 E49.38776
G1 X70.963 Y122.155 E49.42606
G1 X70.77 Y121.753 E49.47352
G1 X70.651 Y121.412 E49.51196
G1 X70.551 Y120.973 E49.55988
G1 X70.5 Y120.513 E49.60914
G1 X70.5 Y99.491 E51.84656
G0 F7500 X71.3 Y99.534
G1 F1500 X71.346 Y99.116 E51.89132
G1 X71.406 Y98.852 E51.92013
G1 X71.525 Y98.511 E51.95857
G1 X71.642 Y98.268 E51.98728
G1 X71.834 Y97.962 E52.02573
G1 X72.001 Y97.751 E52.05437
G1 X72.251 Y97.501 E52.092
G1 X72.462 Y97.334 E52.12064
G1 X72.768 Y97.142 E52.15909
G1 X73.012 Y97.025 E52.18789
G1 X73.351 Y96.907 E52.22609
G1 X73.611 Y96.848 E52.25447
G1 X74.038 Y96.8 E52.3002
G1 X94.962 Y96.8 E54.52719
G1 X95.389 Y96.848 E54.57292
G1 X95.649 Y96.907 E54.6013
G1 X95.988 Y97.025 E54.6395
G1 X96.232 Y97.142 E54.6683
G1 X96.538 Y97.334 E54.70675
G1 X96.749 Y97.501 E54.73539
G1 X96.999 Y97.751 E54.77302
G1 X97.25 Y98.068 E54.81606
G1 X97.5 Y97.752 E54.85894
G1 X97.751 Y97.501 E54.89672
G1 X97.962 Y97.334 E54.92536
G1 X98.268 Y97.142 E54.96381
G1 X98.512 Y97.025 E54.99261
G1 X98.851 Y96.907 E55.03082
G1 X99.111 Y96.848 E55.05919
G1 X99.538 Y96.8 E55.10492
G1 X120.462 Y96.8 E57.33192
G1 X120.889 Y96.848 E57.37765
G1 X121.149 Y96.907 E57.40603
G1 X121.488 Y97.025 E57.44423
G1 X121.731 Y97.141 E57.47289
G1 X122.036 Y97.332 E57.51119
G1 X122.248 Y97.5 E57.53998
G1 X122.499 Y97.751 E57.57776
G1 X122.666 Y97.962 E57.6064
G1 X122.858 Y98.268 E57.64485
G1 X122.975 Y98.511 E57.67355
G1 X123.094 Y98.852 E57.71199
G1 X123.154 Y99.115 E57.7407
G1 X123.2 Y99.53 E57.78514
G1 X123.2 Y120.466 E60.01341
G1 X123.154 Y120.884 E60.05817
G1 X123.094 Y121.148 E60.08699
G1 X122.975 Y121.489 E60.12543
G1 X122.859 Y121.731 E60.15399
G1 X122.668 Y122.036 E60.19229
G1 X122.5 Y122.248 E60.22108
G1 X122.249 Y122.499 E60.25886
G1 X122.038 Y122.666 E60.2875
G1 X121.732 Y122.858 E60.32595
G1 X121.488 Y122.975 E60.35475
G1 X121.149 Y123.093 E60.39295
G1 X120.889 Y123.152 E60.42133
G1 X120.462 Y123.2 E60.46706
G1 X99.537 Y123.2 E62.69416
G1 X99.111 Y123.152 E62.73979
G1 X98.851 Y123.093 E62.76816
G1 X98.512 Y122.975 E62.80637
G1 X98.268 Y122.858 E62.83517
G1 X97.962 Y122.666 E62.87362
G1 X97.751 Y122.499 E62.90226
G1 X97.5 Y122.248 E62.94004
G1 X97.25 Y121.933 E62.98284
G1 X97 Y122.248 E63.02564
G1 X96.749 Y122.499 E63.06342
G1 X96.538 Y122.666 E63.09206
G1 X96.232 Y122.858 E63.13051
G1 X95.988 Y122.975 E63.15931
G1 X95.649 Y123.093 E63.19751
G1 X95.389 Y123.152 E63.22589
G1 X94.962 Y123.2 E63.27162
G1 X74.038 Y123.2 E65.49861
G1 X73.611 Y123.152 E65.54435
G1 X73.351 Y123.093 E65.57272
G1 X73.012 Y122.975 E65.61093
G1 X72.768 Y122.858 E65.63973
G1 X72.462 Y122.666 E65.67818
G1 X72.251 Y122.499 E65.70682
G1 X72 Y122.248 E65.7446
G1 X71.832 Y122.036 E65.77339
G1 X71.641 Y121.731 E65.81169
G1 X71.525 Y121.489 E65.84025
G1 X71.406 Y121.148 E65.87869
G1 X71.346 Y120.885 E65.9074
G1 X71.3 Y120.47 E65.95184
G1 X71.3 Y99.534 E68.18011
G0 F7500 X72.102 Y99.557
G1 F1500 X72.146 Y99.158 E68.22284
G1 X72.295 Y98.731 E68.27097
G1 X72.535 Y98.349 E68.31898
G1 X72.849 Y98.035 E68.36625
G1 X73.23 Y97.796 E68.41412
G1 X73.654 Y97.648 E68.46191
G1 X74.101 Y97.6 E68.50976
G1 X94.899 Y97.6 E70.72334
G1 X95.346 Y97.648 E70.77119
G1 X95.77 Y97.796 E70.81899
G1 X96.151 Y98.035 E70.86686
G1 X96.466 Y98.35 E70.91427
G1 X96.705 Y98.732 E70.96223
G1 X96.854 Y99.158 E71.01027
G1 X96.898 Y99.555 E71.05278
G1 X96.897 Y120.456 E73.27732
G1 X96.854 Y120.842 E73.31866
G1 X96.706 Y121.266 E73.36646
G1 X96.465 Y121.651 E73.4148
G1 X96.151 Y121.965 E73.46206
G1 X95.77 Y122.204 E73.50993
G1 X95.346 Y122.352 E73.55773
G1 X94.899 Y122.4 E73.60558
G1 X74.101 Y122.4 E75.81916
G1 X73.654 Y122.352 E75.86701
G1 X73.23 Y122.204 E75.9148
G1 X72.849 Y121.965 E75.96267
G1 X72.535 Y121.651 E76.00994
G1 X72.294 Y121.266 E76.05828
G1 X72.146 Y120.842 E76.10608
G1 X72.102 Y120.445 E76.14859
G1 X72.102 Y99.557 E78.37175
G1 F2700 E73.37175
G0 F7500 X71.839 Y99.528
G0 X71.888 Y99.096
G0 X72.055 Y98.616
G0 X72.326 Y98.186
G0 X72.686 Y97.826
G0 X73.116 Y97.555
G0 X73.596 Y97.388
G0 X74.063 Y97.336
G0 X94.937 Y97.336
G0 X95.404 Y97.388
G0 X95.884 Y97.555
G0 X96.314 Y97.826
G0 X96.674 Y98.186
G0 X96.945 Y98.616
G0 X97.039 Y98.887
G0 X97.164 Y99.563
G0 X97.602 Y99.557
G1 F2700 E78.37175
G1 F1500 X97.646 Y99.158 E78.41447
G1 X97.794 Y98.734 E78.46227
G1 X98.035 Y98.349 E78.51061
G1 X98.349 Y98.035 E78.55788
G1 X98.73 Y97.796 E78.60575
G1 X99.154 Y97.648 E78.65354
G1 X99.601 Y97.6 E78.70139
G1 X120.399 Y97.6 E80.91497
G1 X120.845 Y97.648 E80.96272
G1 X121.267 Y97.795 E81.01028
G1 X121.651 Y98.035 E81.05847
G1 X121.966 Y98.35 E81.10589
G1 X122.205 Y98.732 E81.15385
G1 X122.354 Y99.158 E81.20188
G1 X122.398 Y99.555 E81.24439
G1 X122.398 Y120.443 E83.46755
G1 X122.354 Y120.842 E83.51028
G1 X122.206 Y121.266 E83.55807
G1 X121.965 Y121.651 E83.60642
G1 X121.651 Y121.965 E83.65368
G1 X121.27 Y122.204 E83.70155
G1 X120.846 Y122.352 E83.74935
G1 X120.399 Y122.4 E83.79719
G1 X99.6 Y122.4 E86.01088
G1 X99.154 Y122.352 E86.05863
G1 X98.73 Y122.204 E86.10642
G1 X98.349 Y121.965 E86.15429
G1 X98.035 Y121.651 E86.20155
G1 X97.795 Y121.267 E86.24975
G1 X97.648 Y120.844 E86.29741
G1 X97.6 Y120.401 E86.34484
G1 X97.602 Y99.557 E88.56332
G1 F2700 E83.56332
;MESH:enclosure-lid.stl
G0 F7500 X95.681 Y99.645
G0 X95.644 Y121.337
;TYPE:WALL-OUTER
G1 F2700 E88.56332
G1 F1500 X95.837 Y121.144 E88.59237
G1 X95.981 Y120.917 E88.62098
G1 X96.067 Y120.669 E88.64891
G1 X96.099 Y120.389 E88.67891
G1 X96.099 Y99.695 E90.88142
G1 X96.099 Y99.622 E90.88919
G1 X96.067 Y99.331 E90.92035
G1 X95.979 Y99.08 E90.94866
G1 X95.837 Y98.856 E90.97689
G1 X95.644 Y98.663 E91.00594
G1 X95.42 Y98.521 E91.03416
G1 X95.169 Y98.433 E91.06247
G1 X94.876 Y98.401 E91.09384
G1 X74.124 Y98.4 E93.30253
G1 X73.831 Y98.433 E93.33391
G1 X73.58 Y98.521 E93.36222
G1 X73.356 Y98.663 E93.39045
G1 X73.163 Y98.856 E93.4195
G1 X73.019 Y99.083 E93.44811
G1 X72.933 Y99.33 E93.47595
G1 X72.9 Y99.624 E93.50743
G1 X72.901 Y120.378 E95.71633
G1 X72.933 Y120.669 E95.74749
G1 X73.019 Y120.917 E95.77543
G1 X73.163 Y121.144 E95.80404
G1 X73.356 Y121.337 E95.83309
G1 X73.58 Y121.479 E95.86132
G1 X73.831 Y121.567 E95.88963
G1 X74.123 Y121.599 E95.92089
G1 X94.876 Y121.6 E98.12968
G1 X95.169 Y121.567 E98.16106
G1 X95.42 Y121.479 E98.18937
G1 X95.644 Y121.337 E98.2176
G0 F7500 X95.208 Y120.642
;TYPE:WALL-INNER
G1 F1500 X95.299 Y120.454 E98.23983
G1 X95.299 Y99.695 E100.44926
G1 X95.282 Y99.51 E100.46903
G1 X95.141 Y99.291 E100.49676
G1 X94.955 Y99.201 E100.51875
G1 X74.047 Y99.2 E102.74404
G1 X73.859 Y99.291 E102.76627
G1 X73.745 Y99.433 E102.78565
G1 X73.7 Y99.668 E102.81112
G1 X73.701 Y120.454 E105.02342
G1 X73.859 Y120.708 E105.05526
G1 X74.047 Y120.799 E105.07749
G1 X94.953 Y120.8 E107.30256
G1 X95.208 Y120.642 E107.33449
G0 F7500 X94.579 Y120.079
;TYPE:SKIN
G1 F1500 X94.579 Y110 E108.40722
G1 X94.579 Y99.922 E109.47985
G1 X74.421 Y99.921 E111.62531
G1 X74.421 Y120.079 E113.77078
G1 X94.579 Y120.079 E115.91624
G0 F7500 X94.999 Y120.078
G0 X94.999 Y119.278
G0 X93.779 Y119.279
G1 F1500 X93.779 Y100.722 E117.89131
G1 X75.221 Y100.721 E119.86648
G1 X75.221 Y119.279 E121.84166
G1 X93.779 Y119.279 E123.81683
G0 F7500 X94.999 Y119.278
G0 X94.899 Y118.479
