;FLAVOR:Marlin
;TIME:5934
;Filament used: 4.17407m
;Layer height: 0.16
;MINX:94.35
;MINY:94.35
;MINZ:0.24
;MAXX:140.65
;MAXY:140.65
;MAXZ:60.58
;Generated with Cura_SteamEngine 4.8.0
M140 S100
M105
M190 S100
M104 S240
M105
M109 S240
M82 ;absolute extrusion mode
; Ender 3 Custom Start G-code
G92 E0 ; Reset Extruder
G28 ; Home all axes
G1 Z2.0 F3000 ; Move Z Axis up little to prevent scratching of Heat Bed
G1 X0.1 Y20 Z0.3 F5000.0 ; Move to start position
G1 X0.1 Y200.0 Z0.3 F1500.0 E15 ; Draw the first line
G1 X0.4 Y200.0 Z0.3 F5000.0 ; Move to side a little
G1 X0.4 Y20 Z0.3 F1500.0 E30 ; Draw the second line
G92 E0 ; Reset Extruder
G1 Z2.0 F3000 ; Move Z Axis up little to prevent scratching of Heat Bed
G1 X5 Y20 Z0.3 F5000.0 ; Move over to prevent blob squish
G92 E0
G92 E0
G1 F2700 E-5
;LAYER_COUNT:254
;LAYER:0
M107
G0 F1200 X95.912 Y95.68 Z0.24
;TYPE:SKIRT
G1 F2700 E0
G1 F1200 X96.104 Y95.511 E0.02393
G1 X96.572 Y95.157 E0.07882
G1 X96.614 Y95.13 E0.08349
G1 X97.143 Y94.846 E0.13966
G1 X97.425 Y94.721 E0.16851
G1 X97.95 Y94.531 E0.22074
G1 X98.456 Y94.425 E0.2691
G1 X98.709 Y94.389 E0.293
G1 X99.258 Y94.35 E0.34449
G1 X115.736 Y94.35 E1.88591
G1 X116.166 Y94.374 E1.9262
G1 X116.525 Y94.428 E1.96016
G1 X116.837 Y94.49 E1.98991
G1 X117.495 Y94.682 E2.05403
G1 X117.524 Y94.693 E2.05693
G1 X117.981 Y94.523 E2.10254
G1 X118.029 Y94.51 E2.1072
G1 X118.711 Y94.389 E2.17199
G1 X118.987 Y94.365 E2.1979
G1 X119.325 Y94.35 E2.22955
G1 X135.742 Y94.35 E3.76527
G1 X136.302 Y94.39 E3.81779
G1 X136.557 Y94.427 E3.84189
G1 X137.102 Y94.547 E3.89409
G1 X137.688 Y94.773 E3.95284
G1 X138.035 Y94.94 E3.98887
G1 X138.52 Y95.217 E4.04112
G1 X138.81 Y95.433 E4.07494
G1 X138.859 Y95.473 E4.08086
G1 X139.437 Y96.056 E4.15765
G1 X139.674 Y96.352 E4.19312
G1 X140.118 Y97.046 E4.27019
G1 X140.146 Y97.102 E4.27605
G1 X140.36 Y97.618 E4.32831
G1 X140.46 Y97.977 E4.36317
G1 X140.548 Y98.362 E4.40011
G1 X140.618 Y98.762 E4.4381
G1 X140.622 Y98.795 E4.44121
G1 X140.65 Y99.264 E4.48516
G1 X140.649 Y135.759 E7.89905
G1 X140.605 Y136.342 E7.95374
G1 X140.569 Y136.58 E7.97626
G1 X140.446 Y137.125 E8.02852
G1 X140.227 Y137.688 E8.08503
G1 X140.06 Y138.035 E8.12105
G1 X139.783 Y138.52 E8.1733
G1 X139.567 Y138.81 E8.20713
G1 X139.527 Y138.859 E8.21304
G1 X138.944 Y139.437 E8.28984
G1 X138.648 Y139.674 E8.32531
G1 X138.188 Y139.991 E8.37757
G1 X137.906 Y140.142 E8.40749
G1 X137.848 Y140.17 E8.41352
G1 X137.329 Y140.376 E8.46575
G1 X137.021 Y140.46 E8.49561
G1 X136.636 Y140.548 E8.53256
G1 X136.236 Y140.618 E8.57054
G1 X136.203 Y140.622 E8.57365
G1 X135.734 Y140.65 E8.6176
G1 X119.242 Y140.649 E10.16033
G1 X118.659 Y140.605 E10.21502
G1 X118.421 Y140.569 E10.23754
G1 X117.876 Y140.446 E10.28981
G1 X117.515 Y140.307 E10.32599
G1 X117.003 Y140.484 E10.37667
G1 X116.511 Y140.582 E10.4236
G1 X116.256 Y140.616 E10.44766
G1 X115.741 Y140.65 E10.49594
G1 X99.261 Y140.65 E12.03755
G1 X98.925 Y140.636 E12.06901
G1 X98.553 Y140.588 E12.10409
G1 X98.283 Y140.54 E12.12975
G1 X97.733 Y140.4 E12.18284
G1 X97.691 Y140.386 E12.18698
G1 X97.139 Y140.154 E12.24299
G1 X96.865 Y140.013 E12.27181
G1 X96.231 Y139.604 E12.34239
G1 X96.188 Y139.57 E12.34752
G1 X95.68 Y139.088 E12.41303
G1 X95.511 Y138.896 E12.43695
G1 X95.157 Y138.428 E12.49184
G1 X95.13 Y138.386 E12.49652
G1 X94.844 Y137.853 E12.5531
G1 X94.719 Y137.57 E12.58204
G1 X94.53 Y137.044 E12.63432
G1 X94.426 Y136.552 E12.68136
G1 X94.39 Y136.303 E12.7049
G1 X94.35 Y135.745 E12.75723
G1 X94.35 Y99.261 E16.17009
G1 X94.364 Y98.925 E16.20155
G1 X94.412 Y98.553 E16.23664
G1 X94.46 Y98.283 E16.26229
G1 X94.6 Y97.733 E16.31538
G1 X94.614 Y97.691 E16.31952
G1 X94.844 Y97.144 E16.37503
G1 X94.983 Y96.873 E16.40352
G1 X95.382 Y96.249 E16.47281
G1 X95.418 Y96.203 E16.47827
G1 X95.912 Y95.68 E16.54557
G0 X96.309 Y96.13
G1 X96.501 Y95.961 E16.5695
G1 X96.896 Y95.662 E16.61584
G1 X96.938 Y95.635 E16.62051
G1 X97.386 Y95.394 E16.66809
G1 X97.668 Y95.269 E16.69695
G1 X98.152 Y95.098 E16.74497
G1 X98.54 Y95.019 E16.78201
G1 X98.793 Y94.983 E16.80591
G1 X99.258 Y94.95 E16.84952
G1 X115.736 Y94.95 E18.39094
G1 X116.105 Y94.971 E18.42551
G1 X116.408 Y95.016 E18.45417
G1 X116.72 Y95.078 E18.48392
G1 X117.277 Y95.241 E18.53821
G1 X117.506 Y95.344 E18.5617
G1 X117.566 Y95.315 E18.56794
G1 X118.138 Y95.102 E18.62503
G1 X118.186 Y95.089 E18.62969
G1 X118.763 Y94.986 E18.68451
G1 X119.039 Y94.962 E18.71043
G1 X119.325 Y94.95 E18.73721
G1 X135.742 Y94.95 E20.27292
G1 X136.216 Y94.984 E20.31737
G1 X136.471 Y95.021 E20.34148
G1 X136.972 Y95.134 E20.38952
G1 X137.428 Y95.313 E20.43535
G1 X137.775 Y95.48 E20.47137
G1 X138.219 Y95.738 E20.51941
G1 X138.431 Y95.898 E20.54425
G1 X138.48 Y95.938 E20.55017
G1 X138.969 Y96.431 E20.61512
G1 X139.206 Y96.727 E20.65059
G1 X139.582 Y97.314 E20.7158
G1 X139.61 Y97.37 E20.72166
G1 X139.803 Y97.846 E20.76971
G1 X139.875 Y98.111 E20.7954
G1 X139.963 Y98.496 E20.83234
G1 X140.022 Y98.834 E20.86444
G1 X140.026 Y98.867 E20.86754
G1 X140.05 Y99.264 E20.90475
G1 X140.049 Y135.759 E24.31864
G1 X140.012 Y136.253 E24.36498
G1 X139.976 Y136.491 E24.3875
G1 X139.86 Y136.991 E24.43551
G1 X139.687 Y137.428 E24.47948
G1 X139.52 Y137.775 E24.5155
G1 X139.262 Y138.219 E24.56354
G1 X139.102 Y138.431 E24.58838
G1 X139.062 Y138.48 E24.5943
G1 X138.569 Y138.969 E24.65926
G1 X138.273 Y139.206 E24.69473
G1 X137.645 Y139.602 E24.76418
G1 X137.587 Y139.63 E24.7702
G1 X136.887 Y139.875 E24.83958
G1 X136.502 Y139.963 E24.87652
G1 X136.164 Y140.022 E24.90862
G1 X136.131 Y140.026 E24.91173
G1 X135.734 Y140.05 E24.94893
G1 X119.242 Y140.049 E26.49166
G1 X118.748 Y140.012 E26.538
G1 X118.51 Y139.976 E26.56052
G1 X118.01 Y139.86 E26.60853
G1 X117.582 Y139.691 E26.65158
G1 X117.511 Y139.657 E26.65894
G1 X117.294 Y139.75 E26.68103
G1 X116.808 Y139.915 E26.72904
G1 X116.432 Y139.987 E26.76485
G1 X116.177 Y140.021 E26.78891
G1 X115.741 Y140.05 E26.82979
G1 X99.261 Y140.05 E28.3714
G1 X98.973 Y140.037 E28.39837
G1 X98.658 Y139.997 E28.42807
G1 X98.388 Y139.949 E28.45372
G1 X97.922 Y139.831 E28.49869
G1 X97.88 Y139.817 E28.50283
G1 X97.414 Y139.62 E28.55016
G1 X97.14 Y139.479 E28.57898
G1 X96.603 Y139.134 E28.63869
G1 X96.56 Y139.1 E28.64382
G1 X96.13 Y138.691 E28.69933
G1 X95.961 Y138.499 E28.72326
G1 X95.662 Y138.104 E28.7696
G1 X95.635 Y138.062 E28.77427
G1 X95.392 Y137.61 E28.82228
G1 X95.267 Y137.327 E28.85122
G1 X95.097 Y136.843 E28.8992
G1 X95.02 Y136.466 E28.9352
G1 X94.984 Y136.217 E28.95873
G1 X94.95 Y135.745 E29.003
G1 X94.95 Y99.261 E32.41586
G1 X94.963 Y98.973 E32.44283
G1 X95.003 Y98.658 E32.47253
G1 X95.051 Y98.388 E32.49819
G1 X95.169 Y97.922 E32.54315
G1 X95.183 Y97.88 E32.5473
G1 X95.378 Y97.418 E32.59421
G1 X95.517 Y97.147 E32.6227
G1 X95.854 Y96.619 E32.68129
G1 X95.89 Y96.573 E32.68675
G1 X96.309 Y96.13 E32.74379
G0 X96.705 Y96.58
G1 X96.897 Y96.411 E32.76772
G1 X97.221 Y96.167 E32.80566
G1 X97.263 Y96.14 E32.81033
G1 X97.629 Y95.943 E32.84922
G1 X97.911 Y95.818 E32.87807
G1 X98.35 Y95.667 E32.9215
G1 X98.625 Y95.613 E32.94771
G1 X98.878 Y95.577 E32.97162
G1 X99.258 Y95.55 E33.00725
G1 X115.736 Y95.55 E34.54867
G1 X116.043 Y95.567 E34.57744
G1 X116.291 Y95.605 E34.60091
G1 X116.603 Y95.667 E34.63066
G1 X117.059 Y95.8 E34.6751
G1 X117.1 Y95.816 E34.67921
G1 X117.399 Y95.954 E34.71002
G1 X117.505 Y96.011 E34.72128
G1 X117.827 Y95.856 E34.75471
G1 X118.295 Y95.681 E34.80145
G1 X118.343 Y95.668 E34.8061
G1 X118.815 Y95.584 E34.85094
G1 X119.091 Y95.56 E34.87686
G1 X119.325 Y95.55 E34.89877
G1 X135.742 Y95.55 E36.43448
G1 X136.13 Y95.578 E36.47087
G1 X136.385 Y95.615 E36.49498
G1 X136.837 Y95.721 E36.5384
G1 X137.168 Y95.854 E36.57177
G1 X137.515 Y96.021 E36.6078
G1 X138.051 Y96.362 E36.66722
G1 X138.1 Y96.402 E36.67314
G1 X138.501 Y96.806 E36.72639
G1 X138.738 Y97.102 E36.76186
G1 X139.045 Y97.583 E36.81524
G1 X139.073 Y97.639 E36.82109
G1 X139.29 Y98.244 E36.88122
G1 X139.378 Y98.629 E36.91816
G1 X139.426 Y98.906 E36.94446
G1 X139.43 Y98.939 E36.94757
G1 X139.45 Y99.264 E36.97803
G1 X139.449 Y135.759 E40.39192
G1 X139.419 Y136.163 E40.42982
G1 X139.383 Y136.401 E40.45233
G1 X139.274 Y136.852 E40.49574
G1 X139.146 Y137.168 E40.52763
G1 X138.979 Y137.515 E40.56365
G1 X138.638 Y138.051 E40.62308
G1 X138.598 Y138.1 E40.629
G1 X138.194 Y138.501 E40.68225
G1 X137.898 Y138.738 E40.71772
G1 X137.384 Y139.061 E40.7745
G1 X137.326 Y139.089 E40.78053
G1 X136.754 Y139.29 E40.83724
G1 X136.369 Y139.378 E40.87419
G1 X136.092 Y139.426 E40.90048
G1 X136.059 Y139.43 E40.90359
G1 X135.734 Y139.45 E40.93405
G1 X119.242 Y139.449 E42.47678
G1 X118.838 Y139.419 E42.51468
G1 X118.6 Y139.383 E42.5372
G1 X118.149 Y139.274 E42.5806
G1 X117.841 Y139.15 E42.61166
G1 X117.505 Y138.99 E42.64647
G1 X117.301 Y139.094 E42.66789
G1 X117.058 Y139.198 E42.69261
G1 X116.617 Y139.344 E42.73607
G1 X116.353 Y139.392 E42.76117
G1 X116.098 Y139.426 E42.78524
G1 X115.741 Y139.45 E42.81871
G1 X99.261 Y139.45 E44.36031
G1 X99.021 Y139.439 E44.38279
G1 X98.763 Y139.406 E44.40712
G1 X98.493 Y139.358 E44.43277
G1 X98.112 Y139.261 E44.46955
G1 X98.07 Y139.247 E44.47369
G1 X97.689 Y139.087 E44.51235
G1 X97.415 Y138.946 E44.54117
G1 X96.975 Y138.663 E44.59011
G1 X96.932 Y138.629 E44.59524
G1 X96.58 Y138.295 E44.64063
G1 X96.411 Y138.103 E44.66456
G1 X96.167 Y137.779 E44.7025
G1 X96.14 Y137.737 E44.70717
G1 X95.941 Y137.368 E44.74639
G1 X95.816 Y137.085 E44.77533
G1 X95.666 Y136.646 E44.81872
G1 X95.614 Y136.38 E44.84408
G1 X95.578 Y136.131 E44.86761
G1 X95.55 Y135.745 E44.90381
G1 X95.55 Y99.261 E48.31668
G1 X95.561 Y99.021 E48.33915
G1 X95.594 Y98.763 E48.36348
G1 X95.642 Y98.493 E48.38914
G1 X95.739 Y98.112 E48.42591
G1 X95.753 Y98.07 E48.43005
G1 X95.912 Y97.692 E48.46841
G1 X96.051 Y97.421 E48.49691
G1 X96.327 Y96.989 E48.54486
G1 X96.363 Y96.943 E48.55032
G1 X96.705 Y96.58 E48.59698
G0 X97.101 Y97.031
G1 X97.293 Y96.862 E48.6209
G1 X97.545 Y96.672 E48.65043
G1 X97.587 Y96.645 E48.6551
G1 X97.872 Y96.491 E48.6854
G1 X98.154 Y96.366 E48.71426
G1 X98.709 Y96.207 E48.76826
G1 X98.962 Y96.171 E48.79217
G1 X99.258 Y96.15 E48.81993
G1 X115.736 Y96.15 E50.36135
G1 X116.174 Y96.193 E50.40251
G1 X116.486 Y96.255 E50.43227
G1 X116.84 Y96.359 E50.46679
G1 X116.881 Y96.375 E50.4709
G1 X117.114 Y96.482 E50.49489
G1 X117.346 Y96.607 E50.51954
G1 X117.492 Y96.705 E50.53599
G1 X117.736 Y96.566 E50.56226
G1 X118.088 Y96.396 E50.59882
G1 X118.452 Y96.26 E50.63517
G1 X118.5 Y96.247 E50.63982
G1 X118.867 Y96.182 E50.67469
G1 X119.143 Y96.158 E50.7006
G1 X119.325 Y96.15 E50.71765
G1 X135.742 Y96.15 E52.25336
G1 X136.044 Y96.172 E52.28168
G1 X136.299 Y96.209 E52.30579
G1 X136.696 Y96.307 E52.34404
G1 X136.908 Y96.395 E52.36551
G1 X137.255 Y96.562 E52.40154
G1 X137.672 Y96.827 E52.44775
G1 X137.721 Y96.867 E52.45367
G1 X138.032 Y97.181 E52.49501
G1 X138.269 Y97.477 E52.53048
G1 X138.508 Y97.851 E52.572
G1 X138.536 Y97.907 E52.57786
G1 X138.705 Y98.378 E52.62467
G1 X138.793 Y98.763 E52.66161
G1 X138.835 Y99.011 E52.68514
G1 X138.85 Y99.264 E52.70885
G1 X138.849 Y135.759 E56.12274
G1 X138.825 Y136.073 E56.1522
G1 X138.789 Y136.311 E56.17472
G1 X138.689 Y136.708 E56.21301
G1 X138.605 Y136.908 E56.23331
G1 X138.438 Y137.255 E56.26933
G1 X138.173 Y137.672 E56.31555
G1 X138.133 Y137.721 E56.32146
G1 X137.819 Y138.032 E56.36281
G1 X137.523 Y138.269 E56.39828
G1 X137.123 Y138.521 E56.4425
G1 X137.065 Y138.549 E56.44853
G1 X136.62 Y138.705 E56.49264
G1 X136.235 Y138.793 E56.52958
G1 X135.987 Y138.835 E56.55311
G1 X135.734 Y138.85 E56.57682
G1 X119.242 Y138.849 E58.11955
G1 X118.928 Y138.825 E58.14901
G1 X118.69 Y138.789 E58.17152
G1 X118.293 Y138.689 E58.20982
G1 X118.099 Y138.608 E58.22949
G1 X117.745 Y138.439 E58.26618
G1 X117.497 Y138.29 E58.29324
G1 X117.326 Y138.409 E58.31273
G1 X117.065 Y138.543 E58.34018
G1 X116.822 Y138.647 E58.3649
G1 X116.274 Y138.798 E58.41808
G1 X116.019 Y138.832 E58.44214
G1 X115.741 Y138.85 E58.4682
G1 X99.261 Y138.85 E60.00981
G1 X98.868 Y138.816 E60.04671
G1 X98.598 Y138.768 E60.07236
G1 X98.302 Y138.692 E60.10095
G1 X98.26 Y138.678 E60.10509
G1 X97.963 Y138.553 E60.13523
G1 X97.689 Y138.412 E60.16406
G1 X97.348 Y138.192 E60.20202
G1 X97.305 Y138.158 E60.20715
G1 X97.031 Y137.899 E60.24242
G1 X96.862 Y137.707 E60.26634
G1 X96.672 Y137.455 E60.29587
G1 X96.645 Y137.413 E60.30054
G1 X96.49 Y137.125 E60.33113
G1 X96.365 Y136.842 E60.36007
G1 X96.208 Y136.294 E60.4134
G1 X96.172 Y136.045 E60.43693
G1 X96.15 Y135.745 E60.46507
G1 X96.15 Y99.261 E63.87793
G1 X96.184 Y98.868 E63.91483
G1 X96.232 Y98.598 E63.94049
G1 X96.308 Y98.302 E63.96907
G1 X96.322 Y98.26 E63.97322
G1 X96.445 Y97.966 E64.00303
G1 X96.584 Y97.695 E64.03152
G1 X96.799 Y97.359 E64.06883
G1 X96.835 Y97.313 E64.0743
G1 X97.101 Y97.031 E64.11056
G0 X97.498 Y97.481
G1 X97.69 Y97.312 E64.13449
G1 X97.912 Y97.149 E64.16025
G1 X98.115 Y97.04 E64.1818
G1 X98.397 Y96.915 E64.21066
G1 X98.794 Y96.801 E64.2493
G1 X99.047 Y96.765 E64.2732
G1 X99.258 Y96.75 E64.29299
G1 X115.736 Y96.75 E65.83441
G1 X116.057 Y96.782 E65.86459
G1 X116.369 Y96.844 E65.89434
G1 X116.622 Y96.918 E65.919
G1 X116.829 Y97.01 E65.94019
G1 X117.061 Y97.135 E65.96484
G1 X117.305 Y97.299 E65.99234
G1 X117.499 Y97.485 E66.01748
G1 X117.588 Y97.396 E66.02926
G1 X117.997 Y97.106 E66.07616
G1 X118.349 Y96.936 E66.11273
G1 X118.609 Y96.839 E66.13869
G1 X118.657 Y96.826 E66.14334
G1 X118.919 Y96.78 E66.16822
G1 X119.195 Y96.756 E66.19414
G1 X119.325 Y96.75 E66.20631
G1 X135.742 Y96.75 E67.74202
G1 X135.957 Y96.766 E67.76219
G1 X136.212 Y96.803 E67.7863
G1 X136.647 Y96.935 E67.82882
G1 X136.994 Y97.102 E67.86484
G1 X137.293 Y97.292 E67.89798
G1 X137.342 Y97.332 E67.9039
G1 X137.564 Y97.556 E67.9334
G1 X137.801 Y97.852 E67.96887
G1 X137.972 Y98.119 E67.99853
G1 X138 Y98.175 E68.00439
G1 X138.12 Y98.512 E68.03785
G1 X138.208 Y98.897 E68.07479
G1 X138.25 Y99.264 E68.10935
G1 X138.249 Y135.759 E71.52324
G1 X138.196 Y136.221 E71.56674
G1 X138.065 Y136.647 E71.60843
G1 X137.898 Y136.994 E71.64446
G1 X137.708 Y137.293 E71.6776
G1 X137.668 Y137.342 E71.68351
G1 X137.444 Y137.564 E71.71301
G1 X137.148 Y137.801 E71.74849
G1 X136.862 Y137.981 E71.7801
G1 X136.804 Y138.009 E71.78612
G1 X136.486 Y138.12 E71.81763
G1 X136.101 Y138.208 E71.85457
G1 X135.734 Y138.25 E71.88913
G1 X119.242 Y138.249 E73.43186
G1 X118.78 Y138.196 E73.47536
G1 X118.358 Y138.067 E73.51664
G1 X118.004 Y137.898 E73.55333
G1 X117.589 Y137.605 E73.60085
G1 X117.483 Y137.533 E73.61284
G1 X117.249 Y137.732 E73.64157
G1 X117.016 Y137.895 E73.66817
G1 X116.829 Y137.991 E73.68784
G1 X116.586 Y138.095 E73.71256
G1 X116.194 Y138.203 E73.7506
G1 X115.939 Y138.237 E73.77466
G1 X115.741 Y138.25 E73.79322
G1 X99.261 Y138.25 E75.33483
G1 X98.973 Y138.225 E75.36187
G1 X98.703 Y138.177 E75.38753
G1 X98.45 Y138.109 E75.41203
G1 X98.238 Y138.02 E75.43354
G1 X97.964 Y137.879 E75.46237
G1 X97.72 Y137.722 E75.48951
G1 X97.677 Y137.688 E75.49464
G1 X97.481 Y137.502 E75.51991
G1 X97.312 Y137.31 E75.54384
G1 X97.149 Y137.088 E75.5696
G1 X97.039 Y136.883 E75.59137
G1 X96.914 Y136.6 E75.62031
G1 X96.801 Y136.209 E75.65838
G1 X96.765 Y135.96 E75.68191
G1 X96.75 Y135.745 E75.70207
G1 X96.75 Y99.261 E79.11494
G1 X96.775 Y98.973 E79.14198
G1 X96.823 Y98.703 E79.16763
G1 X96.891 Y98.45 E79.19214
G1 X96.979 Y98.239 E79.21353
G1 X97.118 Y97.968 E79.24202
G1 X97.272 Y97.729 E79.26861
G1 X97.308 Y97.683 E79.27408
G1 X97.498 Y97.481 E79.30002
G0 X97.894 Y97.931
G1 X98.086 Y97.762 E79.32394
G1 X98.358 Y97.588 E79.35415
G1 X98.64 Y97.463 E79.383
G1 X98.878 Y97.395 E79.40616
G1 X99.131 Y97.359 E79.43006
G1 X99.258 Y97.35 E79.44197
G1 X115.736 Y97.35 E80.98339
G1 X115.94 Y97.37 E81.00257
G1 X116.252 Y97.432 E81.03232
G1 X116.545 Y97.539 E81.0615
G1 X116.777 Y97.664 E81.08616
G1 X117.075 Y97.906 E81.12207
G1 X117.275 Y98.141 E81.15093
G1 X117.439 Y98.407 E81.18016
G1 X117.503 Y98.557 E81.19542
G1 X117.644 Y98.262 E81.226
G1 X117.82 Y98.014 E81.25445
G1 X118.013 Y97.821 E81.27998
G1 X118.258 Y97.647 E81.30809
G1 X118.61 Y97.477 E81.34466
G1 X118.971 Y97.377 E81.3797
G1 X119.247 Y97.353 E81.40562
G1 X119.325 Y97.35 E81.41292
G1 X135.742 Y97.35 E82.94863
G1 X135.871 Y97.359 E82.96073
G1 X136.126 Y97.396 E82.98483
